ncols        384
nrows        216
xllcorner    102.700000000000
yllcorner    1.000000000000
cellsize     0.004166666667
NODATA_value -32767
10 10 10 10 10 10 10 9 9 10 11 12 12 11 10 11 12 11 10 11 11 11 11 10 10 10 10 10 10 10 10 10 10 10 11 12 11 10 9 8 10 10 9 10 11 10 10 11 10 10 11 11 11 10 11 11 9 9 10 9 9 9 7 7 8 9 12 15 20 25 37 62 70 64 39 19 10 9 10 12 13 13 13 14 14 12 11 11 11 11 12 11 11 10 10 11 10 10 12 12 12 12 11 11 9 6 6 8 11 13 12 12 12 13 13 13 14 20 30 34 32 25 23 21 25 27 28 34 40 36 40 43 45 44 37 23 16 19 23 33 36 38 36 41 47 52 57 56 56 58 65 68 73 75 69 63 57 60 61 60 64 71 88 91 82 76 68 62 69 68 72 76 77 85 94 93 99 94 77 67 67 78 94 100 90 84 75 67 61 73 86 87 89 82 79 87 97 110 108 100 105 91 73 63 50 46 45 45 45 46 43 43 42 43 44 45 48 53 58 55 58 65 71 70 67 67 64 60 58 53 43 35 40 47 52 56 46 38 51 90 166 204 176 137 77 58 62 54 63 95 142 177 170 115 146 140 164 193 202 215 180 134 102 75 63 53 43 33 30 32 38 42 40 42 37 44 52 54 50 47 42 39 43 46 44 39 30 22 23 22 21 25 16 13 13 13 13 14 16 24 19 17 23 24 14 15 22 21 19 14 13 14 21 29 34 23 12 12 13 11 9 9 10 10 11 13 14 14 11 9 7 9 10 9 7 6 10 6 1 2 3 1 0 -2 -3 -7 -7 -9 -10 -10 -11 -11 -11 -11 -10 -11 -12 -11 -11 -11 -12 -12 -12 -13 -13 -14 -14 -14 -15 -15 -15 -16 -17 -17 -18 -18 -19 -20 -21 -22 -23 -25 -26 -27 
10 10 10 10 8 9 10 9 8 9 10 8 7 8 9 10 10 10 10 11 12 11 11 11 10 10 10 11 11 11 11 10 11 11 11 12 11 10 9 8 9 8 8 10 11 11 9 10 10 10 10 10 9 9 12 12 10 10 9 8 9 10 9 8 8 9 10 12 14 14 19 30 35 37 29 15 9 9 10 12 13 13 13 13 13 13 13 12 10 9 11 11 10 9 9 10 11 10 12 11 12 13 11 10 9 6 7 10 13 14 12 12 12 12 14 15 15 17 25 34 36 29 24 24 26 26 26 30 33 33 36 35 40 44 37 26 16 15 18 33 41 36 37 41 44 52 62 61 59 52 54 57 65 71 70 65 57 53 51 51 58 65 82 87 87 85 77 66 64 66 73 74 82 88 99 92 94 90 77 61 65 78 98 105 97 92 82 70 63 68 80 79 81 76 80 89 94 106 115 113 104 89 80 71 53 42 41 42 43 47 44 43 42 42 44 45 47 54 56 54 56 57 65 65 60 62 64 61 58 53 43 33 33 38 44 46 45 37 46 69 120 179 203 160 81 43 43 42 50 77 119 148 132 96 140 113 151 190 213 232 220 197 179 150 126 83 52 38 30 30 31 31 32 33 31 41 45 42 39 41 38 35 41 48 44 40 33 20 21 20 16 15 13 12 11 12 13 14 15 18 20 16 16 15 9 10 13 15 15 12 9 10 15 23 26 23 15 18 16 12 10 9 9 8 9 12 14 12 11 11 9 10 9 9 7 6 9 4 1 1 2 2 0 -1 -3 -5 -6 -8 -9 -10 -11 -11 -11 -11 -11 -10 -11 -12 -12 -12 -12 -12 -12 -13 -13 -14 -14 -14 -15 -15 -15 -16 -16 -17 -17 -18 -18 -19 -20 -21 -23 -24 -26 -27 
10 9 9 9 8 10 10 9 8 8 9 7 5 5 7 8 8 8 10 11 13 12 11 10 10 10 10 11 11 11 11 10 11 11 11 12 12 11 10 9 8 8 9 10 12 11 9 8 10 10 10 8 9 11 12 13 11 11 10 7 10 10 11 11 11 11 10 10 10 10 11 14 17 18 15 11 8 10 11 13 13 13 13 13 13 13 13 13 10 9 10 11 9 8 8 8 10 11 12 10 10 10 9 8 8 6 7 11 12 13 12 12 12 13 18 20 17 16 18 28 37 33 28 28 33 33 30 29 32 34 37 36 37 39 33 27 19 17 19 28 37 33 38 38 39 48 59 60 54 48 45 47 53 59 63 63 54 45 45 48 54 58 72 81 81 80 75 65 56 63 71 70 87 84 91 90 83 79 71 58 68 81 92 96 93 88 80 77 68 62 70 74 71 67 74 85 88 93 97 96 87 74 67 61 54 46 41 39 41 44 44 42 41 40 42 44 47 54 54 51 50 48 55 60 58 59 64 65 61 53 41 31 30 33 37 38 39 34 38 51 84 129 155 151 83 39 38 40 50 80 133 189 151 84 88 81 114 147 177 203 234 215 195 181 174 128 75 48 40 40 39 32 27 26 26 33 34 29 27 33 32 34 37 41 36 33 29 19 16 17 17 14 12 11 10 10 11 12 14 15 20 18 13 8 7 7 10 12 13 11 9 9 10 13 16 15 12 12 11 8 9 11 12 13 9 10 12 11 11 12 10 10 9 9 7 6 8 3 2 0 1 1 0 -1 -2 -3 -5 -7 -8 -11 -11 -11 -11 -11 -10 -10 -11 -11 -11 -11 -12 -12 -13 -13 -13 -14 -14 -14 -15 -15 -15 -16 -16 -16 -17 -17 -18 -18 -19 -21 -22 -24 -26 -27 
10 10 10 9 9 10 9 9 9 9 9 8 5 4 4 5 6 9 11 10 12 14 12 11 10 11 10 11 11 11 11 10 11 11 12 13 13 12 11 9 9 10 9 10 11 10 9 9 9 10 9 10 11 10 10 11 11 10 10 8 9 10 10 10 11 12 11 12 12 11 10 10 10 11 10 10 10 11 12 13 13 11 11 11 10 9 10 11 10 10 11 11 10 11 8 8 9 10 9 8 8 8 8 7 6 5 7 11 12 11 11 12 12 14 17 23 21 17 13 16 25 34 30 29 38 44 35 27 30 35 35 36 30 26 27 29 25 22 24 24 30 43 37 34 31 36 47 50 42 46 45 42 45 53 56 50 41 37 45 47 50 54 66 72 73 74 72 63 53 63 70 67 82 78 86 88 84 83 75 59 60 67 78 85 83 84 86 83 71 63 61 63 63 57 66 76 77 81 86 77 75 65 57 60 62 55 44 39 38 39 40 40 39 38 40 43 49 57 53 49 48 46 47 57 57 53 58 69 67 56 46 36 31 30 31 31 32 31 33 44 74 123 120 114 70 38 37 43 58 82 132 193 200 124 65 54 70 91 124 185 264 244 151 114 162 179 121 63 47 48 49 42 35 32 28 26 22 19 17 18 22 31 33 33 26 24 24 17 16 23 25 21 15 12 11 9 8 9 11 14 24 20 13 10 8 7 9 12 13 11 9 9 9 9 12 13 12 9 7 6 9 13 16 24 14 9 13 14 13 12 11 9 9 8 7 6 7 5 4 -2 0 0 0 -1 -2 -4 -5 -6 -9 -10 -11 -11 -10 -10 -9 -9 -10 -11 -10 -12 -13 -13 -14 -14 -13 -14 -14 -14 -15 -15 -15 -16 -16 -16 -16 -17 -17 -17 -18 -20 -22 -24 -26 -27 
9 8 9 9 8 7 7 8 9 8 7 7 5 4 4 4 6 8 11 10 10 11 11 13 12 12 12 11 11 10 10 11 11 11 12 13 13 11 10 9 10 11 10 9 9 9 10 10 7 8 9 11 11 10 10 10 11 10 8 8 8 9 8 8 10 10 10 10 10 9 7 6 8 10 10 9 10 11 12 13 14 8 5 5 6 6 9 12 12 11 10 10 8 7 7 7 9 10 10 10 8 8 9 9 8 7 7 10 11 11 11 12 12 13 13 13 14 12 11 12 17 27 32 33 35 43 32 23 22 24 23 26 24 20 21 29 27 23 25 24 29 51 50 40 28 28 39 35 31 37 39 38 39 42 42 38 44 42 42 41 44 55 64 68 67 65 68 65 54 61 70 68 72 70 75 83 89 85 74 56 60 64 76 82 78 85 87 81 72 66 57 51 60 56 63 65 66 73 70 66 67 67 72 76 75 70 57 45 38 36 37 38 36 35 37 41 48 55 59 57 54 48 44 50 52 46 48 59 67 62 56 50 42 40 36 32 30 28 28 41 73 115 111 92 52 34 41 47 59 87 115 133 154 111 65 48 47 56 72 131 205 206 114 84 134 141 108 59 40 41 46 48 44 36 24 19 18 16 15 15 17 20 20 21 20 17 14 15 23 29 30 30 24 14 10 8 7 7 11 13 15 13 12 15 15 10 9 13 18 16 9 8 8 8 9 10 9 7 7 7 7 12 17 20 16 9 11 14 13 12 11 9 7 6 6 6 7 6 6 -2 -1 -1 -1 -2 -3 -3 -4 -5 -9 -10 -11 -11 -11 -10 -9 -9 -9 -10 -11 -12 -13 -13 -14 -14 -14 -13 -15 -15 -15 -15 -16 -16 -16 -16 -16 -16 -17 -17 -18 -20 -22 -24 -25 -27 
9 8 8 6 5 5 5 6 6 4 5 5 5 5 5 5 6 8 9 10 11 12 12 12 13 13 12 10 9 9 11 11 11 11 12 12 12 10 9 9 10 11 10 9 9 9 10 11 9 9 9 11 12 10 9 9 10 9 9 9 8 7 8 9 10 10 11 9 9 9 8 7 8 9 9 9 9 9 10 10 13 11 7 5 6 6 10 12 11 10 9 7 6 6 6 8 10 11 11 9 9 10 10 11 11 10 9 11 12 11 11 13 13 12 11 10 11 10 9 12 15 19 27 32 25 29 28 21 20 22 20 23 22 18 21 25 25 22 21 20 23 41 60 39 24 23 28 28 29 32 34 37 43 45 44 42 48 48 50 49 45 48 59 66 69 68 64 59 51 56 64 65 65 70 72 81 88 84 74 55 55 58 66 76 80 85 86 82 77 71 61 51 53 55 65 65 64 70 66 65 64 67 76 76 73 71 61 54 47 40 36 36 34 33 35 40 48 61 60 56 53 48 43 45 49 52 52 49 55 63 63 61 54 46 44 41 32 26 25 33 56 81 75 75 45 37 49 50 58 74 79 79 86 72 60 52 44 45 58 101 145 152 95 77 92 76 58 40 34 34 34 34 32 25 22 21 23 22 21 21 20 20 19 22 26 25 19 22 29 34 33 32 31 24 16 10 7 6 10 12 11 11 16 23 23 16 15 15 20 16 13 16 12 11 9 9 9 8 9 8 9 15 22 19 16 9 8 10 11 11 10 8 7 7 7 8 7 7 6 0 -2 -3 -4 -4 -3 -2 -2 -5 -8 -11 -12 -11 -10 -10 -9 -8 -9 -9 -10 -12 -13 -13 -14 -14 -14 -14 -14 -15 -16 -16 -17 -16 -16 -16 -16 -16 -17 -17 -17 -20 -22 -24 -25 -26 
7 6 5 5 5 5 6 7 7 5 5 6 6 6 7 6 8 9 8 8 9 12 13 12 12 13 12 11 10 10 11 11 11 11 12 12 12 10 9 9 9 9 9 8 9 9 10 10 10 9 9 9 11 10 9 9 10 9 8 8 8 8 8 9 11 10 10 11 11 10 9 11 12 12 11 10 10 10 9 8 11 10 7 6 6 7 9 10 10 11 10 6 5 6 7 8 9 9 9 9 9 10 10 11 11 9 10 12 13 11 11 13 13 12 12 12 10 10 9 11 14 16 21 27 19 22 23 20 21 22 23 24 20 16 16 19 25 24 20 18 20 25 36 32 28 25 25 26 27 29 35 44 49 50 53 51 49 49 58 60 51 46 57 60 66 73 69 61 51 55 59 61 62 64 67 77 82 81 76 55 54 62 68 75 82 80 75 75 74 68 61 54 47 54 63 59 57 64 61 62 59 63 73 74 70 70 67 59 53 47 39 34 32 33 40 46 48 58 56 50 46 46 46 48 55 61 59 50 47 57 64 64 56 51 48 44 37 28 24 27 43 65 57 49 39 47 54 46 52 56 54 55 59 57 57 54 46 40 48 69 93 104 86 73 56 40 36 35 39 40 35 31 31 25 25 30 30 26 28 29 25 23 26 30 36 34 24 26 35 39 36 34 35 33 24 15 11 9 9 9 9 17 29 33 28 22 20 21 22 17 19 25 19 15 11 14 14 11 12 15 19 24 26 20 13 9 9 10 10 10 9 7 8 9 9 10 9 7 5 2 -1 -4 -5 -5 -3 -2 -3 -5 -7 -10 -11 -11 -10 -9 -9 -9 -9 -9 -11 -12 -13 -13 -14 -13 -13 -13 -14 -15 -16 -17 -17 -17 -16 -16 -16 -16 -17 -17 -18 -20 -22 -24 -25 -26 
6 5 3 4 5 7 10 10 9 6 5 6 7 7 7 6 7 10 9 8 9 11 12 12 13 12 10 10 9 9 10 11 11 11 11 11 11 10 9 9 9 9 9 8 9 10 10 9 9 9 8 8 10 10 9 8 9 8 8 8 9 9 9 9 11 12 14 15 15 13 12 16 18 16 14 12 11 12 12 10 10 11 10 8 6 7 8 10 13 14 13 8 6 8 9 9 8 7 8 9 9 10 11 11 12 9 10 12 14 13 11 12 12 12 13 12 11 10 11 12 15 17 19 22 16 16 17 18 22 20 24 25 19 14 12 15 20 23 23 20 20 21 27 30 34 28 24 26 27 31 37 49 58 56 58 57 52 54 65 66 58 49 51 54 62 73 72 64 55 53 54 59 61 58 64 72 76 80 75 55 57 63 68 73 78 75 69 66 64 59 55 52 48 50 54 52 49 56 54 54 55 63 73 75 75 72 65 58 55 50 42 34 31 37 50 56 51 52 55 51 46 43 43 45 48 58 60 56 47 47 56 61 59 58 53 49 41 30 26 26 32 45 49 40 42 52 48 37 43 44 42 42 43 45 45 45 41 38 45 53 61 67 69 62 47 42 43 45 49 50 45 40 35 33 38 50 41 29 31 31 30 30 35 37 43 41 30 29 36 42 40 37 37 35 29 21 15 13 10 8 9 19 33 38 33 31 23 25 24 20 25 29 24 16 13 15 19 18 15 21 29 29 28 22 15 11 11 11 11 10 10 8 9 11 12 12 11 9 6 2 3 -4 -7 -5 -4 -3 -3 -4 -7 -9 -10 -11 -10 -9 -8 -9 -10 -10 -11 -12 -12 -13 -13 -13 -13 -13 -14 -15 -15 -16 -17 -17 -17 -17 -16 -16 -17 -18 -19 -21 -23 -25 -26 -26 
3 3 4 4 7 11 10 7 4 2 2 2 2 3 3 4 3 5 5 6 8 10 11 12 13 11 6 7 8 9 10 10 11 11 11 10 10 10 10 10 10 11 10 9 9 10 10 9 8 9 8 8 10 9 8 7 7 7 8 8 10 10 11 12 15 19 22 23 24 20 20 21 21 19 16 12 10 10 11 11 11 12 12 10 8 7 6 9 13 15 14 12 10 10 11 10 8 7 8 9 10 11 10 11 12 10 10 12 13 12 11 12 12 12 13 12 11 11 16 16 18 18 19 19 14 12 14 18 19 17 22 25 18 13 14 14 16 21 24 21 18 18 24 26 29 26 25 26 28 33 37 48 61 59 57 55 57 64 67 64 58 53 47 53 62 69 75 66 60 55 50 58 63 58 59 62 69 77 73 55 56 61 65 72 75 71 67 67 63 57 52 55 59 60 56 52 47 46 45 49 56 65 69 71 69 64 60 57 55 52 45 36 31 35 48 55 54 48 51 53 50 45 42 41 39 49 58 59 53 46 55 58 59 61 57 54 43 34 29 26 26 29 31 33 41 42 34 34 40 38 37 37 37 37 37 36 40 43 50 59 63 68 79 79 76 77 84 78 70 68 72 60 42 52 79 101 67 39 35 34 36 39 47 51 50 45 37 36 37 40 42 38 34 31 28 22 17 17 15 10 8 14 26 36 39 38 30 31 26 25 28 29 23 14 17 23 23 27 23 21 26 24 20 20 17 13 14 13 12 13 12 10 10 11 12 12 11 10 8 4 1 -5 -7 -6 -5 -4 -2 -4 -5 -9 -11 -10 -9 -9 -8 -9 -9 -10 -11 -12 -12 -12 -12 -13 -13 -13 -14 -14 -15 -16 -16 -16 -16 -16 -17 -17 -17 -18 -20 -22 -23 -25 -26 -26 
5 5 4 6 12 10 4 2 2 1 0 0 0 0 0 1 2 2 2 4 5 3 3 4 7 9 8 4 2 8 10 11 11 11 10 10 10 10 10 9 10 10 9 8 8 10 9 8 8 9 8 8 8 7 6 6 7 7 7 10 16 27 27 25 28 33 38 34 35 30 26 23 21 18 16 13 11 10 11 11 12 12 12 8 8 6 6 9 11 12 12 12 11 12 11 9 8 8 8 8 11 12 11 12 13 12 11 11 11 11 11 11 12 12 12 12 12 12 19 19 20 19 19 15 11 11 13 17 18 17 17 23 19 15 21 18 15 18 22 23 19 16 20 24 26 24 23 30 36 34 38 55 63 62 58 55 57 63 65 65 58 54 52 54 58 62 70 65 64 59 50 54 67 59 54 58 66 72 70 57 58 60 62 66 66 61 62 63 61 60 53 57 70 70 66 66 63 53 46 46 53 60 56 54 58 56 59 54 47 45 45 40 34 33 39 46 52 47 44 47 50 45 41 38 37 40 47 55 54 46 48 50 54 62 63 58 50 40 35 28 25 25 24 27 32 30 27 35 49 53 52 54 55 56 56 49 50 56 69 77 87 104 141 159 177 193 202 174 141 130 130 103 74 83 115 149 109 63 45 40 46 61 83 101 80 61 52 54 51 48 48 44 39 37 35 29 25 23 19 13 9 11 22 30 35 42 46 40 33 30 28 23 19 13 18 29 32 29 31 28 26 23 23 23 20 18 16 13 12 13 13 10 9 10 11 12 11 10 9 6 3 4 -7 -6 -4 -2 -2 -3 -4 -9 -11 -9 -8 -7 -8 -9 -10 -10 -11 -11 -12 -12 -12 -12 -13 -13 -14 -14 -15 -15 -16 -16 -16 -16 -16 -17 -18 -19 -20 -22 -24 -25 -26 -26 
4 5 6 9 10 4 2 2 1 -1 -2 -2 -3 -2 -1 0 0 0 0 2 4 5 5 6 5 3 3 4 7 9 10 10 10 10 10 10 11 12 11 10 11 10 9 10 8 8 8 7 8 9 9 7 7 7 6 6 8 7 8 13 29 99 109 90 76 76 73 59 48 37 29 26 22 17 15 14 13 11 10 10 11 13 12 8 8 5 5 10 12 12 12 12 10 8 8 8 9 10 9 10 12 13 12 13 15 13 12 11 11 12 11 12 11 12 13 12 12 14 16 15 18 20 20 17 11 10 12 14 15 19 18 17 18 19 22 19 15 16 18 25 25 19 18 20 23 21 21 27 41 37 47 62 64 61 54 55 55 56 57 60 63 58 67 65 56 53 59 61 64 64 55 48 63 62 55 58 63 68 71 61 54 59 64 63 60 55 60 59 58 61 59 57 65 67 66 65 60 51 46 42 44 46 43 45 53 55 59 52 43 39 41 48 46 38 35 38 43 45 45 41 44 46 44 40 40 41 43 51 57 52 40 48 57 63 62 55 59 52 43 31 23 21 21 22 24 25 29 39 40 44 47 50 58 67 73 61 50 65 103 91 108 168 250 295 339 390 417 378 317 265 222 172 127 115 98 156 154 87 46 51 81 126 152 163 123 111 115 121 115 104 93 90 72 79 83 70 48 32 23 16 11 10 14 22 31 42 54 48 36 30 26 24 23 14 15 26 36 38 38 36 34 30 26 25 24 26 17 12 12 14 14 11 9 9 9 11 10 9 9 8 6 3 6 -5 -4 -2 -2 -2 2 1 -9 -6 -6 -5 -7 -8 -9 -11 -11 -11 -11 -12 -12 -12 -13 -13 -13 -14 -14 -15 -15 -15 -15 -15 -16 -17 -18 -20 -21 -23 -24 -25 -26 -26 
3 3 3 4 3 1 2 1 -1 -1 -2 -2 -2 -2 -1 0 0 0 1 2 3 5 5 4 3 2 2 4 5 4 6 8 10 10 10 11 12 11 11 10 10 10 10 11 8 7 8 8 8 9 9 7 7 7 8 7 7 8 9 14 30 127 165 165 153 147 123 86 60 43 34 28 23 20 16 16 15 12 12 11 12 12 11 10 9 7 6 9 11 12 11 11 8 7 8 9 9 10 10 12 13 13 14 14 15 13 13 12 12 12 11 12 12 13 14 13 12 12 14 15 17 21 20 20 13 10 10 12 15 21 19 16 17 20 18 15 13 13 14 20 26 20 15 15 20 21 22 25 31 33 48 60 59 56 53 52 51 53 57 56 56 57 65 68 63 56 53 54 56 62 57 47 54 55 54 57 55 61 68 59 51 57 61 60 55 51 54 55 55 59 63 67 64 61 58 53 47 41 41 43 41 42 43 47 57 54 55 49 41 38 40 51 52 46 38 34 37 44 48 41 39 43 47 45 41 40 42 45 53 59 44 48 55 62 61 52 56 52 44 32 23 19 20 25 35 42 48 52 45 48 53 55 52 58 73 72 59 63 102 117 161 245 337 410 482 533 553 513 439 378 332 268 177 119 89 134 139 85 48 55 107 176 209 221 196 195 214 220 218 208 196 193 170 158 117 72 44 33 27 18 13 12 12 14 21 29 38 36 30 28 29 29 23 14 13 19 32 44 43 40 43 41 32 42 30 21 18 19 17 16 14 11 11 9 9 10 11 9 8 8 7 5 3 1 -4 -2 -1 2 11 8 2 -4 -4 -5 -6 -7 -9 -10 -11 -11 -11 -12 -12 -12 -13 -13 -13 -14 -14 -15 -15 -15 -15 -16 -16 -17 -18 -19 -21 -22 -24 -24 -26 -27 
1 1 1 2 1 2 1 0 -1 -2 -1 -1 -1 -1 -1 0 1 1 2 3 5 6 4 4 2 1 1 1 2 2 1 3 5 9 11 12 12 11 10 10 11 10 10 9 8 8 8 8 8 8 8 8 8 7 7 7 8 10 14 17 31 91 119 163 191 174 128 89 60 45 38 33 28 24 18 15 14 13 13 13 13 12 10 10 10 8 7 8 10 11 10 10 8 8 9 10 10 10 11 12 12 13 14 13 14 14 13 13 12 11 11 13 13 13 14 13 13 12 17 18 20 22 20 19 13 9 9 10 13 18 20 17 15 14 14 13 12 12 12 15 18 16 13 14 21 25 25 27 26 33 44 54 55 55 53 51 54 55 54 51 51 51 53 59 62 62 61 59 51 49 51 45 45 48 52 54 50 53 61 58 50 53 55 58 58 55 50 50 50 53 60 71 69 65 60 49 41 38 40 42 39 42 45 49 52 53 49 42 38 38 43 57 61 56 44 32 35 41 43 40 37 38 44 47 47 47 47 44 47 57 47 44 54 62 63 57 51 48 42 33 24 20 22 39 51 54 53 57 56 49 52 55 58 57 65 77 73 75 93 142 219 305 358 425 478 496 496 452 400 356 337 302 220 144 115 139 135 98 59 55 100 178 241 282 296 309 333 337 326 303 276 254 223 172 98 55 48 43 34 25 18 13 12 13 14 20 27 34 40 39 36 32 30 23 25 24 42 58 53 49 51 45 37 35 26 26 34 35 26 18 15 12 11 10 9 9 10 10 8 8 7 6 5 3 3 4 1 4 11 16 6 1 -4 -5 -6 -7 -8 -9 -10 -11 -11 -12 -12 -12 -13 -13 -13 -14 -14 -15 -15 -15 -16 -16 -16 -17 -18 -19 -20 -21 -23 -24 -25 -26 
-3 0 -3 -3 -1 0 -1 -1 -2 -2 -1 -1 -1 0 -1 -1 1 1 1 3 4 6 4 4 2 1 1 0 -1 -1 0 1 1 3 6 9 11 11 10 10 10 9 9 8 8 8 7 7 8 8 9 10 9 7 6 7 8 11 17 23 30 44 78 146 203 199 152 111 65 48 41 33 32 29 23 16 13 13 13 14 14 12 10 9 8 9 9 8 9 9 9 10 9 9 10 10 10 10 12 12 11 13 13 13 13 14 13 13 12 12 12 13 14 14 14 14 13 13 15 19 24 27 22 16 11 9 9 9 11 13 15 16 14 13 13 13 13 12 11 13 14 15 13 14 18 22 25 28 23 31 44 52 52 51 51 54 60 59 57 57 55 51 49 48 49 55 61 61 51 44 46 44 42 49 51 53 49 55 65 61 55 50 48 51 52 53 50 46 53 59 61 62 62 61 51 42 39 39 43 45 39 39 47 54 54 54 50 43 41 39 45 56 55 51 44 32 32 35 36 38 37 36 38 42 45 51 52 49 46 47 49 39 47 58 62 61 56 47 35 28 24 19 22 42 52 51 53 59 62 58 52 55 66 68 69 75 88 102 99 146 214 296 339 382 391 380 362 315 293 275 261 249 229 216 193 181 205 173 86 60 87 141 210 292 366 423 436 417 389 354 308 257 215 150 86 63 60 50 37 26 21 14 11 12 11 16 23 33 43 45 42 39 39 37 36 30 42 53 58 58 56 45 34 27 25 33 43 46 34 21 15 12 11 9 9 9 9 9 10 9 7 6 6 6 6 4 2 4 11 14 6 2 -4 -5 -6 -7 -8 -9 -9 -10 -11 -11 -12 -13 -13 -13 -13 -14 -14 -15 -15 -16 -16 -16 -16 -17 -17 -18 -19 -20 -22 -23 -25 -26 
-9 -9 -12 -9 -5 -2 -3 -3 -3 -3 -3 -2 -1 0 -1 -1 1 1 1 3 4 4 4 3 2 1 2 0 -2 -3 -2 -1 -1 1 1 3 7 9 9 10 10 9 9 9 9 7 7 7 8 8 9 10 9 7 7 8 11 14 15 19 23 28 61 141 218 221 182 112 65 50 40 34 33 32 26 18 14 13 14 14 15 14 11 9 8 8 9 9 9 9 9 10 9 10 10 10 11 12 12 13 12 12 12 12 13 13 12 12 11 12 13 13 14 14 15 15 14 13 13 14 20 26 22 15 11 9 9 9 10 10 12 14 14 14 14 14 16 14 13 13 14 14 15 16 18 18 21 24 23 29 45 54 55 52 55 57 64 64 62 62 57 53 51 48 45 45 49 48 43 40 41 40 43 48 50 52 51 57 69 65 60 55 50 46 42 43 43 42 55 61 56 54 57 52 41 38 38 39 49 50 42 38 44 53 60 57 52 43 39 38 46 53 55 54 47 34 28 30 32 34 33 34 39 40 39 44 47 49 48 46 46 34 37 48 58 59 60 46 33 26 22 18 20 34 41 47 55 61 60 64 58 56 60 65 75 77 85 88 78 103 152 225 298 338 329 295 267 245 241 232 201 180 179 201 206 204 266 255 141 95 116 151 205 275 346 428 460 447 424 388 318 220 159 118 82 66 59 46 35 20 20 17 13 11 10 11 17 28 40 45 47 50 49 43 35 33 42 49 52 51 47 37 31 31 35 37 35 37 31 20 14 12 11 9 9 9 9 9 10 10 8 7 6 7 7 6 6 7 17 16 13 -2 -4 -5 -6 -7 -7 -8 -8 -9 -10 -11 -12 -13 -13 -13 -14 -14 -15 -15 -16 -16 -16 -16 -16 -16 -17 -17 -18 -19 -21 -23 -24 -25 
-15 -15 -17 -14 -10 -8 -7 -6 -6 -6 -5 -5 -3 -2 -2 -1 -1 1 1 2 3 3 2 2 1 2 0 -1 -2 -2 -2 -1 0 2 3 4 2 6 8 9 10 9 9 9 8 7 7 7 7 8 9 10 9 8 10 15 24 28 28 23 26 38 73 172 251 213 151 82 54 45 40 36 34 29 23 22 19 15 14 14 15 15 12 9 10 9 9 8 8 9 9 9 10 10 10 11 11 13 13 14 12 12 12 12 12 12 12 11 11 12 13 12 13 14 15 15 14 14 14 13 14 16 15 12 11 10 9 10 10 10 11 13 13 13 14 14 19 20 19 16 15 14 15 14 14 16 18 18 24 29 39 47 48 48 60 65 76 73 64 61 61 57 51 47 45 44 47 46 42 39 39 40 42 42 42 47 56 62 70 66 57 57 54 50 48 47 40 41 56 58 48 45 46 39 33 33 37 43 55 57 48 40 41 49 64 61 49 42 37 36 48 59 63 61 55 44 31 28 27 28 28 31 40 48 49 51 55 60 59 58 59 45 33 33 43 52 58 42 29 23 20 17 20 28 43 56 68 70 64 63 66 72 74 69 75 77 77 79 68 72 113 187 244 265 296 286 257 263 279 242 183 158 131 145 160 198 276 304 214 164 193 216 236 270 321 385 445 463 455 417 344 229 134 93 86 81 66 49 34 19 21 21 17 15 14 14 14 21 32 38 37 42 41 37 34 36 41 40 36 35 35 39 43 44 42 33 26 28 25 18 13 13 12 11 10 9 9 9 10 10 10 8 7 7 7 7 8 13 22 21 7 1 -3 -5 -6 -7 -7 -7 -8 -8 -9 -11 -12 -13 -13 -14 -14 -15 -15 -16 -16 -16 -16 -16 -16 -16 -16 -17 -17 -19 -21 -22 -24 -25 
-21 -22 -22 -19 -15 -12 -11 -9 -9 -9 -9 -8 -6 -4 -3 -3 -2 -1 1 1 0 1 0 0 0 1 1 0 -1 -2 -1 0 2 2 5 4 2 2 5 9 10 10 9 8 8 8 7 7 7 8 9 10 10 10 15 29 56 83 94 58 31 37 80 167 220 182 123 70 55 50 48 40 31 21 20 29 29 20 15 13 14 14 11 9 10 9 9 9 9 9 9 10 10 9 9 10 10 12 13 13 12 12 12 11 12 12 12 11 12 12 12 12 13 14 14 14 15 14 16 16 14 12 12 12 11 10 10 10 10 10 10 12 14 18 23 18 20 23 23 19 17 17 19 15 13 17 18 17 23 28 30 32 36 48 63 69 74 71 63 61 63 60 52 47 45 47 47 48 50 46 42 40 39 41 40 42 50 59 64 59 52 53 54 54 53 54 45 38 50 51 41 40 39 33 31 32 39 50 54 50 45 41 41 47 58 60 49 45 42 38 45 57 58 61 57 45 39 35 29 26 24 28 39 53 59 60 63 67 64 65 66 59 49 37 30 43 52 36 25 21 18 19 25 37 47 55 64 65 61 62 77 102 107 90 89 78 66 65 57 59 95 144 160 210 288 312 303 297 282 244 190 148 98 103 124 169 240 251 227 240 287 325 333 333 342 366 411 430 449 429 372 286 196 110 73 61 49 39 33 27 21 23 23 18 16 22 20 20 30 38 38 45 42 39 40 40 39 37 31 34 46 54 52 46 43 36 32 36 29 20 14 12 12 11 10 10 10 9 10 11 10 8 6 6 6 7 10 14 23 18 5 1 -3 -5 -6 -7 -6 -6 -7 -9 -9 -10 -11 -13 -14 -14 -15 -15 -16 -17 -17 -17 -16 -16 -16 -16 -16 -16 -17 -19 -21 -23 -23 -24 
-27 -28 -28 -24 -20 -17 -14 -13 -13 -13 -12 -11 -9 -7 -5 -4 -3 -2 -1 0 -1 -2 -1 0 0 0 1 1 -1 -1 0 0 2 3 4 3 -1 1 4 6 7 7 6 6 7 9 8 9 7 10 10 9 9 10 21 33 76 155 190 133 53 36 71 120 147 148 115 74 64 58 52 38 25 20 24 31 33 26 18 14 13 12 10 9 10 9 10 9 10 10 10 11 10 9 11 11 10 10 11 13 13 12 11 11 12 12 12 13 13 13 12 13 13 13 14 14 15 16 17 16 14 12 11 12 11 11 10 10 10 10 10 10 13 16 18 17 18 19 19 18 19 20 20 16 16 20 23 20 20 22 23 26 35 49 65 72 67 63 56 57 59 53 48 46 45 46 47 53 58 58 51 42 42 45 42 39 45 55 62 58 48 51 51 50 48 48 43 36 38 39 37 39 37 32 31 33 40 53 55 51 47 41 40 51 54 55 54 55 49 39 39 52 49 50 48 47 50 46 42 34 26 25 33 49 62 59 57 63 61 57 62 64 57 41 27 38 41 30 20 18 22 33 48 40 39 43 48 51 53 56 71 100 118 106 90 71 61 55 47 51 78 110 120 181 259 292 286 253 237 226 193 137 71 61 97 140 145 154 218 307 387 419 415 400 366 342 323 320 375 393 351 284 206 112 77 76 56 38 35 34 29 23 24 22 18 24 29 28 29 34 41 53 50 51 51 50 42 34 34 43 49 50 43 37 37 44 35 23 18 23 18 14 13 12 10 10 11 10 12 14 10 6 5 4 4 6 12 16 20 17 6 1 -4 -6 -7 -7 -7 -7 -7 -8 -9 -9 -11 -12 -14 -14 -15 -16 -17 -18 -18 -18 -17 -16 -15 -15 -15 -16 -16 -18 -21 -23 -23 -24 
-28 -30 -31 -28 -24 -21 -19 -17 -16 -15 -14 -13 -11 -9 -8 -5 -4 -3 -2 -2 -2 -2 -2 -2 -1 -1 -1 0 0 0 1 2 3 4 4 1 -1 -3 -1 3 2 2 2 3 6 10 10 11 5 9 9 7 10 25 44 47 76 162 235 202 84 45 58 74 91 110 109 77 62 57 49 38 31 29 32 32 30 25 18 15 12 11 10 9 10 10 10 9 10 11 10 10 10 10 11 12 11 10 9 11 13 12 11 12 12 12 12 12 12 12 13 13 13 13 14 15 15 16 17 15 13 11 11 11 11 11 11 10 10 10 10 10 12 14 15 16 16 17 17 19 20 20 18 17 18 21 24 23 21 20 24 27 36 51 62 63 61 56 54 56 53 49 47 47 47 46 50 58 63 61 52 44 43 44 44 43 42 43 51 54 45 44 45 46 41 37 36 34 33 34 38 41 37 32 31 38 47 49 48 48 47 41 37 44 45 52 58 57 50 38 34 49 47 42 40 48 54 52 51 42 30 24 28 46 55 51 48 58 61 50 57 62 56 39 24 30 28 25 18 21 36 53 62 48 41 40 40 43 52 60 78 104 114 94 73 61 53 50 41 43 59 80 115 150 210 256 249 218 213 183 132 87 56 53 114 118 96 126 218 320 377 359 336 322 283 247 215 213 257 288 257 196 129 73 67 79 56 37 38 40 34 24 22 26 20 25 34 37 31 30 39 53 57 65 65 58 48 37 42 53 53 48 43 47 43 41 29 19 16 21 17 15 14 12 11 12 13 12 14 14 12 9 7 6 5 7 13 16 15 20 14 5 -3 -7 -7 -7 -7 -7 -7 -8 -9 -10 -10 -12 -13 -14 -15 -16 -17 -18 -18 -18 -17 -16 -15 -15 -15 -15 -16 -18 -20 -22 -22 -23 
-29 -32 -34 -31 -27 -24 -22 -21 -18 -17 -16 -15 -13 -11 -9 -8 -5 -4 -3 -3 -4 -4 -3 -3 -2 -2 -1 -1 0 0 2 1 3 4 4 1 -2 -5 -3 -2 1 2 3 5 5 7 6 10 8 7 13 18 23 58 94 104 125 183 247 209 94 54 52 56 61 69 86 71 60 58 48 39 41 42 38 35 30 22 15 11 9 9 10 10 9 10 9 10 11 12 10 10 10 10 10 11 11 10 10 12 12 11 11 12 12 12 12 12 11 12 13 14 14 14 14 16 16 16 16 15 13 12 11 12 11 11 11 11 11 10 10 10 12 13 13 14 14 14 15 17 18 18 17 17 18 19 19 20 19 21 26 32 36 47 55 55 55 53 53 51 47 46 49 51 49 46 51 62 61 53 49 51 47 52 53 51 46 36 35 39 36 39 40 37 35 32 33 33 32 34 41 48 39 31 32 43 50 47 41 40 42 41 37 37 39 53 60 53 44 37 33 44 48 44 38 43 50 49 51 47 37 27 30 47 50 49 47 49 50 44 46 51 45 31 19 19 17 21 20 28 51 67 61 55 57 58 50 47 49 56 78 98 100 88 70 61 55 48 39 45 48 62 107 128 195 253 245 234 226 159 102 96 101 74 110 76 73 120 202 267 282 253 223 206 178 148 120 118 139 161 141 107 70 50 48 49 42 37 39 42 38 27 23 28 24 25 35 45 40 30 33 44 55 63 63 59 48 37 49 54 50 52 55 54 37 29 28 23 20 19 16 15 14 13 12 13 14 13 14 14 14 12 9 8 8 9 12 13 11 23 25 9 1 -9 -12 -12 -9 -6 -7 -8 -9 -10 -11 -11 -12 -14 -14 -15 -16 -17 -18 -17 -16 -15 -15 -15 -15 -15 -16 -17 -19 -21 -22 -22 
-30 -33 -35 -32 -29 -26 -24 -23 -20 -19 -16 -16 -14 -12 -11 -10 -8 -7 -5 -5 -5 -5 -4 -4 -3 -3 -2 -2 0 1 1 2 2 1 1 1 -2 -3 -3 -3 -2 -1 1 2 5 4 4 7 7 8 26 51 40 50 124 198 252 299 287 170 73 48 47 46 47 51 80 78 60 50 44 40 35 41 43 36 27 17 13 11 8 8 11 11 9 9 10 9 10 10 10 10 10 10 9 10 11 11 10 12 11 12 12 11 12 13 12 12 12 12 14 15 14 14 15 16 16 15 15 15 14 12 12 11 12 12 11 11 11 10 10 10 11 11 13 12 13 14 15 16 15 15 14 17 16 15 16 19 20 23 28 41 42 42 51 53 49 50 52 49 49 50 51 50 46 46 49 62 56 49 60 72 56 55 58 51 43 38 41 41 45 51 47 42 45 42 38 32 31 36 40 44 36 34 33 39 48 46 40 35 38 44 42 37 39 52 55 54 51 45 37 34 37 46 45 37 43 43 49 53 48 36 31 39 47 45 45 44 42 40 34 33 27 18 15 17 17 20 20 26 44 64 60 52 66 75 61 55 58 55 60 76 86 91 79 74 66 53 41 42 40 52 68 101 178 261 265 277 308 235 146 139 180 129 76 42 62 96 141 165 162 159 142 122 101 79 68 67 73 79 73 65 69 64 59 57 48 41 39 41 38 27 23 29 31 29 35 46 51 39 33 45 58 62 59 57 49 39 47 56 56 54 49 40 27 28 30 26 29 21 16 17 16 13 12 12 12 13 14 16 15 13 10 8 7 9 12 12 10 23 21 11 6 -10 -14 -14 -10 -8 -8 -8 -9 -10 -11 -12 -12 -13 -14 -15 -16 -16 -17 -17 -16 -15 -15 -15 -15 -15 -16 -17 -18 -19 -20 -21 
-32 -34 -36 -33 -30 -27 -24 -22 -20 -19 -18 -18 -15 -14 -13 -12 -10 -9 -8 -8 -6 -6 -5 -5 -5 -4 -4 -3 -1 1 0 2 1 0 0 0 -1 -1 -3 -3 -3 -4 -5 -3 1 1 2 5 6 9 34 78 68 47 104 207 300 340 296 158 68 39 35 39 43 44 71 79 67 53 47 42 30 37 38 27 17 12 14 13 10 11 13 12 11 10 10 9 10 10 9 9 9 9 9 9 10 11 11 12 13 13 12 12 12 13 13 12 12 14 15 15 15 14 15 16 16 14 14 13 13 12 12 12 11 11 11 11 11 10 10 9 10 13 13 12 13 13 14 15 14 14 15 16 17 16 17 20 21 25 28 35 41 44 50 50 51 56 56 53 57 54 52 51 52 52 47 46 56 62 72 74 56 49 48 44 39 40 49 49 51 54 54 54 56 52 47 35 31 33 36 37 32 32 34 35 42 42 43 37 36 43 49 40 33 39 45 47 47 47 40 33 39 45 43 31 28 31 37 41 39 31 29 32 40 39 33 34 34 30 23 16 15 16 21 27 29 31 25 19 25 43 48 41 53 66 66 56 65 70 64 62 74 80 75 69 63 52 39 34 44 51 54 74 118 191 243 298 347 278 161 111 156 144 64 43 56 83 93 87 74 77 74 62 48 43 44 45 44 51 65 83 126 95 87 90 67 54 48 44 32 23 20 23 31 38 47 52 54 45 37 38 49 57 58 57 48 46 48 53 52 45 34 26 30 33 27 28 28 19 16 16 15 15 14 12 11 11 13 14 16 16 10 7 7 9 13 14 12 20 21 15 6 12 -17 -14 -12 -9 -8 -8 -9 -10 -11 -12 -12 -12 -13 -14 -15 -16 -16 -16 -16 -15 -15 -15 -15 -15 -16 -16 -17 -18 -19 -21 
-32 -34 -35 -32 -29 -25 -23 -20 -19 -17 -17 -18 -18 -17 -17 -15 -13 -11 -11 -11 -10 -8 -8 -7 -6 -6 -5 -5 -2 -1 0 0 0 0 -1 0 -1 -2 -2 -3 -3 -5 -6 -4 -3 1 2 6 7 10 26 72 105 98 105 177 252 266 203 120 59 33 33 39 40 42 61 76 64 46 40 36 28 26 25 20 19 20 21 17 13 12 14 14 12 10 10 10 10 11 10 9 10 9 9 10 10 11 13 13 14 13 13 13 12 13 13 14 14 14 15 16 15 15 15 16 15 13 12 12 12 12 12 12 11 11 11 11 10 10 10 9 11 12 13 13 13 14 13 15 14 14 16 16 18 18 18 20 20 23 29 35 37 37 45 45 52 56 56 56 57 52 51 56 63 61 49 43 62 82 76 60 53 48 45 46 46 47 51 54 54 52 49 52 56 53 50 41 33 30 30 31 30 31 32 33 33 33 32 30 31 39 47 42 34 32 40 45 44 40 41 36 35 39 40 32 22 22 28 34 32 27 28 30 34 38 40 37 30 28 21 15 17 24 31 36 37 36 30 23 19 25 32 36 48 53 59 52 63 76 83 85 91 79 64 59 63 58 43 37 47 50 43 48 79 147 214 246 273 215 117 73 119 118 49 33 43 60 60 49 42 43 44 38 33 39 38 35 36 45 82 145 172 113 85 91 81 94 77 48 27 21 19 22 28 36 50 61 65 57 47 39 48 56 60 56 49 50 44 42 41 36 30 33 35 35 38 39 30 20 15 14 15 15 15 14 12 11 12 12 13 12 8 6 7 9 11 14 14 19 21 16 10 9 -12 -13 -12 -9 -10 -9 -9 -10 -11 -11 -12 -13 -13 -13 -14 -15 -15 -15 -15 -15 -15 -15 -15 -15 -15 -16 -16 -17 -18 -20 
-32 -34 -34 -31 -27 -23 -21 -18 -16 -15 -15 -18 -20 -21 -20 -18 -17 -15 -16 -15 -12 -11 -10 -9 -9 -8 -7 -6 -4 -2 -1 -1 -1 -2 -2 -2 -1 -1 -2 -3 -3 -4 -5 -5 -4 1 3 7 9 15 31 68 137 163 130 111 139 151 111 79 50 29 28 35 36 36 49 60 55 41 35 31 26 23 24 24 27 28 26 19 14 13 14 13 10 9 10 9 10 11 10 10 10 9 9 10 11 12 13 12 13 13 13 13 13 13 14 14 15 15 15 15 16 16 16 16 16 13 12 13 12 12 12 12 12 11 11 11 11 10 10 10 11 12 12 12 13 14 14 15 16 17 18 17 16 16 17 18 21 22 25 33 41 38 37 40 47 50 50 51 50 47 50 59 70 69 55 46 59 81 70 49 45 45 45 50 51 49 50 53 50 43 40 42 45 43 43 39 34 31 31 31 30 30 32 32 29 27 26 26 27 30 37 40 38 32 36 41 44 39 38 36 31 32 34 31 23 23 24 29 28 26 28 29 31 35 36 36 32 30 24 19 20 28 35 41 43 44 39 32 27 22 19 24 31 41 54 48 56 68 93 110 116 104 76 57 53 54 42 32 42 45 37 41 68 119 159 207 229 158 79 60 100 93 46 26 31 39 41 35 35 34 32 31 35 39 33 30 33 45 95 173 159 102 75 76 82 118 84 47 29 22 23 27 27 32 47 61 72 66 55 43 46 55 59 55 52 51 42 36 34 34 35 35 39 45 48 41 30 21 18 16 14 13 14 14 13 14 15 11 9 8 7 7 6 6 8 12 15 16 20 16 11 8 3 -10 -11 -10 -10 -10 -9 -9 -10 -11 -12 -12 -13 -13 -14 -14 -15 -15 -15 -15 -15 -15 -15 -15 -15 -15 -15 -16 -18 -20 
-33 -33 -33 -30 -25 -22 -19 -16 -14 -13 -14 -18 -23 -23 -22 -20 -20 -19 -19 -18 -17 -14 -13 -13 -12 -11 -10 -8 -6 -5 -4 -3 -3 -3 -2 -2 -2 -2 -2 -2 -2 -3 -4 -3 1 3 6 9 15 23 44 86 140 154 118 63 55 63 62 59 40 23 23 33 35 34 40 50 54 43 34 29 26 25 29 29 31 29 23 16 14 14 13 11 9 9 10 10 10 10 10 9 11 10 9 11 11 13 13 12 13 14 14 14 14 14 14 14 15 15 15 15 16 16 17 17 15 13 13 12 12 12 12 12 12 12 11 11 11 11 10 11 11 11 11 11 12 13 13 15 19 22 21 20 16 15 15 17 22 23 26 32 41 43 38 39 42 42 43 43 42 45 49 60 69 68 57 50 53 59 51 42 38 40 42 48 49 45 45 46 42 38 42 46 44 43 46 42 40 38 39 38 36 36 38 35 29 31 32 30 27 25 26 32 36 34 31 30 34 33 32 31 29 28 27 26 27 33 29 26 26 26 28 28 28 26 25 27 27 26 23 20 22 27 32 39 46 43 40 39 40 32 24 22 19 28 41 42 43 51 74 95 105 121 98 68 56 50 39 29 35 37 38 47 58 82 117 186 210 127 60 55 87 71 46 29 25 32 38 32 32 30 27 30 36 37 29 28 31 42 79 128 100 79 100 105 91 96 69 42 28 22 22 30 32 35 43 56 77 74 60 48 49 58 63 61 58 53 45 38 35 39 39 40 51 55 47 37 30 25 29 23 16 15 13 11 12 16 18 14 10 9 8 7 6 5 6 10 14 13 15 16 15 12 11 4 -11 -10 -10 -10 -10 -9 -10 -11 -12 -13 -13 -13 -14 -14 -14 -14 -14 -14 -14 -14 -14 -14 -14 -15 -15 -16 -17 -19 
-33 -33 -32 -29 -24 -20 -17 -15 -13 -11 -12 -17 -22 -24 -23 -22 -21 -21 -22 -21 -19 -17 -15 -14 -14 -13 -11 -11 -8 -8 -7 -6 -5 -5 -4 -3 -3 -3 -2 -2 -2 -2 -2 -2 1 6 11 15 26 27 38 63 83 85 71 48 32 35 51 55 34 19 22 33 34 35 40 51 58 45 37 31 23 21 30 34 34 29 22 16 15 14 13 11 11 11 10 10 10 11 11 9 10 10 10 11 12 13 14 13 14 14 14 14 14 14 14 15 16 15 15 15 16 16 17 16 15 14 12 12 12 12 12 12 12 11 11 11 11 10 10 11 10 9 10 12 13 12 12 14 19 21 21 23 19 15 17 20 21 22 25 29 36 45 47 49 48 44 42 43 44 49 53 56 60 63 57 49 46 47 42 37 37 38 40 53 56 50 49 44 38 41 49 50 45 46 49 48 47 44 44 47 46 42 38 32 31 40 42 35 32 27 23 24 30 31 29 27 27 28 28 28 33 36 33 31 39 43 39 34 32 31 27 27 26 23 21 20 19 18 17 19 27 32 35 40 42 38 35 40 43 37 31 25 16 19 27 32 35 40 52 67 80 102 103 85 75 63 48 32 31 34 37 43 48 68 111 174 191 115 59 56 79 59 48 40 27 26 36 35 28 26 26 31 35 31 26 27 30 37 55 76 63 74 129 129 91 65 49 35 26 21 20 27 33 41 50 63 101 105 76 57 56 60 65 66 65 57 47 40 43 47 40 42 53 51 44 41 36 28 30 25 19 20 15 10 12 15 17 15 13 13 10 9 7 5 6 9 13 11 11 15 17 17 18 10 4 1 -10 -10 -10 -10 -9 -10 -12 -12 -13 -13 -13 -14 -14 -14 -14 -14 -14 -14 -14 -14 -14 -14 -15 -16 -17 -19 
-34 -34 -32 -29 -24 -19 -17 -16 -13 -9 -10 -16 -22 -26 -23 -22 -21 -21 -22 -23 -20 -18 -17 -16 -16 -16 -13 -13 -11 -9 -8 -7 -7 -6 -5 -4 -4 -3 -3 -2 -2 0 0 0 1 4 13 21 35 25 24 32 35 43 38 33 26 28 42 47 27 18 24 30 30 32 40 48 54 44 37 29 22 19 26 34 35 28 21 16 15 14 13 12 12 12 11 11 11 11 12 11 10 11 11 12 14 15 14 13 13 14 14 14 14 15 15 15 16 16 15 15 16 16 17 16 15 15 13 12 12 12 11 11 11 11 11 11 10 9 9 11 11 11 12 13 13 14 16 14 13 15 19 19 20 19 20 22 22 20 21 24 29 41 53 56 54 46 44 48 52 54 58 58 57 57 54 43 39 41 40 38 38 37 42 67 68 55 52 41 38 47 51 46 45 46 46 50 46 48 50 50 44 41 36 34 36 43 43 37 35 30 24 22 24 24 24 25 28 29 29 29 38 45 45 43 49 47 55 52 48 42 32 29 30 30 26 21 18 20 19 23 30 39 45 50 49 41 37 33 31 28 23 18 16 16 17 21 31 38 45 56 64 69 73 76 68 59 50 35 28 40 45 36 39 60 86 139 184 132 69 45 50 48 45 38 27 21 29 36 28 24 26 30 29 27 27 32 37 37 41 52 50 57 93 96 72 53 41 30 26 25 23 25 32 39 53 71 99 114 87 68 65 58 56 62 64 55 44 44 50 49 41 41 51 54 51 46 40 33 26 22 21 20 14 13 17 19 19 16 15 14 13 11 10 7 9 11 12 11 12 14 17 18 18 20 9 4 -10 -10 -9 -8 -9 -10 -11 -13 -13 -13 -13 -13 -13 -13 -13 -13 -14 -14 -14 -14 -14 -14 -14 -15 -17 -19 
-34 -35 -33 -30 -26 -22 -20 -19 -17 -17 -17 -20 -24 -25 -23 -21 -19 -17 -16 -18 -19 -19 -18 -19 -19 -19 -18 -16 -14 -11 -10 -9 -9 -7 -6 -5 -5 -4 -3 -3 -2 -1 0 0 1 2 8 13 18 14 13 15 16 17 17 17 18 22 28 29 22 18 27 28 28 33 33 40 50 47 37 28 20 19 22 27 33 31 19 15 15 12 11 11 10 12 11 10 11 12 13 12 11 12 11 12 15 15 13 13 13 14 14 13 14 16 15 15 16 16 16 15 16 16 16 15 14 15 13 13 13 12 13 12 11 11 11 10 10 10 9 10 12 12 13 13 13 13 17 17 17 15 15 16 22 23 22 21 21 19 19 22 27 32 45 56 52 46 46 46 51 57 56 56 55 58 56 44 35 35 37 39 36 36 40 53 57 51 45 43 46 49 46 45 45 47 48 50 50 51 49 47 42 40 37 39 41 40 40 35 30 29 28 27 32 27 30 35 34 31 31 27 34 46 54 53 57 50 58 57 53 45 37 40 39 35 28 28 28 27 23 27 32 40 46 53 47 45 46 45 39 31 23 22 22 19 19 22 24 28 33 50 55 52 52 56 53 51 49 38 28 34 46 33 32 48 60 97 143 92 46 37 40 44 45 41 34 23 22 28 26 25 28 28 26 26 31 40 44 41 39 40 41 43 50 56 56 45 34 27 32 34 28 22 27 36 52 64 78 101 91 75 65 59 54 59 58 49 41 47 57 59 51 41 51 59 51 47 41 34 28 25 20 16 14 20 23 25 23 17 13 13 12 12 12 12 12 13 13 13 13 15 20 23 21 21 21 7 -8 -9 -9 -9 -9 -11 -11 -12 -12 -12 -13 -13 -13 -13 -13 -13 -14 -14 -14 -14 -14 -14 -15 -15 -17 -19 
-35 -35 -35 -32 -29 -26 -25 -24 -24 -25 -27 -27 -26 -24 -22 -19 -16 -12 -8 -12 -16 -19 -19 -20 -22 -23 -22 -19 -17 -14 -13 -12 -11 -10 -7 -6 -6 -4 -4 -4 -3 -3 -1 -1 -1 2 4 9 9 8 9 10 9 8 9 10 10 12 12 13 14 16 25 26 31 33 33 36 40 40 33 29 20 16 19 25 32 28 17 14 13 11 11 11 10 11 10 10 11 11 12 12 10 11 11 13 14 14 14 13 13 13 13 12 14 15 14 13 15 15 15 15 15 15 15 15 14 14 14 15 15 14 15 13 12 11 11 11 11 11 11 10 11 12 13 13 11 11 15 21 23 22 20 22 24 27 26 21 20 18 21 24 23 29 45 54 53 48 42 41 46 51 45 47 53 60 64 49 37 34 35 38 35 34 34 40 43 45 48 56 55 54 47 47 48 46 51 55 56 51 45 43 49 44 42 45 45 39 36 36 35 34 32 31 31 28 35 41 36 31 32 27 32 47 57 54 49 46 51 43 39 41 40 44 41 32 33 35 34 31 33 35 32 32 39 47 47 47 52 51 41 31 26 31 30 30 29 25 21 20 22 26 30 40 44 44 41 42 43 35 27 26 30 27 29 37 60 103 138 82 42 33 35 41 37 36 34 25 18 24 23 22 22 25 28 31 38 44 42 39 39 36 34 41 38 42 48 48 41 31 60 57 37 30 26 31 41 50 60 73 75 76 69 63 56 56 65 57 47 50 60 59 56 43 50 61 59 56 47 36 31 28 22 19 18 20 21 26 24 18 15 14 13 12 13 14 14 14 13 12 12 15 20 24 25 27 28 12 3 -7 -8 -9 -10 -10 -10 -11 -11 -12 -12 -12 -13 -13 -13 -13 -14 -14 -14 -15 -15 -15 -15 -15 -16 -18 
-36 -37 -36 -34 -32 -30 -30 -29 -30 -31 -33 -33 -30 -25 -22 -18 -15 -11 -9 -11 -16 -18 -19 -20 -22 -23 -24 -21 -19 -17 -16 -14 -13 -12 -11 -10 -7 -6 -5 -5 -4 -4 -3 -3 -3 -2 2 6 8 9 8 8 8 8 7 8 8 8 9 9 10 14 18 21 27 30 29 27 34 35 28 25 18 14 19 25 33 29 17 12 10 10 11 11 10 10 9 10 12 12 12 12 10 11 13 14 14 13 14 14 14 13 13 13 14 14 13 13 14 15 15 14 14 14 14 14 13 13 14 15 15 15 16 14 12 11 12 12 12 12 12 11 9 11 12 12 12 12 15 19 18 19 25 26 26 28 26 21 18 17 21 22 22 27 41 53 55 47 39 37 36 41 38 43 52 59 59 48 41 37 34 38 34 33 32 34 41 49 53 61 64 58 49 46 48 48 52 56 57 51 43 43 47 43 43 44 41 40 42 41 42 41 38 33 29 31 38 42 42 38 39 30 35 47 56 53 50 45 47 40 35 35 38 42 42 37 45 46 37 30 36 41 39 36 40 50 55 56 61 56 45 39 30 36 38 37 37 33 25 22 21 20 20 23 25 33 40 38 32 28 28 23 20 21 26 40 68 128 183 114 47 27 31 39 36 35 33 26 18 19 19 19 21 25 31 37 44 46 41 36 36 34 35 39 35 37 50 64 63 40 81 87 58 40 29 28 31 43 60 66 64 73 71 65 52 50 62 60 52 55 64 63 56 47 51 63 68 61 50 43 35 29 22 18 22 26 24 29 29 26 19 13 12 12 13 15 16 16 14 12 13 16 17 19 26 31 33 20 6 -5 -7 -9 -8 -10 -10 -10 -10 -11 -12 -12 -12 -13 -12 -14 -14 -14 -15 -15 -15 -15 -15 -15 -16 -18 
-37 -38 -37 -36 -34 -34 -33 -33 -34 -35 -37 -39 -33 -26 -23 -19 -15 -11 -9 -12 -17 -17 -19 -20 -21 -23 -25 -22 -20 -18 -17 -16 -16 -15 -14 -12 -10 -7 -6 -6 -6 -5 -6 -6 -5 -5 1 2 6 9 9 8 9 8 7 7 8 8 8 8 8 10 12 17 24 26 23 19 23 24 23 21 14 13 20 24 29 27 16 10 8 10 12 12 11 10 8 10 11 11 11 12 12 13 14 14 13 12 13 13 13 12 12 13 13 14 13 13 13 14 14 13 13 13 14 13 12 13 14 14 14 14 15 14 13 12 13 15 14 12 12 11 10 12 13 12 13 12 12 12 12 13 19 20 22 24 24 20 16 16 18 19 20 26 36 47 54 45 31 29 31 37 37 36 43 52 53 49 43 40 36 35 33 33 36 38 47 57 61 63 66 58 52 51 47 50 52 51 49 45 44 45 44 43 46 43 42 42 45 49 49 44 42 36 29 33 41 47 50 46 43 34 36 44 51 53 53 44 43 41 37 38 40 39 37 47 57 50 39 31 39 44 46 42 42 49 50 57 65 62 57 51 37 41 49 48 42 36 30 28 28 24 19 17 19 25 36 38 31 26 26 24 21 27 31 43 74 151 176 101 42 26 29 34 37 34 31 28 20 17 16 18 22 24 29 38 42 39 38 35 33 32 39 40 35 34 44 57 60 47 71 92 79 54 39 31 31 40 56 60 60 72 76 66 53 49 63 64 58 63 69 69 58 52 55 64 68 62 54 46 31 26 22 20 27 34 32 33 31 27 20 13 13 14 14 15 17 17 16 12 14 16 16 18 26 22 27 28 11 -4 -7 -8 -10 -10 -10 -9 -9 -9 -10 -11 -11 -12 -12 -13 -14 -15 -15 -15 -15 -15 -15 -15 -16 -17 
-38 -38 -37 -37 -37 -36 -36 -36 -36 -37 -38 -37 -33 -28 -24 -20 -16 -12 -11 -13 -15 -17 -19 -20 -21 -22 -23 -22 -19 -19 -17 -17 -17 -17 -17 -13 -11 -9 -7 -7 -7 -7 -8 -7 -6 -6 -5 1 2 7 9 6 7 8 9 8 7 7 7 8 8 8 10 15 25 33 29 24 20 18 16 13 10 10 15 18 19 20 14 11 10 12 12 11 10 9 9 10 9 9 10 12 12 13 13 13 12 11 12 13 13 12 12 13 13 13 13 13 14 14 13 12 12 13 13 13 12 14 14 14 15 15 15 15 15 13 14 15 14 13 12 11 11 12 12 12 13 13 11 10 11 12 13 13 15 20 24 19 16 16 17 18 20 24 31 37 44 39 28 26 32 46 44 32 29 39 45 45 41 40 38 33 30 34 41 43 53 63 68 67 66 55 54 55 48 52 52 49 47 44 47 47 45 47 47 43 46 47 46 51 51 46 42 36 33 35 44 52 55 50 46 36 37 46 53 53 54 48 45 42 41 43 41 41 42 51 58 50 40 36 39 45 52 49 47 49 42 46 52 52 54 55 45 41 53 56 46 37 37 35 39 35 26 19 18 19 26 32 34 31 25 20 22 33 34 36 62 124 110 57 33 27 28 30 33 33 30 29 25 19 16 18 24 27 29 37 37 33 35 34 30 31 35 35 33 31 34 42 49 54 54 78 92 75 55 42 36 38 46 54 62 73 80 71 63 55 59 59 60 65 71 75 63 56 53 63 67 60 49 38 31 27 23 21 28 36 33 28 26 24 22 17 13 14 15 15 17 17 15 12 13 15 15 17 21 14 18 30 18 5 -5 -8 -10 -9 -9 -8 -8 -9 -10 -10 -11 -12 -13 -13 -14 -14 -15 -15 -15 -15 -15 -15 -16 -17 
-38 -36 -37 -38 -38 -37 -37 -37 -38 -38 -38 -36 -33 -29 -25 -21 -17 -14 -13 -14 -15 -17 -19 -20 -21 -22 -21 -21 -20 -19 -18 -18 -17 -17 -16 -14 -11 -10 -9 -9 -9 -9 -10 -9 -8 -6 -5 -2 2 2 6 8 4 2 8 8 7 7 7 7 7 7 8 12 20 32 33 27 25 26 18 9 8 11 13 13 13 12 9 10 10 12 11 9 9 9 9 9 9 10 10 10 11 10 10 11 12 11 11 13 13 13 12 13 13 13 12 13 13 13 12 12 12 12 12 13 12 14 14 14 15 16 17 17 16 15 15 14 14 14 13 11 11 12 12 12 12 12 11 10 11 12 13 13 15 20 23 19 17 16 16 17 20 23 27 30 33 33 27 25 31 43 48 32 23 28 39 41 41 39 38 36 30 36 42 46 51 60 71 72 65 54 54 55 52 60 58 51 48 46 47 48 52 53 50 45 49 52 47 48 47 42 37 34 40 38 42 51 55 51 44 33 31 46 60 61 59 65 59 48 48 47 44 44 48 51 54 47 43 45 45 49 57 52 46 47 39 42 48 45 42 45 50 48 48 53 46 42 51 52 57 53 38 29 22 17 19 24 31 35 29 18 17 26 29 28 39 60 50 32 30 26 26 28 28 30 33 32 28 22 15 16 22 28 30 34 31 28 32 33 29 28 30 27 25 30 30 38 50 57 52 75 88 69 58 55 46 43 48 60 67 74 79 76 66 54 50 56 65 74 75 68 64 65 57 62 67 61 50 36 33 26 25 25 25 31 32 28 32 32 30 21 13 14 14 15 17 17 14 12 12 14 14 14 14 12 17 30 27 9 -4 -7 -8 -9 -8 -7 -8 -8 -9 -10 -11 -12 -13 -14 -14 -15 -15 -15 -15 -15 -15 -15 -16 -17 
-38 -37 -37 -37 -38 -38 -38 -38 -39 -39 -38 -36 -33 -29 -26 -22 -20 -16 -14 -14 -16 -17 -19 -19 -20 -20 -20 -20 -20 -18 -19 -19 -19 -18 -16 -14 -13 -10 -10 -9 -10 -11 -12 -11 -9 -7 -6 -3 0 2 2 5 7 3 8 3 4 6 6 7 6 6 7 8 13 19 20 21 30 32 21 11 10 12 12 11 12 10 8 9 9 10 11 9 9 10 10 10 10 10 11 10 11 10 10 11 11 11 10 12 13 12 11 12 12 12 12 12 12 12 12 12 13 12 12 13 13 13 14 14 14 15 17 17 16 16 15 14 14 14 13 12 11 13 14 13 13 13 13 12 13 12 14 14 14 18 19 16 14 14 14 15 17 22 23 23 24 37 31 21 22 32 36 31 24 23 30 34 39 38 39 38 28 29 37 46 55 62 72 70 64 55 55 56 56 66 65 55 54 51 48 46 55 59 50 47 50 51 48 48 47 42 35 38 48 45 42 46 51 51 44 38 32 41 51 52 54 62 66 57 50 51 52 52 52 60 60 52 45 45 53 57 56 51 44 41 36 37 44 45 39 34 42 45 48 50 48 51 66 67 60 51 45 42 32 21 19 23 29 33 32 21 16 21 25 30 32 30 25 23 27 25 25 28 24 27 28 31 32 24 14 14 16 21 25 27 29 32 31 28 28 27 28 25 25 28 28 32 41 54 48 69 85 66 42 50 52 50 54 62 63 71 78 71 61 53 53 59 70 74 75 74 78 70 59 56 64 63 48 35 30 30 34 31 29 34 37 34 31 30 27 21 14 14 14 15 15 15 11 11 12 14 16 17 18 15 20 29 34 14 -4 -6 -7 -7 -7 -6 -6 -8 -9 -10 -11 -12 -14 -15 -15 -15 -15 -15 -16 -15 -15 -15 -16 -17 
-37 -37 -37 -38 -38 -40 -40 -39 -39 -39 -38 -37 -34 -31 -29 -26 -23 -19 -18 -17 -18 -18 -19 -19 -19 -19 -19 -20 -21 -20 -21 -20 -20 -19 -18 -15 -13 -12 -11 -11 -11 -12 -12 -11 -9 -7 -6 -4 -2 -1 0 1 4 5 7 2 2 2 2 6 6 7 7 7 8 10 12 13 23 25 17 12 11 12 11 11 10 9 8 10 10 9 9 9 8 10 10 10 10 10 11 10 11 10 10 10 10 10 10 10 11 11 11 12 13 12 11 11 11 11 11 13 13 12 12 12 13 14 14 14 15 16 17 16 16 17 16 15 14 14 13 13 13 13 14 13 13 12 13 12 12 13 15 12 13 15 15 17 15 13 13 14 20 22 23 23 24 44 38 21 22 29 27 27 24 21 23 28 41 41 36 33 26 24 33 42 51 60 69 70 68 57 55 56 59 72 75 64 63 60 54 49 52 57 51 49 51 49 49 51 47 42 38 40 46 50 46 50 52 47 45 40 36 41 44 44 46 50 58 64 60 69 81 93 82 81 72 59 49 50 56 53 47 45 42 36 33 33 37 41 41 34 34 33 38 38 39 45 53 54 45 35 36 37 37 27 19 18 22 29 33 25 17 20 22 26 28 23 23 26 27 23 22 27 23 22 21 26 30 24 14 12 15 25 30 31 32 33 31 28 30 32 25 19 21 24 28 33 35 48 47 63 78 81 57 50 70 65 57 56 56 68 73 68 59 54 61 64 63 66 71 82 89 64 51 47 59 62 49 38 35 38 41 37 35 39 40 33 26 23 19 15 13 13 14 14 15 16 13 11 12 13 15 17 19 21 23 34 44 22 2 -4 -4 -4 -6 -6 -6 -7 -9 -10 -11 -12 -14 -15 -15 -15 -15 -14 -14 -15 -15 -15 -16 -17 
-37 -37 -37 -37 -37 -40 -40 -39 -38 -38 -38 -38 -36 -34 -32 -29 -27 -24 -22 -21 -20 -20 -20 -21 -20 -21 -20 -22 -22 -23 -22 -22 -22 -20 -19 -17 -13 -12 -12 -11 -11 -11 -11 -9 -9 -8 -6 -7 -5 -4 -3 -2 2 3 4 5 6 7 4 7 4 7 7 7 6 7 8 10 12 13 12 11 10 10 12 10 9 8 9 9 8 9 9 9 9 9 9 9 10 11 11 9 9 10 10 10 10 10 10 10 11 10 11 12 13 12 11 12 12 12 12 13 12 11 11 12 13 14 13 13 14 15 15 16 17 16 16 15 14 14 14 12 12 12 12 12 12 12 12 11 10 11 12 11 12 13 15 18 16 13 13 13 15 19 24 27 22 28 31 23 22 32 26 21 24 24 23 26 38 42 36 31 28 21 26 39 46 52 65 71 66 57 55 58 62 78 82 76 73 67 63 60 54 53 52 50 52 55 55 53 48 42 42 47 45 51 48 55 59 51 44 42 38 45 52 52 47 46 51 63 74 103 128 122 93 74 63 57 51 50 50 46 41 40 38 38 39 35 31 33 36 31 27 26 32 34 32 36 41 41 36 28 23 22 22 22 27 22 19 22 27 23 17 17 18 20 22 20 20 26 27 24 19 21 23 21 16 18 21 19 14 12 18 32 36 36 32 33 33 31 30 32 22 15 18 24 31 32 28 33 37 57 66 81 74 52 68 76 72 57 52 58 67 66 56 59 65 66 59 64 69 72 73 61 54 44 55 62 50 42 45 45 45 45 41 41 39 27 25 22 17 15 12 10 13 14 14 14 14 14 12 11 12 14 19 31 26 33 42 19 2 -3 -4 -4 -5 -4 -6 -8 -9 -10 -11 -12 -14 -15 -15 -15 -14 -14 -14 -14 -15 -15 -16 -17 
-36 -36 -36 -36 -36 -36 -36 -37 -38 -38 -38 -38 -38 -36 -34 -32 -30 -28 -27 -26 -24 -22 -22 -22 -23 -22 -23 -23 -25 -26 -25 -25 -24 -23 -21 -18 -16 -13 -13 -11 -11 -10 -9 -8 -9 -8 -8 -8 -8 -7 -6 -4 -3 1 1 3 5 7 8 9 8 7 5 6 5 6 7 8 8 10 12 11 9 9 12 10 8 9 9 9 8 9 8 8 8 8 9 10 10 11 11 10 11 10 10 10 10 9 10 11 10 10 10 11 11 12 12 12 13 13 14 13 12 11 11 11 12 13 13 14 14 15 15 17 17 15 15 15 15 15 13 11 12 12 12 14 14 13 12 11 11 11 11 11 11 10 11 13 16 15 12 12 12 14 16 22 17 15 19 21 20 27 26 20 31 42 32 28 33 35 32 29 31 24 22 32 40 47 62 67 61 60 54 54 62 79 90 101 100 87 73 70 63 59 56 57 57 59 54 49 46 41 43 51 54 57 50 52 55 48 42 42 41 48 55 56 53 52 48 57 69 92 104 85 71 59 51 48 47 47 47 43 45 47 45 47 49 44 37 32 30 29 25 22 27 28 27 30 34 29 27 22 17 17 20 28 36 28 21 19 18 17 16 15 14 15 17 19 15 20 25 24 19 15 17 16 12 14 15 15 13 12 22 34 34 36 30 30 28 28 26 27 20 13 19 24 28 29 33 34 38 62 64 73 70 54 51 67 81 60 54 59 65 63 56 58 60 63 57 60 66 65 63 63 65 52 49 52 45 45 48 46 45 44 39 34 30 22 23 20 15 16 12 12 14 14 12 12 13 13 12 11 11 12 18 28 29 30 35 21 10 -4 -7 -6 -5 -6 -7 -8 -9 -10 -11 -12 -13 -14 -14 -14 -14 -14 -14 -15 -15 -15 -16 -16 
-35 -35 -35 -36 -36 -36 -36 -37 -37 -38 -38 -38 -38 -40 -37 -34 -33 -32 -32 -29 -26 -25 -24 -25 -25 -25 -24 -25 -26 -28 -28 -27 -26 -25 -24 -20 -17 -16 -14 -13 -11 -9 -8 -7 -8 -9 -10 -10 -10 -11 -9 -7 -6 -7 -7 -2 2 5 8 9 9 8 8 8 7 3 6 3 5 7 9 9 7 7 9 10 9 9 10 9 9 9 9 9 8 8 9 11 11 11 11 10 11 10 11 10 9 10 10 10 9 9 10 10 10 12 13 12 13 13 13 12 12 12 12 12 12 12 13 14 15 14 15 16 15 14 15 16 15 15 12 11 12 13 12 12 14 14 13 13 12 12 11 11 11 9 8 9 11 11 10 10 10 10 10 12 12 12 13 17 19 21 22 21 42 71 46 28 29 29 30 30 30 28 23 27 34 41 54 59 59 67 60 53 60 74 91 141 147 115 85 72 68 63 57 62 62 61 54 48 44 41 39 48 57 62 56 52 56 54 48 40 41 50 60 62 60 60 52 58 68 72 70 61 61 59 56 54 57 60 57 52 53 55 54 54 55 50 44 40 36 29 22 18 22 21 20 21 21 17 16 20 28 33 31 34 37 31 27 19 15 17 16 15 15 15 15 15 13 14 16 17 14 11 11 10 10 12 11 12 10 12 23 26 26 25 24 21 20 20 17 17 16 16 21 28 34 39 40 34 38 66 65 70 71 53 46 49 58 56 65 68 66 61 54 56 55 54 53 55 61 68 65 59 58 53 42 40 43 46 45 43 41 37 31 29 27 22 19 15 12 14 18 20 15 11 8 9 12 11 11 11 11 14 16 18 23 22 25 25 18 -4 -9 -8 -6 -6 -7 -8 -9 -10 -11 -12 -13 -14 -14 -14 -13 -13 -14 -14 -15 -15 -16 -16 
-35 -35 -34 -35 -35 -35 -35 -35 -36 -36 -38 -38 -38 -39 -37 -37 -34 -34 -34 -32 -30 -29 -27 -27 -27 -27 -26 -26 -28 -29 -29 -29 -27 -26 -24 -21 -17 -16 -15 -14 -13 -11 -9 -8 -8 -9 -10 -12 -11 -11 -10 -9 -8 -8 -8 -3 1 3 5 6 4 2 2 2 2 2 2 2 2 3 5 3 1 1 6 9 9 10 11 9 9 9 10 9 9 8 10 10 10 10 10 9 10 10 10 10 9 9 8 9 9 10 10 10 11 12 12 12 12 12 13 13 12 12 12 12 12 11 12 14 15 14 14 15 14 14 15 15 15 13 13 12 12 12 11 11 12 12 13 12 12 12 13 12 11 10 10 9 9 10 10 9 9 9 9 10 10 10 11 17 19 16 17 23 32 39 31 27 30 26 29 33 29 30 24 23 26 34 42 44 56 84 86 66 60 71 83 115 114 88 72 67 66 60 57 62 64 62 56 51 48 43 39 49 59 62 59 57 57 55 44 37 36 41 49 55 57 60 57 61 75 87 82 73 72 68 61 56 64 65 57 52 52 52 49 50 47 46 42 40 38 32 24 18 19 20 20 21 19 20 21 30 38 40 34 33 37 36 31 20 21 21 19 20 19 16 15 16 14 13 13 11 11 11 10 11 14 12 9 11 11 12 16 16 15 14 14 16 16 14 11 12 21 31 34 39 42 41 34 29 36 61 52 45 52 44 44 39 41 63 75 65 62 57 53 69 75 60 58 58 61 65 64 60 50 43 35 33 40 48 50 49 46 43 35 25 22 18 15 13 16 19 25 24 18 11 6 9 14 12 9 7 7 11 10 16 16 15 21 26 10 0 -5 -6 -5 -6 -7 -8 -9 -10 -11 -12 -12 -13 -13 -14 -13 -14 -14 -14 -14 -15 -15 -16 
-35 -35 -35 -34 -35 -35 -35 -35 -35 -36 -36 -36 -37 -39 -35 -33 -33 -35 -34 -33 -33 -32 -31 -30 -30 -29 -28 -29 -29 -30 -30 -29 -29 -27 -25 -21 -18 -17 -17 -16 -15 -14 -11 -9 -9 -9 -10 -11 -11 -11 -9 -10 -9 -8 -7 -2 1 4 4 2 1 -1 -3 -2 -2 -2 -2 0 2 3 3 1 1 3 2 7 5 7 9 9 9 10 10 10 9 9 10 9 10 10 9 8 8 9 9 9 9 9 9 10 10 11 10 10 10 10 11 11 10 11 12 13 13 12 12 12 12 11 12 14 14 14 14 14 15 15 16 15 15 14 12 11 13 13 12 12 13 13 13 12 13 13 13 12 11 11 11 10 12 12 11 10 9 9 10 11 10 9 10 13 15 14 16 20 21 18 26 32 28 24 28 34 31 31 29 23 22 28 32 35 54 108 126 102 76 70 70 79 87 81 69 67 66 65 60 57 58 59 54 48 44 43 43 44 51 55 58 61 58 50 42 48 43 42 47 58 71 73 66 70 85 93 87 80 72 59 52 53 57 61 56 54 47 43 45 43 39 34 29 27 25 23 20 25 33 36 33 28 26 33 31 31 38 42 40 37 37 32 28 28 30 32 33 29 26 22 19 16 13 11 12 12 12 13 14 16 18 17 13 11 10 12 13 11 10 10 10 11 12 11 11 15 23 28 32 36 38 34 27 29 45 51 38 31 31 29 35 32 34 47 58 51 50 51 49 62 81 74 69 62 60 62 57 58 54 43 34 29 30 37 38 40 38 35 31 23 17 15 14 16 23 26 29 25 21 15 9 15 21 17 10 6 5 7 8 10 18 21 25 32 17 11 -4 -6 -6 -7 -9 -9 -9 -11 -12 -13 -13 -12 -14 -14 -14 -14 -14 -14 -14 -15 -15 -16 
-36 -35 -34 -35 -35 -35 -34 -35 -35 -34 -34 -35 -34 -35 -34 -32 -33 -34 -34 -35 -35 -34 -34 -33 -32 -31 -31 -30 -29 -29 -30 -29 -28 -27 -24 -22 -19 -19 -18 -19 -18 -18 -17 -13 -12 -12 -11 -10 -10 -10 -10 -9 -8 -7 -5 -1 0 2 1 0 -2 -2 -3 -4 -3 -3 -2 -1 0 1 2 1 1 3 2 4 6 7 8 5 8 9 10 10 9 8 9 9 10 10 9 9 8 9 9 8 9 9 9 10 10 10 10 11 10 9 10 10 10 11 12 12 12 12 11 12 12 11 12 14 13 13 13 14 14 13 14 15 15 14 12 11 11 11 12 11 12 13 13 13 13 14 13 13 13 12 11 10 14 15 14 11 9 9 10 10 10 9 10 11 13 13 14 16 14 13 20 27 23 20 24 29 31 31 33 28 22 20 23 29 55 111 129 107 84 73 67 71 81 76 66 61 67 60 60 62 61 56 54 52 47 46 48 42 46 56 64 69 64 52 45 56 55 51 53 63 78 81 75 80 85 89 77 67 60 53 47 46 47 52 47 45 43 39 37 37 30 26 25 24 27 30 26 34 37 41 38 28 33 41 38 32 35 43 41 37 33 31 35 36 36 34 31 28 27 21 23 20 17 15 17 20 22 22 23 25 28 24 20 20 13 11 13 11 9 9 10 10 10 11 12 15 24 29 35 35 33 28 31 38 59 58 42 35 27 24 35 40 44 42 40 41 51 58 58 55 68 81 73 60 53 55 51 48 45 43 41 35 29 27 27 27 27 26 26 22 15 13 17 21 29 30 29 29 26 17 11 17 24 20 11 6 5 7 8 12 27 30 32 39 29 11 4 -4 -5 -7 -9 -10 -11 -11 -12 -12 -13 -13 -13 -13 -13 -14 -14 -14 -14 -15 -15 -16 
-37 -37 -35 -35 -35 -33 -33 -34 -34 -34 -33 -33 -33 -33 -32 -31 -31 -31 -34 -36 -37 -38 -38 -38 -36 -33 -32 -31 -30 -29 -29 -29 -28 -26 -24 -22 -20 -20 -21 -21 -22 -22 -21 -19 -15 -13 -12 -11 -10 -9 -9 -9 -8 -6 -5 -2 -2 -3 -2 -3 -3 -2 -3 -3 -3 -3 -3 -1 0 0 -1 -1 -1 -2 -2 -1 0 3 5 6 9 6 8 10 9 8 8 9 10 10 10 10 10 10 9 8 8 9 9 9 10 10 10 10 9 9 10 10 11 11 11 11 11 12 12 12 11 12 12 13 13 12 12 14 15 15 14 14 15 14 12 11 10 11 12 11 12 13 14 14 14 15 14 14 14 13 11 12 13 16 17 12 9 9 10 10 10 10 10 11 12 12 12 12 12 14 17 17 16 18 22 25 31 36 38 36 27 21 21 23 45 78 90 77 63 64 59 58 69 69 63 54 56 56 60 67 69 60 53 53 51 51 49 40 45 59 68 73 67 56 53 61 62 62 62 62 70 77 77 78 79 82 70 59 58 57 52 47 45 45 40 35 32 29 32 34 35 33 36 38 40 40 34 38 35 37 33 29 35 41 41 37 38 47 43 39 34 36 42 42 40 36 33 28 23 19 27 24 20 17 20 25 34 30 29 33 32 28 24 19 19 18 18 16 14 13 11 9 9 10 12 17 29 37 36 30 25 28 40 51 58 48 35 28 22 22 38 52 54 46 36 36 51 56 57 56 57 65 71 65 56 54 49 45 44 42 40 37 32 34 34 35 34 37 34 23 15 16 23 24 31 33 28 25 22 16 11 16 23 18 11 7 6 7 10 20 26 26 32 39 39 21 8 4 -3 -6 -9 -10 -11 -11 -11 -12 -12 -12 -13 -13 -13 -13 -14 -14 -14 -15 -15 -15 
-37 -37 -35 -36 -37 -33 -33 -35 -35 -34 -32 -33 -32 -31 -31 -31 -31 -31 -31 -35 -39 -40 -40 -40 -39 -35 -33 -32 -30 -28 -29 -29 -28 -26 -25 -23 -23 -21 -22 -23 -25 -26 -26 -22 -19 -15 -12 -11 -10 -9 -9 -9 -9 -7 -5 -5 -4 -5 -5 -5 -4 -3 -3 -3 -3 -1 -2 -2 -2 -2 -3 -3 -4 -4 -4 -3 -3 -3 2 3 6 7 8 10 11 10 9 10 10 10 10 10 11 11 9 8 8 9 9 9 10 10 10 10 10 10 10 10 10 11 10 10 11 12 13 13 11 12 12 12 12 12 12 13 14 16 14 13 12 11 12 11 10 10 11 12 13 12 13 14 15 16 15 14 14 14 13 13 12 14 16 12 9 10 11 9 10 11 11 11 11 11 9 9 12 13 15 14 15 18 26 32 36 42 39 37 30 26 22 20 30 42 46 42 36 41 40 37 41 43 42 45 60 64 63 66 67 65 59 54 49 52 50 43 47 58 63 67 66 62 58 61 63 68 73 68 69 72 73 76 72 63 62 57 54 53 51 45 42 39 36 32 30 33 42 49 46 45 46 48 47 43 44 41 34 31 29 32 37 41 43 44 42 48 47 41 37 37 42 43 39 35 29 25 23 26 29 27 21 17 21 29 43 37 32 34 28 24 22 20 25 25 24 22 17 18 14 10 9 9 11 20 33 44 33 25 22 28 40 49 49 40 31 22 17 24 43 55 51 45 40 41 42 41 43 49 50 50 62 66 62 59 49 41 44 45 47 45 41 46 44 44 43 40 31 20 19 26 34 31 34 33 26 23 21 16 13 21 22 14 10 8 7 7 9 16 17 18 28 34 38 32 20 12 2 -11 -11 -10 -10 -10 -11 -11 -12 -12 -13 -13 -13 -13 -14 -14 -14 -15 -15 -15 
-36 -38 -36 -37 -38 -38 -37 -37 -37 -35 -34 -35 -35 -35 -34 -33 -32 -31 -31 -36 -39 -46 -46 -46 -40 -36 -34 -33 -30 -30 -29 -30 -28 -28 -27 -26 -25 -24 -24 -26 -27 -28 -27 -24 -20 -16 -14 -11 -12 -10 -10 -10 -10 -9 -7 -6 -6 -7 -6 -7 -5 -5 -3 -3 -4 -3 -3 -3 -2 -3 -4 -5 -4 -5 -5 -5 -3 -4 -3 0 1 2 4 7 10 10 9 10 10 10 9 9 11 11 9 9 9 9 10 10 10 10 10 10 10 10 9 9 10 10 10 11 11 11 12 12 11 12 12 12 12 12 11 11 12 12 12 13 12 10 12 10 10 11 11 10 12 13 14 15 14 15 14 15 15 14 13 13 13 12 11 9 8 8 10 9 11 12 12 11 11 9 8 8 9 9 10 13 15 17 27 39 37 36 38 33 29 29 25 21 20 22 25 26 30 34 29 27 30 39 47 53 61 66 61 60 58 61 64 61 56 53 52 51 54 55 54 60 62 58 56 61 66 76 82 77 77 72 72 72 67 55 53 51 49 45 47 42 36 36 42 37 36 41 48 53 51 54 53 52 46 40 44 42 38 30 32 41 46 44 43 45 44 46 48 41 39 37 35 34 29 25 25 31 30 33 33 29 23 20 20 28 38 32 31 30 24 19 21 27 27 23 19 18 15 16 14 12 11 11 11 16 30 39 28 22 20 26 34 40 38 35 28 20 15 25 39 45 42 43 46 46 46 43 41 40 40 41 44 48 59 69 63 50 52 54 50 46 46 52 48 43 38 30 22 22 29 36 42 38 35 34 32 32 24 15 14 20 15 12 11 9 7 8 9 10 11 14 23 29 33 43 34 17 4 -9 -10 -10 -10 -9 -9 -10 -11 -12 -13 -13 -13 -13 -14 -14 -14 -15 -15 -15 
-37 -39 -41 -39 -39 -38 -39 -41 -38 -38 -37 -38 -39 -39 -38 -36 -35 -31 -31 -34 -38 -48 -48 -48 -40 -36 -34 -32 -32 -31 -31 -30 -31 -30 -30 -28 -27 -26 -26 -28 -28 -28 -28 -24 -21 -17 -14 -13 -13 -13 -12 -13 -13 -13 -11 -10 -8 -7 -7 -6 -7 -5 -4 -4 -4 -5 -5 -5 -5 -4 -4 -4 -4 -5 -5 -5 -4 -4 -3 -1 -1 0 1 2 5 8 9 10 9 9 10 11 10 7 8 9 9 9 10 9 10 10 9 10 11 11 10 10 10 10 10 11 11 11 11 11 11 12 13 13 12 11 11 12 11 11 11 11 11 10 12 11 11 12 12 11 11 12 12 14 15 15 14 15 16 15 14 14 13 10 10 10 11 9 8 9 10 11 12 11 12 10 9 8 9 9 10 10 12 18 22 33 34 32 29 26 27 29 28 27 27 20 19 21 27 33 27 28 52 80 93 83 79 80 67 61 56 51 52 53 58 58 55 53 57 56 51 55 58 54 59 61 64 73 81 80 79 74 68 62 54 46 45 48 43 39 37 36 40 42 43 36 32 35 40 49 59 58 53 48 42 41 41 38 36 29 32 38 48 48 49 50 51 48 46 41 37 32 25 22 22 28 34 37 32 34 37 33 30 25 22 26 36 32 36 37 30 24 23 23 21 19 22 20 20 22 19 19 16 11 10 15 30 35 24 18 21 26 30 35 32 29 23 15 12 21 33 38 38 37 38 41 44 48 49 47 46 46 40 40 50 68 75 62 54 48 48 49 48 51 47 37 28 26 24 24 30 37 43 41 35 30 27 27 20 18 18 15 12 11 11 10 9 8 9 10 13 16 28 33 32 41 47 35 12 2 -7 -8 -8 -8 -8 -10 -11 -13 -13 -13 -13 -13 -14 -14 -14 -14 -15 -15 
-40 -42 -43 -41 -41 -40 -41 -41 -40 -40 -40 -41 -42 -43 -41 -40 -37 -35 -32 -32 -32 -41 -43 -42 -40 -34 -34 -32 -32 -32 -31 -32 -32 -33 -31 -31 -29 -29 -28 -29 -30 -29 -28 -26 -22 -19 -17 -16 -15 -15 -16 -16 -16 -16 -14 -11 -9 -8 -7 -8 -7 -7 -6 -7 -7 -8 -7 -8 -7 -6 -6 -6 -6 -6 -5 -6 -5 -4 -2 -3 -3 -3 -2 0 2 3 5 7 5 6 8 8 9 8 8 9 10 9 9 9 9 9 10 10 11 11 10 10 11 11 11 10 10 11 11 10 11 12 13 14 12 12 12 13 12 12 11 11 11 11 12 10 10 10 10 9 11 12 12 14 14 13 13 15 15 14 14 14 13 10 11 13 12 10 9 9 10 10 11 12 12 11 11 9 10 11 12 12 11 14 18 24 28 31 26 25 30 33 31 32 34 23 18 19 21 25 24 33 83 135 136 106 92 84 77 68 59 58 54 51 52 53 52 50 51 55 50 50 50 52 56 59 63 69 76 81 79 69 60 59 52 47 50 47 41 40 39 41 47 50 50 45 38 34 40 51 62 59 54 52 50 45 43 42 36 29 35 41 43 49 55 56 49 44 42 39 36 31 22 23 35 38 40 37 32 35 41 39 35 32 25 26 34 31 34 34 31 28 25 24 26 26 24 23 22 23 22 22 21 16 10 14 28 29 19 16 21 22 24 32 34 26 17 12 10 14 23 28 28 28 30 32 38 45 49 50 53 56 49 44 44 53 72 75 58 44 41 42 39 38 36 41 41 38 28 29 40 48 46 43 36 28 21 17 15 18 16 12 12 12 12 10 9 8 8 9 14 26 40 41 34 37 44 40 22 5 -6 -7 -7 -7 -7 -9 -11 -12 -13 -13 -13 -13 -13 -14 -14 -14 -15 -15 
-43 -45 -43 -42 -43 -37 -38 -39 -41 -45 -42 -44 -45 -45 -44 -42 -39 -37 -32 -33 -35 -38 -40 -40 -38 -34 -34 -33 -32 -31 -32 -33 -34 -33 -33 -32 -32 -31 -31 -30 -31 -30 -29 -28 -25 -22 -19 -19 -18 -18 -19 -20 -19 -18 -17 -13 -10 -9 -10 -9 -8 -8 -7 -9 -10 -12 -12 -11 -10 -9 -7 -8 -8 -7 -7 -6 -6 -4 -3 -4 -5 -6 -4 -1 1 1 4 4 5 7 6 8 9 9 9 9 9 9 10 10 9 9 9 10 9 10 10 10 11 12 12 11 10 11 11 11 11 11 12 12 12 13 14 14 14 14 13 12 12 12 12 11 11 11 11 10 12 12 12 13 14 13 13 14 14 14 13 13 12 11 13 14 12 12 10 9 10 10 11 12 11 10 11 11 12 13 13 15 12 11 13 19 26 26 27 28 32 31 28 29 31 24 17 17 19 21 24 34 80 128 129 98 90 92 85 72 66 64 60 61 60 60 59 51 45 52 48 48 47 54 58 61 63 64 67 72 73 69 62 57 52 50 51 45 44 44 41 44 52 53 53 52 46 40 41 49 52 53 54 57 56 57 59 51 38 31 37 44 43 47 50 54 50 42 38 34 29 24 24 32 41 42 37 36 39 45 44 40 35 33 26 25 32 32 34 31 29 28 29 31 32 32 26 26 27 26 25 25 24 23 16 11 15 15 11 9 12 14 18 26 28 20 14 13 14 22 24 26 28 31 38 32 31 37 45 50 59 67 59 52 55 56 62 72 64 47 39 34 32 33 41 52 48 38 27 33 46 47 39 33 28 25 21 15 15 20 16 12 15 15 16 13 10 8 7 9 16 23 34 35 33 36 34 28 12 2 -4 -7 -7 -7 -7 -8 -10 -12 -12 -12 -12 -13 -13 -14 -14 -14 -15 -15 
-45 -55 -49 -43 -44 -42 -41 -39 -37 -41 -46 -50 -48 -45 -44 -44 -45 -41 -39 -38 -38 -38 -39 -39 -38 -35 -34 -35 -34 -34 -34 -35 -35 -35 -33 -33 -33 -33 -33 -32 -32 -31 -31 -30 -28 -26 -23 -22 -22 -22 -24 -23 -22 -21 -19 -16 -13 -13 -12 -13 -12 -10 -10 -11 -14 -16 -16 -15 -13 -12 -11 -10 -10 -10 -10 -9 -8 -6 -6 -7 -6 -6 -5 -3 -2 -1 0 2 2 3 3 6 9 9 9 9 9 9 10 9 9 10 9 9 9 10 10 10 10 11 11 10 10 11 11 11 10 10 10 10 11 13 15 15 14 14 14 13 13 12 12 12 11 11 11 10 11 12 13 12 12 13 14 14 14 14 13 12 12 12 13 13 12 12 11 10 11 11 11 13 12 10 11 11 12 15 15 15 13 11 11 15 18 22 30 32 32 29 25 25 27 22 18 17 17 19 28 33 54 78 87 81 80 100 96 76 67 68 67 68 62 60 58 55 45 47 47 48 48 52 56 60 55 54 58 64 72 74 69 63 59 59 57 50 53 50 44 46 55 53 49 49 46 47 47 55 50 46 47 51 50 53 53 45 37 33 34 40 44 46 49 53 52 42 36 33 27 26 33 39 42 42 40 46 50 53 49 41 37 35 26 27 35 37 38 32 32 31 33 36 35 32 26 28 34 35 32 29 25 28 23 16 11 10 8 7 7 12 18 21 20 14 13 19 23 28 32 33 34 37 42 42 41 40 49 55 60 68 64 58 60 65 63 62 64 54 40 32 36 39 48 51 45 35 26 34 47 44 37 30 29 29 23 16 17 23 16 12 15 20 22 16 11 9 8 10 16 19 21 22 27 31 28 16 7 -3 -5 -7 -8 -7 -7 -8 -9 -11 -11 -11 -12 -12 -13 -13 -14 -14 -15 -15 
-49 -55 -50 -45 -43 -40 -43 -42 -39 -39 -41 -45 -46 -44 -45 -45 -45 -44 -42 -41 -41 -41 -41 -38 -38 -37 -37 -36 -36 -36 -36 -35 -35 -34 -33 -33 -34 -34 -33 -33 -34 -34 -34 -33 -31 -29 -28 -27 -27 -27 -28 -26 -25 -24 -21 -20 -18 -18 -18 -16 -14 -12 -13 -15 -16 -20 -21 -19 -17 -15 -15 -14 -14 -14 -14 -12 -11 -10 -9 -8 -9 -7 -5 -5 -3 -2 -1 -1 -1 -2 1 4 8 10 10 10 10 9 9 9 10 10 10 10 10 11 10 10 10 10 9 10 11 11 12 11 10 10 10 10 10 11 12 13 14 14 14 14 13 11 12 12 12 11 10 11 11 13 14 13 12 13 13 14 13 12 12 12 12 12 13 14 13 13 13 12 13 14 13 12 11 9 10 12 13 16 19 16 17 14 12 12 14 21 28 29 30 30 26 24 27 22 23 20 15 17 29 30 32 42 57 74 75 96 103 86 72 72 76 75 67 63 55 51 46 42 50 49 48 55 61 58 48 48 55 64 75 83 80 72 62 58 58 56 62 61 54 54 57 51 46 45 46 50 57 72 57 44 41 43 43 45 44 42 34 33 33 35 42 50 52 51 47 40 34 32 26 30 39 42 45 50 49 56 59 58 51 47 42 38 31 30 35 42 43 38 37 34 34 35 35 30 25 28 34 41 43 35 29 29 28 28 20 14 11 10 9 12 17 15 11 10 14 24 32 31 38 39 41 46 47 54 54 46 48 52 56 65 67 63 62 65 68 68 61 51 41 38 40 45 47 44 42 40 30 35 49 47 37 30 29 28 24 23 20 19 14 14 18 26 25 18 12 10 10 15 22 18 12 13 24 29 23 13 6 -5 -8 -9 -8 -8 -8 -8 -9 -9 -10 -10 -11 -12 -12 -13 -14 -14 -15 -15 
-41 -45 -46 -44 -42 -40 -41 -41 -42 -44 -45 -45 -47 -46 -44 -45 -47 -47 -46 -45 -44 -44 -44 -43 -37 -37 -37 -38 -37 -38 -38 -38 -36 -34 -34 -33 -34 -34 -33 -34 -35 -35 -36 -35 -34 -32 -32 -31 -30 -30 -30 -29 -28 -27 -25 -25 -23 -24 -22 -19 -18 -14 -14 -17 -20 -22 -23 -22 -21 -19 -17 -18 -18 -18 -18 -16 -15 -14 -11 -10 -10 -8 -8 -6 -5 -3 -2 -3 -6 -8 1 1 4 7 9 10 10 9 9 9 10 10 10 10 10 10 10 10 10 9 8 9 10 11 11 12 11 11 11 10 10 9 9 10 11 13 13 13 13 12 13 13 12 10 10 11 12 13 13 13 13 14 14 13 12 11 12 11 12 12 14 14 13 13 14 14 15 15 13 12 9 9 11 12 14 15 21 18 17 18 15 13 15 17 21 23 26 28 26 23 23 23 28 22 15 15 23 24 22 26 36 54 59 72 90 87 73 68 76 75 68 61 55 56 52 42 46 46 46 53 59 49 50 53 58 64 75 85 91 81 69 62 59 58 65 65 64 63 58 53 48 49 48 50 60 70 54 41 35 36 37 36 36 34 32 31 33 35 39 48 54 50 42 38 41 37 29 32 46 57 58 56 51 59 65 63 58 53 47 40 36 37 38 45 47 43 43 38 34 35 34 31 29 33 36 40 45 40 35 30 27 26 30 20 11 10 10 11 12 9 8 13 21 28 35 34 39 44 45 51 57 61 59 54 47 51 56 60 62 63 65 67 74 76 66 54 48 49 46 44 40 40 47 46 33 36 48 49 38 33 32 27 31 34 24 16 13 17 24 29 22 15 12 11 12 23 28 19 11 11 21 26 26 20 7 -8 -10 -10 -9 -9 -8 -8 -8 -8 -9 -9 -10 -11 -12 -13 -13 -14 -15 -15 
-39 -42 -42 -42 -40 -40 -41 -46 -46 -46 -45 -42 -43 -49 -47 -47 -49 -47 -48 -47 -47 -47 -45 -45 -43 -41 -38 -39 -40 -39 -38 -38 -36 -36 -36 -34 -34 -34 -33 -35 -35 -36 -37 -37 -36 -34 -34 -33 -33 -32 -32 -32 -30 -29 -29 -28 -27 -28 -25 -23 -21 -17 -16 -18 -21 -24 -24 -23 -23 -22 -21 -22 -23 -22 -21 -20 -19 -18 -15 -15 -12 -12 -10 -8 -6 -5 -5 -6 -9 -10 -7 -4 0 3 3 7 10 10 9 9 9 10 10 10 10 10 10 9 9 8 7 8 10 10 10 11 11 11 11 11 10 10 10 9 10 11 12 12 12 12 12 11 10 10 10 11 12 13 13 12 12 13 13 13 12 11 11 12 13 14 13 13 13 14 14 15 15 15 14 12 9 10 11 12 13 14 17 20 17 17 17 15 13 16 15 18 19 17 18 15 18 21 28 27 17 14 18 20 20 22 29 36 43 48 69 61 55 64 78 80 69 62 59 56 54 51 45 42 40 40 51 46 50 52 54 58 68 74 88 86 73 69 68 65 62 59 58 54 50 55 56 56 54 53 57 56 44 37 37 36 35 39 40 37 38 36 37 37 38 46 54 55 49 41 45 42 30 30 48 66 70 62 56 57 62 63 60 55 47 41 40 41 38 42 45 42 39 34 29 27 27 32 34 33 31 32 35 39 35 26 21 21 30 23 13 9 9 9 10 11 12 20 30 34 39 42 45 49 51 56 61 62 66 61 55 50 50 53 55 55 58 65 73 76 68 60 57 66 63 47 42 46 51 45 32 37 47 53 46 40 34 30 33 32 24 17 14 19 25 22 16 13 12 12 15 27 21 15 16 17 21 26 27 25 11 17 -8 -9 -9 -8 -8 -8 -7 -7 -7 -9 -10 -11 -13 -12 -13 -14 -14 -15 
-40 -40 -39 -41 -40 -39 -41 -44 -47 -47 -46 -44 -43 -49 -47 -47 -50 -49 -48 -47 -46 -47 -48 -48 -45 -42 -38 -39 -39 -39 -39 -38 -36 -36 -36 -36 -36 -34 -34 -34 -35 -37 -38 -39 -38 -37 -37 -36 -35 -35 -35 -34 -33 -32 -31 -31 -31 -31 -29 -26 -23 -21 -18 -18 -22 -25 -25 -25 -25 -25 -26 -26 -26 -26 -25 -25 -23 -22 -21 -17 -15 -13 -13 -11 -9 -7 -6 -8 -12 -14 -10 -7 -2 3 1 3 7 8 9 10 10 10 11 10 10 10 10 10 9 8 7 9 9 9 10 10 10 10 11 10 10 10 11 10 9 9 10 12 12 12 12 11 10 9 9 12 12 13 13 12 12 12 13 12 11 11 11 11 12 15 14 13 15 15 17 16 14 13 13 12 9 11 13 14 13 12 14 16 17 17 16 14 12 12 14 16 16 16 15 12 20 22 26 27 20 16 17 17 22 28 34 40 43 35 41 41 40 43 60 70 66 62 59 56 60 61 52 47 40 36 44 45 49 53 51 54 64 75 82 79 66 66 68 64 63 62 59 54 52 54 54 57 55 52 58 54 40 34 34 32 36 43 46 44 42 42 45 42 43 46 54 52 44 39 45 37 32 36 51 64 74 69 65 60 58 52 47 44 45 46 44 43 41 41 42 39 40 41 35 31 28 26 27 28 29 23 22 30 32 24 20 25 30 32 25 13 10 10 11 13 18 29 40 42 46 48 49 52 54 57 59 63 71 70 64 62 59 55 62 66 64 63 66 70 66 62 61 81 95 72 50 46 45 37 31 42 52 51 45 39 33 32 30 30 30 21 16 22 21 15 13 16 14 15 22 35 29 20 22 24 23 25 25 25 19 8 11 -7 -8 -10 -8 -8 -7 -6 -7 -9 -10 -11 -12 -13 -13 -13 -14 -14 
-41 -40 -39 -39 -40 -40 -41 -41 -47 -47 -46 -44 -46 -47 -45 -43 -48 -50 -47 -45 -45 -48 -48 -47 -44 -42 -40 -39 -39 -39 -40 -38 -38 -36 -37 -36 -37 -37 -36 -35 -36 -36 -38 -38 -37 -37 -37 -38 -38 -38 -37 -36 -36 -35 -35 -34 -33 -34 -32 -30 -27 -24 -21 -21 -23 -24 -25 -26 -26 -28 -29 -30 -29 -29 -28 -29 -29 -27 -25 -22 -20 -17 -16 -14 -12 -11 -9 -11 -13 -13 -12 -9 -6 -3 1 1 3 3 8 8 10 12 12 11 10 10 9 9 8 8 8 9 10 9 10 10 9 10 11 10 10 11 11 11 10 10 10 10 12 12 11 11 10 9 10 11 12 13 12 12 13 12 12 11 11 11 12 12 12 14 13 14 16 17 18 17 14 12 11 10 10 13 13 13 12 12 13 14 15 15 14 13 11 11 14 14 12 13 14 11 20 25 27 31 23 16 15 19 26 28 29 31 35 29 26 25 27 28 36 52 56 52 48 50 54 61 56 50 48 44 40 41 47 46 43 50 58 64 68 65 58 62 66 62 59 56 54 55 52 47 51 56 55 58 65 55 44 37 32 34 39 47 53 54 51 52 54 47 47 56 58 52 47 41 37 31 34 41 51 60 65 63 65 60 59 52 44 39 46 50 48 46 43 42 44 41 42 41 35 30 27 25 22 24 26 21 15 19 26 26 26 31 35 31 21 11 12 13 11 14 20 27 34 39 43 47 45 47 53 58 57 58 63 66 64 65 56 51 61 70 71 68 65 63 56 57 58 72 101 110 74 49 38 34 33 45 57 54 50 42 35 32 32 37 33 21 14 16 15 15 16 15 14 21 23 35 37 27 24 25 26 26 25 22 21 14 17 -4 -7 -9 -11 -9 -8 -6 -7 -8 -10 -11 -12 -13 -14 -13 -14 -14 
-43 -41 -41 -40 -41 -43 -42 -42 -44 -46 -46 -42 -43 -45 -45 -44 -46 -47 -46 -48 -49 -49 -48 -45 -40 -41 -40 -40 -40 -41 -41 -40 -38 -38 -38 -38 -38 -37 -36 -37 -36 -36 -36 -37 -37 -36 -37 -39 -39 -40 -39 -38 -38 -38 -37 -37 -37 -37 -35 -32 -30 -28 -25 -25 -25 -25 -26 -27 -29 -29 -33 -33 -33 -31 -31 -33 -34 -34 -34 -28 -24 -21 -18 -16 -15 -12 -12 -13 -15 -14 -14 -12 -9 -6 -4 -1 1 2 6 5 9 12 10 10 9 10 9 9 9 8 9 9 9 9 10 9 9 10 11 10 10 10 10 10 10 10 10 10 11 11 11 11 10 8 10 11 11 12 12 13 13 13 11 10 12 12 11 12 14 14 13 13 15 16 17 16 13 12 10 10 11 13 12 12 12 12 12 13 13 13 13 11 11 11 12 14 12 11 10 9 15 23 26 36 31 18 16 20 24 27 25 20 22 24 23 20 21 22 26 40 48 45 41 42 41 48 50 47 51 54 50 39 39 39 44 53 54 57 58 56 55 59 70 72 64 52 50 55 53 45 50 55 57 63 69 61 57 45 37 38 41 49 57 59 62 63 62 55 57 72 68 58 52 46 39 32 35 45 52 54 55 57 62 60 64 59 47 43 48 52 45 43 50 49 46 39 36 39 40 37 32 30 27 24 21 17 14 17 21 21 21 25 30 23 14 11 14 14 11 16 22 24 28 32 37 38 38 44 51 53 51 58 60 62 57 54 47 43 51 60 67 67 57 53 49 54 60 68 88 125 105 61 42 39 43 48 50 50 47 43 42 42 41 38 29 19 14 16 21 21 17 14 14 16 22 39 42 34 28 27 28 28 21 13 13 16 10 4 1 -10 -12 -10 -7 -6 -7 -8 -11 -12 -13 -13 -14 -14 -13 -14 
-43 -42 -45 -42 -42 -43 -42 -42 -44 -44 -46 -45 -47 -50 -54 -49 -47 -45 -45 -47 -48 -48 -48 -47 -44 -41 -40 -42 -42 -42 -42 -41 -40 -40 -38 -38 -38 -37 -37 -37 -36 -36 -36 -37 -37 -37 -38 -39 -38 -39 -40 -39 -40 -39 -40 -39 -40 -39 -37 -36 -34 -33 -30 -28 -28 -27 -27 -27 -29 -30 -31 -31 -32 -32 -32 -32 -34 -34 -34 -31 -28 -25 -22 -21 -17 -17 -15 -16 -16 -16 -15 -14 -11 -9 -7 -5 -2 2 3 5 9 10 6 7 8 9 8 9 9 9 8 9 8 8 9 9 9 10 11 10 9 10 10 10 10 10 9 10 10 10 10 10 9 8 9 12 11 11 11 13 12 12 10 11 12 11 11 12 15 14 13 13 14 16 16 15 13 12 11 11 13 13 12 12 12 12 12 12 12 12 12 11 10 11 11 12 13 12 9 8 12 16 22 32 33 21 17 19 21 27 23 16 15 18 19 17 18 19 21 28 37 39 37 36 35 38 42 43 48 54 56 42 35 37 46 51 50 49 50 50 51 57 70 72 62 48 48 56 59 50 45 54 61 64 66 62 60 51 46 46 44 46 49 54 59 62 67 66 70 87 82 67 55 45 40 33 34 46 55 57 55 52 59 63 65 60 50 47 54 50 41 42 57 63 53 44 38 40 42 39 34 32 31 29 23 17 15 19 17 14 14 16 20 19 13 9 13 18 14 11 16 18 21 24 26 31 36 35 38 43 48 57 56 58 56 48 41 37 41 49 56 56 47 46 49 56 62 70 81 119 122 88 57 49 59 57 50 43 42 46 48 47 46 34 23 18 17 20 28 24 16 15 16 15 20 38 46 38 30 28 26 26 17 10 10 14 13 5 2 -6 -9 -8 -8 -7 -9 -10 -12 -14 -14 -14 -14 -14 -14 -14 
-43 -44 -43 -43 -43 -44 -42 -42 -43 -42 -45 -46 -49 -50 -53 -50 -50 -49 -48 -47 -47 -47 -47 -49 -49 -46 -44 -42 -42 -43 -43 -42 -43 -43 -42 -40 -38 -37 -37 -37 -37 -36 -36 -36 -36 -37 -37 -39 -38 -39 -39 -41 -41 -42 -42 -42 -42 -42 -41 -40 -38 -36 -34 -33 -31 -28 -28 -29 -29 -29 -30 -31 -32 -31 -32 -33 -35 -36 -35 -33 -31 -28 -26 -23 -22 -20 -19 -18 -18 -17 -17 -16 -14 -11 -9 -7 -5 -2 0 2 5 8 9 4 2 8 8 8 8 8 9 9 8 8 8 8 9 9 10 10 9 10 10 10 10 10 10 10 10 10 10 9 8 9 10 11 11 11 12 13 13 10 10 11 12 11 11 13 15 14 13 14 14 14 14 14 12 11 11 12 12 12 12 12 12 12 12 13 12 11 11 11 11 11 11 11 13 14 10 8 13 15 20 30 32 24 16 19 22 20 16 15 15 16 18 18 19 20 21 25 28 32 35 32 32 37 44 45 47 47 48 40 36 33 37 43 41 40 50 45 46 60 72 70 54 43 47 57 60 53 45 52 58 64 67 64 70 61 56 55 55 56 53 55 59 60 63 68 74 84 84 76 59 49 42 36 34 44 54 59 54 44 54 63 69 71 59 51 62 56 48 44 50 60 59 54 43 39 38 35 32 27 27 27 25 20 18 16 12 12 12 12 14 17 13 8 9 13 14 9 10 12 14 17 22 31 34 25 29 41 48 52 53 52 50 42 38 34 33 39 44 46 50 55 55 60 65 69 73 94 110 108 81 71 73 72 64 45 41 43 41 36 35 28 23 25 27 30 32 27 17 19 21 18 17 25 38 36 32 30 28 27 21 15 12 13 13 9 3 1 -5 -7 -8 -9 -9 -12 -13 -15 -16 -15 -15 -14 -14 -14 
-44 -44 -44 -43 -44 -46 -43 -41 -41 -41 -43 -43 -44 -46 -50 -48 -53 -55 -50 -47 -47 -46 -43 -36 -37 -47 -48 -45 -43 -44 -45 -44 -45 -45 -46 -43 -40 -40 -38 -38 -37 -36 -36 -36 -37 -36 -37 -38 -38 -38 -40 -41 -42 -42 -43 -44 -45 -44 -44 -42 -41 -40 -39 -36 -33 -30 -31 -31 -31 -30 -30 -30 -32 -32 -33 -34 -35 -35 -35 -35 -35 -35 -29 -26 -25 -24 -21 -22 -20 -19 -19 -18 -16 -13 -12 -9 -8 -6 -4 0 3 6 8 9 9 10 7 8 9 8 8 8 8 8 8 8 8 8 9 9 9 9 9 9 10 9 9 10 11 10 10 9 10 11 11 11 11 12 12 12 10 10 9 11 12 11 12 14 13 14 15 16 16 14 13 13 13 11 11 12 11 11 12 12 12 13 13 14 13 12 11 11 11 10 12 11 11 14 11 9 15 18 20 27 28 21 13 14 14 13 12 14 17 17 19 19 19 22 21 24 25 27 31 31 33 39 42 43 43 43 41 37 34 35 34 35 32 33 40 39 49 67 72 66 50 40 44 52 55 48 41 40 52 60 65 70 75 69 62 58 56 58 57 60 66 67 65 68 71 76 77 70 62 57 50 43 36 42 55 64 55 49 52 56 64 70 67 57 68 66 57 53 57 62 64 62 51 45 43 36 33 28 26 27 27 19 23 24 20 20 18 17 13 12 9 8 11 15 15 11 12 14 18 22 24 28 26 21 32 42 43 49 50 44 38 36 42 43 39 41 47 52 61 68 65 62 66 67 68 76 86 96 95 99 90 92 69 47 37 33 31 27 29 33 30 35 43 44 39 26 17 20 27 27 24 28 31 34 36 28 25 26 25 23 18 16 15 13 10 8 -3 -5 -7 -10 -11 -12 -14 -16 -17 -16 -15 -15 -15 -15 
-44 -44 -44 -44 -44 -46 -44 -41 -41 -41 -42 -43 -43 -45 -49 -48 -53 -55 -50 -47 -47 -45 -42 -34 -35 -46 -46 -46 -42 -44 -43 -45 -45 -46 -45 -45 -42 -41 -38 -38 -37 -36 -36 -37 -36 -37 -36 -37 -38 -38 -40 -41 -42 -43 -44 -45 -47 -46 -45 -44 -45 -44 -43 -40 -36 -32 -33 -33 -33 -32 -30 -32 -32 -32 -33 -35 -36 -35 -36 -36 -35 -35 -33 -29 -28 -27 -24 -24 -23 -22 -22 -21 -18 -15 -13 -12 -11 -10 -6 -3 1 5 5 6 7 9 9 8 9 8 7 8 7 7 8 8 8 9 8 8 7 9 8 9 10 9 8 9 8 8 10 9 9 11 10 9 11 12 11 10 10 10 11 12 12 11 12 13 15 15 15 15 15 13 12 12 12 11 11 11 12 11 12 12 12 13 13 14 14 13 12 11 10 11 16 12 9 12 11 9 13 16 19 22 21 16 12 11 11 13 13 16 19 19 20 20 20 21 23 32 32 30 30 32 37 39 41 44 45 44 39 38 36 39 42 39 33 31 32 42 56 64 59 54 45 39 44 49 50 49 46 42 47 52 60 66 67 65 62 56 55 62 61 65 73 74 70 69 73 76 72 68 63 60 59 50 38 44 59 67 64 64 65 66 69 66 67 67 67 68 66 65 69 72 66 61 57 57 56 50 41 37 36 35 30 24 24 22 26 31 29 30 25 16 6 8 14 16 16 14 12 14 17 19 19 22 17 20 33 39 45 47 43 34 31 39 46 50 51 51 55 62 67 70 70 63 64 65 68 69 68 78 83 93 103 102 70 53 39 34 33 31 39 41 34 38 47 44 34 26 18 16 23 27 29 39 41 34 33 28 23 26 25 20 16 19 19 14 16 10 6 -4 -8 -11 -13 -14 -16 -17 -17 -16 -16 -16 -15 -15 
-44 -44 -45 -44 -43 -43 -44 -41 -41 -42 -42 -42 -42 -43 -44 -45 -48 -49 -48 -47 -48 -49 -44 -39 -39 -43 -44 -45 -43 -43 -42 -42 -43 -45 -45 -43 -44 -43 -38 -38 -38 -37 -37 -37 -37 -36 -36 -37 -37 -37 -38 -39 -40 -43 -46 -47 -48 -48 -47 -47 -46 -46 -46 -43 -38 -34 -34 -34 -34 -34 -33 -34 -34 -34 -35 -37 -38 -37 -36 -36 -36 -35 -35 -32 -31 -30 -27 -27 -27 -26 -25 -23 -21 -19 -16 -14 -15 -12 -9 -6 -2 0 4 5 6 8 8 5 7 9 8 8 8 7 7 7 7 8 8 8 8 9 9 9 10 10 9 9 8 9 11 10 9 10 10 9 10 10 9 9 11 11 11 12 12 11 11 13 14 14 13 13 14 12 12 11 12 11 11 12 13 14 14 13 13 13 13 14 14 13 12 11 11 11 16 13 9 9 9 8 12 13 16 16 14 14 13 11 11 13 16 18 25 28 24 22 23 23 26 38 42 40 35 34 36 39 43 47 48 44 39 41 42 42 41 41 37 36 30 37 49 49 47 48 40 40 46 45 43 47 46 46 47 45 49 58 57 56 55 54 57 67 68 71 80 83 81 79 78 77 76 76 68 57 54 48 39 42 53 67 73 74 75 74 75 72 71 70 64 63 66 71 72 71 67 68 67 68 66 59 50 40 41 40 32 29 25 25 31 42 40 33 28 17 8 8 11 11 13 13 11 13 16 16 16 17 15 20 27 33 43 43 40 27 27 40 52 57 57 59 69 78 79 75 71 60 62 66 70 71 61 66 66 80 101 98 75 52 42 37 34 36 44 47 40 43 44 35 29 26 19 15 18 21 25 35 44 40 36 33 34 29 26 22 19 17 17 15 14 14 10 6 -10 -13 -14 -16 -17 -18 -17 -17 -16 -15 -15 -15 
-44 -41 -44 -44 -41 -44 -43 -42 -42 -41 -41 -42 -41 -41 -39 -40 -41 -42 -44 -45 -47 -48 -46 -45 -46 -45 -45 -48 -47 -45 -43 -43 -40 -40 -43 -45 -44 -44 -45 -42 -41 -43 -42 -37 -37 -36 -35 -35 -35 -35 -37 -38 -39 -39 -42 -44 -46 -49 -48 -47 -47 -47 -47 -44 -42 -38 -38 -37 -38 -39 -38 -41 -41 -38 -39 -39 -38 -38 -38 -37 -37 -37 -36 -34 -34 -32 -32 -33 -32 -31 -27 -26 -25 -22 -19 -18 -16 -16 -13 -9 -6 -3 0 3 3 5 7 7 8 8 8 8 8 7 6 6 7 8 8 7 8 9 9 9 9 10 10 9 8 10 11 9 8 9 8 9 9 9 10 10 12 12 11 12 13 12 12 13 12 12 11 12 12 11 12 12 12 12 12 12 13 15 16 15 14 14 13 13 13 13 13 11 10 10 12 13 11 9 8 8 11 13 13 13 13 16 21 16 12 13 16 20 26 33 29 25 26 28 30 35 39 39 38 43 43 40 43 43 45 44 41 42 50 49 45 40 37 33 29 29 35 39 38 42 37 37 43 44 39 43 40 42 45 42 45 54 54 48 50 55 57 64 64 69 78 84 87 84 76 74 71 72 73 67 56 49 44 45 54 68 75 79 78 78 84 87 82 76 68 61 60 60 62 70 66 73 72 68 65 62 53 44 44 41 36 32 31 31 31 35 38 32 25 18 17 13 9 7 10 4 2 4 10 13 15 13 14 15 18 23 34 38 37 25 30 43 52 52 52 67 83 84 80 72 64 56 58 62 67 70 64 57 58 67 82 81 75 57 47 40 36 42 46 52 45 45 43 37 37 35 24 19 18 20 20 26 35 38 41 46 54 39 29 28 21 17 12 11 10 18 18 9 -16 -15 -14 -14 -15 -16 -16 -16 -15 -14 -14 -15 
-41 -41 -44 -44 -43 -43 -44 -42 -42 -41 -41 -40 -41 -40 -40 -40 -43 -42 -42 -44 -46 -47 -48 -46 -47 -50 -50 -49 -51 -50 -44 -43 -42 -40 -39 -40 -43 -44 -45 -44 -42 -46 -51 -43 -36 -36 -35 -34 -34 -34 -35 -37 -36 -36 -37 -39 -42 -44 -47 -48 -47 -47 -47 -46 -44 -43 -42 -42 -43 -43 -44 -41 -41 -41 -40 -42 -42 -39 -38 -37 -37 -37 -37 -36 -35 -35 -35 -33 -32 -31 -30 -30 -30 -26 -22 -20 -19 -18 -16 -13 -9 -6 -3 -1 0 2 5 6 7 4 6 8 8 7 7 7 8 8 9 8 7 8 8 9 8 9 8 8 8 9 9 8 8 8 6 7 9 10 10 11 11 12 12 12 13 12 12 13 12 12 12 12 12 11 12 10 11 12 13 12 13 16 17 16 14 13 13 13 13 13 13 11 11 10 10 12 12 10 9 9 10 11 12 13 14 20 28 27 20 14 15 19 25 32 32 28 27 30 37 44 47 46 44 45 46 43 44 45 46 50 46 45 49 54 50 41 38 36 35 29 28 29 30 35 37 32 37 42 36 37 36 39 40 39 43 52 53 43 51 62 61 64 67 73 77 78 82 86 82 77 70 65 70 78 68 61 55 52 61 71 78 83 81 83 94 101 92 77 72 67 64 59 54 61 60 66 61 57 59 57 54 52 53 47 40 35 32 30 28 28 30 26 21 25 32 27 20 15 10 1 1 -3 2 3 10 5 4 10 14 19 32 38 33 23 31 44 49 46 53 72 80 75 80 76 63 53 57 68 78 77 67 61 54 53 66 71 63 55 47 45 42 44 44 48 45 47 46 43 46 35 23 22 19 18 22 23 27 33 39 48 53 40 29 24 19 20 14 10 11 18 20 8 -16 -15 -14 -13 -14 -14 -15 -14 -14 -14 -14 -14 
-38 -39 -39 -42 -42 -43 -43 -43 -42 -41 -40 -39 -38 -39 -40 -41 -42 -41 -42 -42 -46 -49 -49 -49 -48 -48 -48 -49 -51 -51 -41 -38 -40 -41 -41 -40 -45 -46 -45 -43 -40 -51 -51 -49 -47 -41 -35 -34 -34 -34 -35 -37 -36 -35 -34 -37 -39 -41 -43 -45 -46 -47 -48 -47 -46 -45 -45 -45 -46 -47 -47 -46 -44 -42 -41 -42 -42 -40 -38 -37 -36 -37 -37 -36 -36 -35 -35 -34 -33 -33 -30 -30 -30 -27 -24 -22 -22 -21 -18 -15 -13 -9 -7 -4 -3 0 2 4 5 5 5 7 7 7 7 7 7 9 9 8 8 9 9 8 8 8 7 8 8 7 8 8 9 8 6 8 9 10 11 11 11 11 13 12 12 12 12 12 11 11 12 12 11 10 10 12 11 12 13 13 14 15 16 15 13 13 13 13 13 13 13 12 13 11 10 11 11 10 10 9 10 12 13 14 17 26 32 33 32 21 16 18 22 26 30 31 28 33 41 53 58 57 52 46 46 49 53 53 51 60 59 58 59 58 55 47 43 42 38 34 30 26 25 31 38 32 34 38 33 31 37 40 38 36 38 46 46 43 48 54 59 63 64 66 71 70 75 85 85 84 77 71 67 70 71 73 67 59 61 63 68 83 84 84 90 90 85 81 80 74 69 65 58 53 54 62 60 53 53 48 54 56 54 50 42 34 34 37 33 26 23 21 26 34 36 33 31 24 12 5 3 1 1 2 3 5 7 11 20 26 32 33 23 21 36 44 39 44 58 76 76 70 83 80 60 58 65 77 90 92 73 65 61 53 55 58 55 53 51 48 44 48 46 42 39 43 50 50 47 30 25 27 24 20 21 32 30 33 35 41 46 45 37 32 27 19 13 10 11 16 15 7 -8 -11 -12 -11 -12 -12 -13 -14 -14 -14 -14 -14 
-37 -36 -38 -39 -42 -43 -44 -46 -45 -43 -40 -38 -39 -39 -39 -40 -40 -40 -42 -43 -47 -49 -49 -50 -49 -48 -49 -48 -49 -56 -57 -43 -42 -45 -42 -42 -44 -46 -46 -47 -48 -51 -50 -47 -46 -43 -40 -34 -35 -36 -36 -35 -35 -38 -38 -38 -38 -39 -41 -43 -45 -46 -46 -46 -45 -46 -47 -47 -48 -49 -49 -47 -44 -42 -43 -42 -41 -40 -39 -37 -37 -36 -37 -37 -37 -36 -36 -35 -35 -33 -32 -33 -30 -27 -26 -25 -24 -22 -21 -18 -15 -13 -9 -8 -5 -3 -1 1 2 4 5 2 2 6 8 8 7 8 9 9 9 9 9 9 8 9 9 9 9 8 8 9 9 8 7 9 9 10 10 9 10 10 12 13 12 12 13 12 11 10 11 11 10 11 12 13 12 12 11 13 14 15 15 15 14 13 12 13 12 11 12 13 15 14 11 10 10 10 10 9 10 13 15 14 16 26 28 29 36 36 26 22 21 30 34 41 36 35 42 55 62 63 63 54 54 49 55 59 60 62 68 73 77 70 62 53 48 43 43 39 36 31 24 26 34 33 32 30 30 34 38 40 38 35 32 36 37 39 47 54 55 52 58 66 71 66 67 73 77 83 82 81 71 64 66 72 66 58 58 55 67 84 78 76 80 80 73 73 72 71 67 65 68 63 53 56 65 61 56 50 56 55 53 50 41 39 42 41 36 31 34 30 34 39 37 37 35 27 16 11 6 3 2 1 -3 1 8 8 20 29 33 30 19 19 29 34 39 49 56 65 67 64 72 64 51 58 70 75 82 83 67 64 65 59 50 49 57 51 55 52 42 48 51 45 40 38 47 48 40 34 36 35 33 30 30 32 42 47 42 39 43 40 31 23 19 16 14 11 13 12 8 6 -5 -8 -9 -9 -11 -12 -13 -13 -12 -13 -14 -14 
-36 -36 -37 -39 -39 -41 -41 -38 -46 -46 -45 -42 -39 -37 -38 -39 -38 -41 -42 -44 -46 -47 -49 -52 -53 -46 -49 -48 -49 -57 -59 -47 -49 -46 -43 -41 -43 -46 -47 -48 -48 -46 -48 -47 -43 -42 -42 -39 -38 -40 -34 -31 -35 -38 -38 -38 -38 -38 -40 -41 -42 -44 -44 -45 -46 -46 -47 -48 -49 -48 -47 -46 -43 -44 -42 -42 -42 -42 -39 -38 -37 -37 -38 -37 -37 -37 -36 -36 -35 -34 -33 -32 -31 -29 -27 -27 -25 -24 -23 -21 -19 -16 -14 -11 -8 -5 -3 -1 1 2 4 4 4 5 7 8 8 8 9 9 9 9 9 9 9 10 10 10 10 9 9 10 9 8 7 9 10 9 9 10 9 9 11 12 12 13 12 12 11 10 9 10 12 13 12 12 12 12 13 14 14 15 16 16 15 13 11 12 12 10 11 15 16 15 14 11 9 8 8 9 10 11 16 16 17 22 24 29 38 50 42 30 25 36 41 59 46 35 44 50 55 59 61 57 54 49 56 64 66 79 80 71 81 74 59 51 49 44 42 38 35 32 28 25 28 31 30 29 31 34 37 40 39 36 30 31 32 35 46 53 51 48 54 57 60 60 63 69 71 71 77 81 75 68 63 63 58 56 57 55 69 78 71 70 75 73 69 63 60 61 63 63 68 68 61 53 63 68 62 53 59 56 49 51 50 49 45 45 41 38 40 38 39 39 41 41 38 32 27 22 13 5 3 2 8 2 12 27 30 30 30 28 18 18 24 30 37 44 52 57 52 55 61 51 50 59 68 77 88 87 69 59 60 56 47 56 71 53 57 49 40 42 50 45 39 35 41 39 36 37 42 38 36 36 39 42 40 45 48 45 39 37 31 25 18 15 15 11 10 8 6 2 -4 -6 -6 -6 -6 -10 -11 -13 -13 -13 -13 -14 
-36 -36 -36 -38 -38 -38 -37 -35 -43 -46 -46 -45 -43 -40 -38 -37 -40 -40 -41 -42 -43 -42 -42 -50 -51 -44 -46 -48 -49 -50 -50 -49 -52 -47 -41 -41 -41 -44 -46 -48 -48 -47 -49 -47 -44 -44 -43 -43 -41 -42 -35 -33 -36 -35 -32 -31 -38 -38 -39 -39 -40 -42 -44 -44 -45 -45 -47 -48 -48 -47 -46 -43 -43 -45 -42 -43 -42 -42 -40 -38 -38 -38 -37 -37 -37 -36 -36 -36 -36 -34 -32 -31 -30 -29 -28 -27 -26 -26 -26 -24 -22 -20 -18 -14 -10 -7 -5 -3 -2 1 4 2 4 4 6 7 8 9 9 9 9 10 9 9 8 9 10 10 10 9 9 10 9 9 8 9 10 10 10 10 10 8 9 11 12 12 12 11 10 10 10 12 14 13 11 11 12 12 13 14 14 15 17 15 14 12 11 12 12 11 13 16 16 15 15 13 11 9 8 8 9 9 13 14 20 25 26 29 38 51 52 37 30 39 41 56 57 40 47 51 59 67 71 79 69 62 70 95 98 101 85 61 63 63 54 49 47 42 38 35 34 36 34 29 25 26 26 27 28 32 37 38 36 35 30 30 29 34 46 48 43 45 50 53 58 60 63 69 68 64 69 80 79 72 65 64 62 65 65 58 59 64 67 67 70 69 65 62 60 56 55 58 61 67 65 58 58 61 59 53 60 61 50 50 50 51 53 54 48 43 41 37 37 37 39 39 37 34 31 29 20 12 8 5 1 2 14 25 29 29 26 24 15 19 25 28 28 37 47 49 47 53 54 42 50 60 67 78 89 82 65 52 54 54 46 53 65 53 52 47 42 38 42 40 35 31 33 30 28 33 34 34 36 41 46 45 46 48 50 44 34 28 25 23 18 16 15 11 8 8 6 3 -2 -5 -6 -6 -6 -11 -12 -13 -13 -13 -14 -14 
-36 -36 -36 -36 -36 -37 -37 -37 -38 -39 -38 -37 -36 -44 -42 -41 -34 -33 -37 -38 -41 -40 -39 -41 -40 -39 -46 -47 -49 -49 -49 -51 -55 -51 -42 -39 -39 -45 -45 -46 -45 -45 -44 -44 -44 -44 -43 -43 -43 -43 -41 -41 -36 -30 -28 -27 -26 -29 -32 -34 -37 -40 -40 -42 -44 -45 -47 -47 -48 -48 -47 -46 -46 -46 -45 -43 -43 -41 -40 -39 -39 -40 -40 -37 -37 -37 -37 -37 -37 -35 -31 -31 -30 -29 -28 -28 -29 -29 -27 -25 -25 -24 -25 -18 -13 -10 -6 -6 -5 -5 -2 -1 -1 2 4 5 7 9 10 10 10 11 10 8 8 9 9 9 9 9 9 9 9 10 9 10 10 10 10 10 10 9 8 10 11 10 10 9 9 11 11 11 12 12 11 12 13 13 13 13 13 14 16 14 12 12 12 12 12 12 14 15 16 16 15 15 14 12 10 9 9 8 9 12 21 27 27 26 33 40 43 39 32 38 39 53 75 50 45 51 72 87 88 128 124 111 134 166 150 106 75 56 48 52 52 52 50 44 38 38 38 39 38 34 29 25 23 23 25 29 34 33 33 35 31 29 30 37 47 43 38 46 51 54 53 52 56 62 59 61 69 79 78 72 70 71 71 73 70 61 51 54 68 71 74 74 69 65 64 61 55 52 54 62 61 62 61 59 57 54 53 54 51 48 43 44 54 53 43 37 35 33 36 36 36 37 36 33 30 26 20 17 14 9 2 2 16 22 25 27 23 21 16 17 22 23 22 29 34 36 37 43 44 34 45 54 64 77 82 75 61 47 48 50 46 47 56 59 50 47 45 42 44 41 36 31 30 29 24 27 30 37 41 42 48 50 59 57 54 49 38 29 27 21 16 15 15 13 10 8 7 4 1 -5 -7 -8 -10 -11 -13 -12 -14 -14 -14 -14 
-36 -36 -37 -37 -36 -35 -36 -37 -36 -36 -35 -34 -30 -32 -40 -50 -45 -40 -33 -39 -37 -34 -29 -34 -35 -35 -40 -45 -49 -49 -49 -52 -54 -51 -43 -42 -42 -44 -43 -43 -44 -44 -43 -42 -42 -42 -43 -43 -43 -43 -43 -43 -43 -36 -28 -26 -26 -27 -28 -29 -32 -40 -40 -39 -42 -45 -46 -47 -48 -47 -47 -45 -46 -46 -45 -44 -43 -43 -41 -40 -39 -39 -38 -37 -37 -37 -37 -37 -37 -35 -33 -32 -31 -30 -29 -29 -29 -30 -28 -27 -26 -26 -25 -20 -16 -12 -9 -7 -8 -7 -6 -5 -5 -3 -2 1 3 7 10 11 11 11 11 10 9 9 9 8 9 8 9 9 10 10 11 10 10 10 10 10 10 9 9 10 10 9 8 9 9 11 12 12 12 12 13 14 14 13 12 13 13 13 15 12 11 12 12 10 9 10 12 15 16 15 15 15 14 13 11 10 9 8 8 12 21 25 22 21 25 27 27 30 35 39 43 48 56 46 42 47 73 99 114 174 198 190 234 238 186 117 79 60 51 50 49 55 55 48 45 49 47 42 42 40 40 36 28 23 23 26 30 34 36 37 33 28 31 37 40 36 36 45 49 48 44 46 52 57 54 58 66 72 72 72 77 79 80 75 70 66 56 49 62 72 75 73 72 73 74 69 62 54 49 53 53 58 59 62 64 62 55 48 46 45 40 31 36 34 27 22 21 21 28 29 31 32 32 35 35 28 19 16 13 5 3 3 15 12 16 22 20 19 23 26 28 29 26 28 29 26 26 30 34 35 48 59 73 84 83 76 64 47 48 52 47 45 53 61 57 51 50 46 49 43 42 35 28 26 24 26 32 39 42 42 46 50 61 53 53 54 51 43 39 29 21 18 16 16 14 9 6 5 3 5 -7 -9 -10 -12 -14 -13 -13 -13 -14 -14 
-37 -38 -38 -37 -37 -35 -35 -35 -35 -34 -33 -34 -34 -36 -36 -32 -33 -50 -45 -38 -35 -32 -25 -27 -31 -42 -39 -36 -44 -47 -50 -55 -51 -53 -55 -55 -55 -46 -47 -32 -43 -44 -43 -40 -37 -37 -42 -43 -42 -43 -43 -43 -43 -42 -42 -35 -32 -28 -23 -22 -26 -28 -30 -33 -42 -43 -45 -45 -45 -45 -46 -43 -43 -46 -45 -45 -43 -42 -42 -41 -39 -37 -37 -36 -38 -38 -38 -38 -38 -37 -35 -33 -32 -31 -30 -30 -30 -30 -30 -28 -28 -27 -26 -22 -17 -14 -10 -9 -9 -9 -8 -8 -7 -8 -7 -3 1 4 5 8 11 12 12 11 11 10 10 9 9 9 9 8 9 10 13 10 9 10 9 9 9 8 9 9 9 7 8 9 11 13 12 12 12 13 14 14 13 12 13 14 14 13 13 12 12 12 10 8 8 9 10 13 14 13 15 14 12 13 13 10 9 9 9 11 14 18 18 19 20 20 21 25 39 43 41 40 40 38 37 41 70 128 173 226 251 267 323 305 227 157 115 70 55 49 45 47 50 47 49 56 52 45 40 43 51 45 33 23 20 24 29 34 39 39 36 31 27 33 36 33 35 42 47 39 37 51 59 61 55 57 61 66 64 66 80 84 81 76 76 70 63 52 65 74 74 69 65 75 72 64 60 56 49 44 43 45 52 57 60 62 59 55 55 52 48 35 26 23 23 23 22 20 23 23 19 17 17 22 33 29 18 13 7 1 4 6 13 15 17 17 16 20 26 31 35 36 37 41 42 37 36 37 42 48 59 67 74 74 72 66 57 45 49 51 45 49 57 60 57 49 52 45 50 44 49 39 23 25 31 33 39 38 33 34 39 43 55 51 48 48 53 42 45 38 31 23 19 17 16 12 8 6 6 2 1 -9 -10 -12 -12 -12 -12 -12 -12 -14 
-37 -39 -38 -38 -37 -36 -35 -34 -34 -33 -33 -32 -32 -33 -32 -33 -34 -38 -40 -43 -43 -39 -31 -24 -30 -33 -36 -36 -42 -45 -50 -59 -54 -47 -55 -54 -51 -46 -43 -43 -45 -46 -44 -41 -41 -39 -42 -42 -42 -43 -42 -43 -42 -42 -42 -41 -39 -39 -27 -22 -22 -20 -19 -19 -33 -42 -42 -42 -43 -43 -42 -43 -43 -45 -45 -44 -45 -44 -43 -41 -40 -38 -37 -38 -38 -37 -38 -38 -37 -37 -35 -34 -33 -32 -31 -29 -30 -29 -29 -29 -28 -27 -26 -24 -21 -16 -12 -11 -11 -11 -10 -10 -10 -9 -9 -5 -2 1 1 1 3 7 10 9 10 6 7 6 8 8 8 8 9 11 14 12 10 11 10 9 8 9 9 9 7 8 9 9 10 12 12 12 12 12 13 11 11 12 13 13 12 12 13 13 13 12 9 9 9 9 10 11 13 12 13 12 14 15 15 13 9 11 12 11 12 15 18 18 18 23 28 31 44 49 36 28 29 33 38 54 112 205 271 300 316 347 402 352 248 164 104 68 55 50 47 45 43 39 40 45 42 39 38 37 40 39 31 24 20 22 26 30 34 38 42 43 37 33 33 37 40 35 36 32 38 55 61 61 55 56 58 60 57 59 69 75 74 70 69 64 60 52 52 63 69 66 60 66 66 66 66 65 56 48 44 40 45 48 47 52 58 61 61 54 45 44 41 39 36 34 36 34 33 30 23 22 21 16 20 19 15 12 11 3 3 2 4 12 19 17 7 21 32 36 36 39 44 48 44 44 46 48 44 47 56 65 62 61 58 56 52 44 45 44 50 55 58 58 52 43 53 48 48 43 44 32 21 28 32 35 33 29 28 31 35 42 50 51 39 36 45 39 36 45 42 29 24 19 16 14 11 8 6 5 1 0 -9 -9 -10 -11 -10 -10 -11 -12 
-37 -39 -38 -38 -38 -36 -36 -35 -33 -33 -31 -31 -32 -32 -32 -31 -32 -33 -31 -35 -43 -44 -41 -32 -26 -32 -36 -40 -37 -42 -49 -54 -55 -50 -50 -46 -45 -45 -45 -48 -48 -47 -47 -39 -36 -40 -42 -43 -42 -42 -42 -42 -42 -43 -42 -41 -39 -39 -32 -22 -22 -20 -18 -18 -26 -38 -42 -42 -42 -42 -39 -43 -43 -46 -45 -44 -44 -44 -41 -41 -41 -41 -41 -38 -39 -38 -38 -37 -37 -37 -35 -35 -34 -32 -31 -30 -29 -29 -29 -28 -29 -29 -28 -26 -22 -18 -15 -13 -12 -12 -12 -11 -11 -11 -10 -7 -4 -1 1 1 1 2 4 5 8 9 9 9 10 5 3 8 9 10 12 12 10 10 10 9 8 8 8 8 8 9 10 10 8 10 12 12 11 11 12 11 11 11 12 13 13 14 13 12 12 10 8 9 9 10 10 12 13 12 11 13 15 16 16 15 11 10 10 11 12 14 18 20 18 22 28 34 53 49 36 28 28 34 54 118 210 302 367 382 392 429 430 339 240 174 116 84 65 55 50 48 43 39 36 37 36 37 35 31 30 32 29 23 20 24 30 32 34 37 42 46 45 35 31 32 37 31 29 37 41 52 56 55 51 55 58 54 50 54 66 67 64 61 59 58 52 47 44 53 62 61 59 63 58 57 59 60 52 48 47 43 39 38 39 43 49 51 52 46 42 44 46 46 45 43 41 38 37 36 32 30 29 27 31 28 18 10 6 3 -2 -5 1 6 12 14 6 6 30 39 41 42 44 38 35 43 50 54 48 52 58 55 51 51 47 44 43 38 41 48 53 53 52 52 46 38 49 50 40 41 35 22 17 21 26 29 25 23 31 39 41 48 50 45 33 32 40 31 27 42 45 32 21 18 17 15 16 13 8 6 3 1 1 -6 -7 -8 -9 -9 -10 -11 
-38 -38 -38 -37 -38 -37 -36 -36 -34 -33 -32 -32 -32 -31 -30 -30 -29 -29 -29 -32 -36 -37 -36 -41 -30 -30 -35 -47 -38 -38 -42 -44 -46 -61 -59 -50 -45 -45 -45 -46 -47 -45 -39 -28 -25 -39 -43 -43 -43 -43 -42 -42 -42 -42 -42 -43 -40 -38 -39 -37 -36 -28 -25 -24 -20 -24 -27 -31 -34 -36 -39 -42 -45 -46 -42 -42 -44 -44 -42 -42 -42 -41 -40 -40 -39 -38 -37 -37 -37 -36 -36 -36 -36 -34 -32 -31 -29 -29 -29 -29 -29 -29 -28 -25 -22 -19 -17 -16 -14 -13 -14 -14 -13 -12 -12 -9 -6 -5 -4 -2 -3 -2 1 1 3 5 6 8 9 8 8 9 5 6 5 3 9 5 8 10 8 8 8 8 8 9 10 9 9 10 11 12 11 11 11 11 10 10 11 12 12 13 12 12 13 11 9 9 9 10 11 13 13 12 11 13 15 16 17 16 14 10 8 9 11 13 17 19 18 21 28 41 66 50 34 29 31 48 115 229 330 404 472 496 485 494 436 348 279 214 136 95 72 58 51 46 45 45 42 40 42 47 41 37 30 27 26 23 23 29 36 37 34 35 44 49 49 40 33 29 30 29 32 41 43 44 49 49 53 55 57 50 49 57 67 71 68 68 68 68 54 49 47 45 46 48 56 57 52 51 55 50 43 44 42 46 44 41 38 37 41 39 37 34 33 36 39 43 48 46 43 38 35 33 28 28 34 36 39 39 26 15 9 5 1 -10 -8 -2 6 10 16 5 26 34 38 48 46 33 30 38 48 54 49 56 56 49 48 44 38 34 33 32 37 46 48 50 50 44 39 34 43 47 38 43 32 20 16 19 21 24 20 21 31 39 45 51 50 42 31 31 39 30 27 38 44 34 26 22 20 19 19 19 12 4 6 3 1 -4 -6 -7 -7 -8 -10 -11 
-39 -38 -39 -38 -38 -38 -38 -37 -35 -35 -34 -32 -31 -29 -30 -28 -28 -26 -26 -29 -30 -34 -34 -32 -32 -27 -27 -34 -38 -40 -39 -37 -34 -44 -57 -49 -49 -48 -42 -44 -44 -41 -35 -25 -31 -47 -44 -42 -41 -43 -42 -42 -42 -42 -43 -43 -43 -41 -38 -36 -37 -35 -34 -27 -20 -20 -20 -20 -27 -31 -42 -45 -46 -46 -42 -42 -42 -42 -43 -42 -43 -41 -41 -40 -38 -38 -38 -38 -37 -37 -36 -36 -36 -35 -33 -32 -31 -30 -29 -30 -29 -29 -28 -25 -23 -21 -18 -17 -16 -16 -15 -14 -14 -13 -12 -10 -10 -8 -7 -6 -5 -5 -5 -2 0 2 2 4 6 7 8 9 5 6 4 2 8 4 6 10 9 8 8 8 8 9 8 9 9 10 10 12 11 10 11 11 10 11 12 12 11 12 12 13 13 12 10 10 9 10 12 13 13 11 13 14 15 16 17 16 15 11 9 8 10 13 17 19 19 22 28 40 60 43 29 31 55 91 187 323 404 457 528 559 526 503 450 406 340 245 142 95 72 62 56 49 49 49 53 46 46 48 42 40 36 27 22 21 26 35 45 44 38 37 44 48 51 44 39 32 26 26 30 36 38 36 43 46 49 49 53 49 52 60 63 72 73 77 74 65 62 63 58 51 47 42 45 46 45 46 51 44 40 42 38 42 45 45 41 37 35 31 28 26 24 29 34 37 40 43 44 40 39 35 31 31 34 33 31 39 36 26 16 8 2 -19 -15 -8 -1 7 13 6 18 27 36 46 43 28 30 35 44 48 41 45 45 44 49 46 37 30 28 31 37 43 41 45 51 45 38 31 33 37 34 36 30 20 18 22 21 22 22 26 32 36 42 51 49 39 31 26 34 31 29 33 41 40 35 31 27 24 21 22 13 2 2 1 -2 -4 -6 -6 -7 -7 -9 -11 
-38 -37 -38 -38 -39 -39 -39 -38 -36 -35 -35 -33 -31 -29 -29 -28 -26 -25 -23 -26 -30 -29 -30 -30 -30 -29 -29 -31 -36 -38 -38 -34 -33 -37 -38 -36 -56 -53 -42 -45 -45 -40 -35 -35 -41 -48 -40 -39 -41 -41 -42 -41 -42 -41 -42 -43 -43 -43 -42 -39 -36 -34 -35 -33 -25 -19 -20 -20 -21 -23 -42 -41 -44 -45 -44 -42 -42 -42 -43 -44 -42 -42 -40 -40 -39 -39 -39 -38 -38 -37 -36 -37 -36 -36 -35 -34 -32 -31 -30 -30 -30 -29 -29 -27 -23 -21 -20 -18 -18 -18 -17 -16 -15 -15 -13 -13 -12 -10 -9 -8 -8 -7 -7 -5 -2 -1 -1 1 2 2 4 6 7 9 10 11 5 7 5 7 10 10 10 9 9 9 8 9 8 9 10 12 12 11 10 11 10 11 11 11 12 12 11 13 13 11 10 10 10 11 13 13 11 11 12 13 14 16 17 16 15 13 10 9 10 12 15 18 19 22 27 30 35 30 27 52 129 160 225 320 379 422 487 522 481 470 495 468 382 267 156 106 83 65 56 51 53 50 55 49 55 51 43 36 33 30 24 21 26 33 41 40 36 37 41 44 49 50 44 35 28 23 24 31 31 34 43 42 42 44 49 46 49 52 54 60 65 74 72 69 77 71 66 63 59 48 40 37 33 35 38 36 35 36 36 35 41 44 46 45 40 36 36 35 28 27 29 29 29 34 38 43 44 39 34 33 30 28 23 24 31 30 21 12 4 -26 -20 -12 -4 7 8 10 6 6 23 36 33 23 26 31 40 40 30 31 31 36 42 40 32 29 34 37 38 39 39 40 45 47 46 36 29 28 30 32 28 21 17 18 19 20 26 30 32 37 42 51 45 35 31 25 29 27 29 34 43 43 36 38 35 30 24 24 13 3 -1 -1 -3 -5 -6 -6 -7 -7 -9 -11 
-37 -37 -36 -37 -38 -39 -38 -38 -38 -37 -36 -35 -32 -31 -30 -28 -26 -22 -21 -24 -25 -26 -27 -28 -28 -29 -28 -28 -30 -38 -41 -39 -35 -33 -36 -36 -42 -43 -42 -50 -44 -41 -39 -40 -43 -45 -32 -40 -42 -42 -41 -42 -41 -41 -42 -41 -42 -41 -42 -42 -39 -36 -34 -32 -29 -27 -24 -18 -16 -16 -24 -31 -42 -42 -42 -41 -43 -44 -44 -44 -42 -40 -40 -40 -39 -39 -39 -39 -38 -38 -37 -37 -36 -37 -37 -36 -34 -33 -32 -31 -31 -30 -29 -27 -25 -22 -21 -21 -20 -20 -19 -18 -16 -15 -15 -14 -13 -14 -11 -11 -9 -8 -7 -5 -5 -4 -3 -2 0 0 1 2 3 5 8 11 10 10 11 7 7 10 10 10 10 9 8 8 8 9 10 11 11 12 11 11 10 9 10 12 13 13 12 14 15 13 11 10 10 12 13 13 11 12 13 12 13 15 15 15 14 13 12 11 12 12 14 17 19 21 24 25 29 28 31 69 156 174 205 266 317 383 456 440 391 419 461 453 369 255 179 136 86 59 51 51 53 51 48 54 64 65 56 44 36 28 24 21 21 31 36 34 31 33 39 41 43 42 39 35 33 29 22 28 27 32 40 38 35 37 41 46 50 46 46 55 62 75 81 83 86 72 73 73 65 57 54 55 43 36 34 33 34 31 29 27 34 40 41 44 44 42 43 43 39 35 35 32 26 25 31 32 34 30 23 22 19 16 13 10 10 11 10 8 3 -24 -21 -13 -7 -2 7 7 9 6 17 27 25 22 28 33 42 44 37 30 25 26 30 30 34 43 50 51 47 40 37 36 39 40 43 37 34 32 26 25 28 21 12 12 18 24 28 30 33 35 41 52 41 28 30 25 21 22 37 41 43 40 32 34 36 39 33 23 11 7 -3 -4 -5 -5 -6 -7 -7 -7 -8 -11 
-37 -35 -35 -35 -37 -40 -40 -39 -39 -39 -38 -37 -35 -33 -32 -29 -27 -24 -22 -22 -23 -23 -24 -26 -28 -28 -29 -31 -33 -36 -35 -40 -38 -36 -36 -41 -39 -38 -40 -39 -39 -39 -40 -43 -45 -44 -44 -46 -48 -46 -42 -41 -41 -42 -41 -40 -41 -41 -41 -40 -39 -39 -37 -33 -32 -31 -28 -25 -17 -15 -15 -21 -25 -27 -34 -42 -42 -44 -44 -44 -42 -42 -41 -40 -38 -38 -36 -37 -38 -38 -37 -37 -37 -37 -37 -37 -36 -34 -33 -32 -33 -31 -30 -28 -26 -24 -23 -23 -22 -22 -20 -19 -18 -16 -15 -15 -16 -15 -14 -12 -10 -9 -7 -7 -7 -6 -5 -3 -3 -2 -2 0 1 2 2 3 5 5 10 12 6 3 9 10 11 11 10 9 8 9 10 10 11 11 10 9 9 11 13 13 13 12 13 14 15 15 14 13 11 12 13 12 11 12 12 12 12 13 13 13 12 12 13 17 16 12 13 16 18 20 22 25 34 33 33 52 104 154 195 258 324 411 458 392 330 351 371 354 283 221 168 108 70 59 55 52 51 54 56 66 82 81 61 58 47 32 22 19 19 28 35 31 30 33 38 39 39 37 36 35 36 33 25 24 27 34 40 38 34 38 41 45 46 43 43 51 56 67 81 92 84 72 82 82 71 66 68 61 46 46 46 44 42 37 32 28 26 28 30 33 33 35 35 35 37 34 36 37 32 23 20 18 19 19 17 15 14 13 10 9 10 14 15 10 7 3 1 1 1 -3 -7 -2 1 2 5 12 16 24 30 36 41 47 46 39 30 19 20 30 42 52 62 62 55 47 47 40 32 30 35 34 36 39 32 24 22 18 11 14 23 37 40 36 34 36 41 52 40 26 24 20 16 19 33 34 33 28 29 35 39 40 37 24 12 4 1 -6 -6 -6 -7 -7 -7 -7 -8 -10 
-36 -34 -33 -34 -36 -37 -38 -39 -39 -39 -38 -39 -37 -37 -35 -32 -28 -26 -24 -24 -23 -23 -25 -25 -26 -28 -28 -30 -32 -35 -34 -30 -34 -38 -31 -36 -36 -36 -37 -37 -38 -38 -40 -44 -49 -46 -46 -47 -48 -38 -38 -41 -41 -41 -42 -41 -40 -40 -40 -40 -39 -39 -38 -37 -34 -31 -29 -31 -25 -20 -18 -17 -18 -19 -21 -35 -42 -41 -40 -41 -41 -40 -40 -39 -39 -38 -37 -38 -38 -38 -37 -37 -38 -38 -38 -37 -37 -37 -34 -35 -33 -33 -33 -31 -29 -28 -27 -26 -25 -22 -21 -19 -18 -17 -17 -17 -16 -16 -14 -13 -12 -10 -9 -8 -7 -7 -6 -4 -3 -3 -2 -2 0 1 1 2 3 4 4 8 11 11 10 4 7 10 9 9 10 9 9 10 10 9 8 9 10 13 15 14 13 14 13 14 16 15 14 13 12 12 11 11 11 13 13 11 12 14 12 12 11 11 13 18 21 15 14 15 16 19 21 27 39 45 41 63 121 168 202 263 349 414 412 362 318 298 300 278 228 201 173 111 73 60 55 49 48 50 59 83 91 76 70 87 77 46 28 24 20 21 33 30 30 32 32 36 40 38 36 39 44 43 34 24 28 38 41 37 37 43 38 34 39 44 47 46 51 62 76 81 69 73 82 75 63 59 62 59 50 51 51 50 47 40 43 39 33 27 24 23 22 23 23 23 23 22 24 25 24 19 17 20 26 31 28 25 26 25 23 23 25 27 28 26 27 12 3 1 -1 -2 -5 -5 -5 1 1 3 13 24 32 41 41 42 42 36 31 18 21 36 48 55 62 67 63 56 60 53 42 32 28 27 33 40 37 30 18 12 11 20 35 55 54 45 40 37 41 46 35 23 16 15 18 19 24 29 26 22 28 34 40 41 44 35 19 6 2 1 -4 -4 -4 -6 -6 -7 -8 -11 
-34 -33 -28 -34 -33 -35 -36 -37 -38 -40 -40 -40 -40 -40 -39 -35 -31 -28 -26 -25 -24 -24 -25 -25 -25 -27 -26 -28 -28 -35 -34 -33 -32 -34 -34 -35 -37 -35 -36 -38 -38 -37 -38 -42 -55 -48 -43 -43 -45 -46 -46 -40 -38 -42 -43 -41 -40 -40 -40 -40 -40 -39 -39 -37 -36 -35 -32 -30 -32 -30 -25 -22 -19 -19 -20 -20 -27 -32 -35 -37 -40 -40 -40 -39 -39 -38 -39 -38 -38 -37 -38 -38 -38 -39 -37 -37 -37 -36 -36 -36 -37 -37 -36 -34 -33 -32 -31 -28 -26 -24 -22 -21 -19 -18 -18 -18 -17 -16 -15 -14 -13 -12 -11 -9 -8 -6 -6 -5 -5 -4 -3 -3 -1 -1 -1 0 2 2 1 4 9 12 11 4 3 4 3 9 11 10 10 10 9 9 10 10 12 13 14 14 13 13 13 15 15 15 14 13 12 11 11 11 13 14 13 13 13 14 13 12 12 12 13 16 24 20 19 17 16 18 21 28 42 69 64 84 152 188 211 276 336 335 303 309 287 257 247 222 193 181 147 103 77 63 60 56 52 47 53 72 72 62 82 119 103 54 34 32 27 20 24 24 26 29 30 34 40 44 44 40 39 42 38 28 27 37 42 38 33 35 35 34 41 48 54 51 49 51 57 60 57 63 65 61 55 49 48 54 54 53 53 53 49 44 46 40 37 33 29 25 23 23 22 22 21 19 19 19 27 28 32 40 42 46 38 35 37 34 32 31 39 40 39 33 31 20 8 4 2 1 -4 -7 -10 -10 1 3 6 20 31 39 42 40 38 34 30 18 26 41 46 53 57 62 60 61 68 60 48 39 35 27 29 38 37 32 16 8 10 21 39 60 57 47 39 32 36 40 31 19 11 13 19 19 19 24 25 28 33 43 49 49 50 48 30 11 5 2 1 -2 -2 -3 -5 -6 -8 -10 
-35 -31 -28 -34 -32 -34 -35 -37 -38 -39 -39 -40 -42 -43 -39 -38 -35 -31 -28 -28 -26 -26 -25 -25 -26 -25 -26 -27 -31 -34 -33 -28 -30 -32 -33 -35 -32 -35 -34 -34 -38 -37 -38 -39 -44 -42 -42 -45 -44 -45 -47 -36 -40 -45 -45 -39 -37 -39 -39 -40 -40 -41 -40 -39 -36 -36 -35 -33 -30 -30 -31 -29 -26 -21 -20 -21 -22 -23 -29 -33 -40 -40 -40 -39 -39 -39 -39 -39 -39 -38 -39 -38 -39 -38 -38 -38 -38 -36 -36 -37 -37 -38 -38 -38 -35 -35 -35 -31 -28 -25 -22 -21 -20 -19 -19 -18 -18 -17 -17 -15 -13 -12 -12 -11 -9 -8 -7 -5 -5 -5 -5 -4 -2 -3 -2 -1 0 1 2 3 3 4 6 7 8 7 4 8 10 9 9 8 9 10 11 11 13 13 12 13 13 14 15 15 14 14 14 13 12 11 12 12 13 13 12 13 13 13 13 13 14 14 14 15 23 24 25 21 17 20 25 30 44 82 83 87 154 199 224 277 266 222 188 221 217 209 204 182 170 172 140 101 74 64 68 66 59 48 44 52 53 66 105 117 90 50 41 40 31 21 17 18 22 26 30 38 50 53 52 47 41 43 46 38 24 28 37 38 28 30 36 38 40 49 58 52 43 39 42 45 55 62 58 53 48 43 40 43 49 47 49 50 50 50 46 39 36 33 34 32 31 31 31 29 29 25 28 28 35 35 40 49 46 47 44 44 42 37 36 36 42 44 42 33 21 14 6 6 6 4 1 -10 -13 -14 -7 2 5 13 29 37 40 37 37 32 23 17 30 42 42 45 53 55 53 58 64 54 44 39 41 31 30 37 34 25 13 10 14 22 37 49 49 43 34 31 38 32 25 14 8 9 13 16 17 25 34 35 38 46 52 57 56 55 40 16 4 1 0 -1 -2 -4 -5 -6 -8 -9 
-35 -35 -31 -31 -32 -33 -35 -36 -36 -38 -39 -41 -43 -44 -43 -40 -37 -35 -33 -30 -29 -27 -27 -26 -26 -25 -25 -28 -32 -34 -33 -28 -28 -30 -32 -34 -35 -31 -31 -31 -31 -38 -39 -38 -41 -40 -41 -51 -45 -43 -46 -32 -42 -46 -45 -38 -36 -36 -39 -40 -41 -42 -42 -40 -39 -37 -35 -35 -33 -32 -29 -28 -28 -24 -23 -22 -23 -23 -26 -29 -34 -39 -40 -41 -39 -39 -39 -39 -39 -39 -38 -39 -38 -38 -38 -39 -38 -37 -37 -37 -38 -38 -38 -38 -38 -38 -37 -33 -29 -26 -24 -22 -21 -21 -20 -19 -19 -19 -17 -16 -14 -14 -13 -12 -10 -9 -8 -8 -7 -5 -5 -5 -5 -4 -3 -2 -1 -1 1 2 2 0 2 3 6 9 9 8 4 2 5 7 9 10 11 11 10 11 12 12 14 14 15 16 14 13 14 14 13 11 12 12 12 12 13 13 13 13 13 14 15 15 14 15 21 28 31 25 20 23 26 30 42 58 56 71 140 198 194 207 185 140 123 173 186 177 185 170 164 165 129 90 70 63 68 67 58 50 39 37 49 81 117 94 74 61 68 64 36 22 18 17 21 28 33 43 59 58 53 53 48 39 45 39 27 21 29 34 25 27 36 42 42 49 62 53 42 36 40 50 73 77 71 59 49 43 41 38 43 44 46 46 47 47 48 48 41 35 42 45 42 39 36 35 35 34 35 34 37 36 42 51 50 50 51 49 42 35 31 29 26 27 30 29 21 12 6 13 17 14 8 16 -13 -18 -11 1 1 4 24 34 34 32 33 25 14 21 38 46 41 41 48 50 50 55 56 46 38 38 39 32 31 36 33 20 13 18 31 37 43 43 39 37 32 38 39 25 21 13 8 8 11 18 21 28 34 33 39 43 41 52 56 51 41 15 6 -1 -2 -1 -3 -4 -5 -7 -8 -10 
-36 -34 -31 -32 -33 -35 -36 -36 -36 -38 -39 -41 -43 -44 -44 -42 -40 -39 -39 -33 -31 -30 -28 -27 -26 -27 -26 -29 -31 -34 -33 -30 -29 -28 -31 -32 -37 -37 -31 -31 -31 -32 -39 -38 -40 -40 -40 -41 -42 -51 -51 -47 -49 -49 -44 -31 -29 -37 -40 -40 -41 -42 -42 -41 -39 -38 -37 -36 -34 -33 -31 -28 -26 -25 -23 -23 -22 -22 -23 -28 -32 -35 -40 -39 -40 -38 -39 -39 -39 -39 -40 -38 -39 -39 -38 -38 -37 -36 -36 -37 -37 -38 -38 -38 -39 -39 -39 -35 -31 -26 -24 -23 -22 -22 -22 -21 -20 -20 -19 -17 -15 -14 -14 -12 -11 -9 -9 -8 -8 -7 -7 -7 -6 -6 -4 -3 -3 -1 0 1 -1 -1 1 1 2 4 5 6 6 7 4 6 9 10 9 11 11 11 12 13 13 14 15 16 14 13 13 13 13 12 12 11 11 12 13 13 13 12 12 14 15 15 15 15 18 23 31 29 26 24 23 25 36 40 39 69 155 214 141 116 122 101 111 169 182 165 163 158 153 140 108 79 63 57 59 57 52 44 36 33 43 64 82 64 58 71 94 83 45 34 26 18 23 36 39 43 54 54 50 53 50 35 31 33 29 20 21 27 23 28 38 39 36 42 53 48 41 35 39 53 75 73 67 62 51 42 39 37 40 43 43 43 46 41 46 53 49 41 45 49 47 46 44 46 44 45 43 41 38 37 43 48 49 47 46 43 37 32 26 18 14 17 16 13 12 14 19 21 20 19 16 8 2 -17 -14 -6 1 2 15 29 28 29 28 15 11 29 44 43 36 38 44 42 45 52 50 41 35 35 35 31 27 34 33 17 13 25 45 49 47 35 28 27 25 26 29 20 12 10 9 7 10 16 20 23 21 25 41 39 33 40 43 41 30 10 4 -2 -2 -4 -4 -5 -6 -8 -9 -10 
-36 -34 -34 -34 -35 -36 -37 -37 -38 -38 -38 -40 -42 -44 -43 -43 -41 -39 -39 -35 -33 -31 -30 -28 -28 -27 -28 -28 -29 -31 -30 -29 -29 -28 -31 -32 -37 -35 -30 -30 -31 -32 -32 -35 -38 -40 -41 -42 -41 -45 -43 -45 -50 -48 -45 -38 -36 -45 -45 -40 -41 -43 -43 -43 -40 -40 -39 -38 -33 -35 -38 -30 -28 -25 -23 -23 -23 -22 -30 -37 -28 -27 -37 -36 -35 -35 -38 -39 -39 -39 -39 -39 -39 -37 -38 -38 -36 -35 -36 -38 -39 -39 -38 -38 -38 -39 -39 -35 -31 -27 -25 -23 -22 -22 -21 -22 -22 -22 -20 -18 -17 -16 -14 -13 -12 -11 -10 -10 -10 -10 -9 -9 -8 -7 -6 -5 -4 -2 -1 -1 -1 -2 -1 0 1 2 2 2 2 4 6 8 10 10 9 9 11 12 12 12 13 14 13 13 13 13 13 13 12 12 12 10 10 12 13 14 15 14 13 14 14 15 15 15 15 17 22 25 28 26 21 22 29 32 37 70 147 195 111 76 92 91 121 165 165 154 140 148 137 111 80 74 65 52 52 50 47 45 39 32 35 45 46 41 43 54 73 72 45 34 27 18 29 44 46 48 51 53 49 51 49 36 27 24 24 23 18 21 22 28 34 34 32 38 45 42 39 36 40 50 67 65 58 56 52 43 36 36 43 44 41 38 42 38 43 51 52 46 43 47 44 45 44 46 46 44 41 40 36 34 37 40 40 39 40 38 31 23 17 17 28 33 31 29 27 26 21 18 18 18 15 10 5 1 -15 -8 2 3 10 22 24 24 21 12 14 31 40 37 32 36 38 39 43 46 46 42 36 40 42 36 23 25 25 13 14 28 40 45 42 28 27 25 25 22 24 16 11 10 8 7 8 9 12 15 15 20 34 31 29 34 38 31 18 5 2 -2 -3 -5 -6 -6 -8 -8 -9 -10 
-37 -35 -34 -35 -37 -38 -38 -37 -38 -38 -38 -39 -40 -41 -42 -42 -42 -41 -39 -37 -36 -33 -31 -31 -29 -29 -27 -28 -28 -28 -27 -29 -29 -28 -30 -32 -34 -26 -28 -29 -30 -33 -33 -32 -34 -40 -39 -39 -41 -42 -41 -44 -56 -47 -45 -48 -56 -55 -47 -38 -42 -45 -45 -41 -40 -41 -41 -41 -38 -37 -40 -32 -31 -29 -25 -23 -24 -24 -33 -39 -26 -23 -26 -28 -31 -33 -36 -36 -38 -39 -39 -39 -39 -39 -39 -36 -35 -33 -36 -39 -39 -39 -39 -38 -38 -38 -37 -34 -30 -26 -24 -24 -23 -22 -22 -22 -22 -22 -21 -19 -18 -16 -15 -14 -13 -13 -12 -12 -11 -12 -11 -11 -9 -9 -8 -6 -5 -3 -1 -1 -2 -2 -1 -1 -1 -1 -1 -2 -2 3 4 6 9 9 5 8 11 12 12 13 14 14 12 11 11 11 12 12 11 11 11 10 11 13 13 13 15 15 16 16 16 15 15 15 15 14 16 18 23 27 23 22 24 27 36 67 124 163 90 60 75 84 118 155 144 133 120 107 92 74 60 66 58 45 43 45 48 52 46 34 32 37 32 31 33 37 50 54 41 33 22 20 30 43 53 60 57 53 45 45 46 41 30 22 21 21 19 18 25 28 31 36 38 41 41 39 39 37 38 41 54 59 53 50 51 46 36 34 42 40 36 34 37 39 45 48 51 47 43 45 44 41 36 35 35 37 37 39 37 36 37 31 25 23 23 22 21 21 24 32 41 42 38 36 31 24 19 16 16 17 17 14 8 4 -17 -10 3 3 4 7 9 18 19 14 13 28 32 30 31 32 32 37 38 41 45 42 37 45 50 42 27 18 21 13 12 21 31 42 33 27 37 38 35 28 18 10 10 10 8 7 8 8 10 12 14 17 21 22 28 33 37 38 24 7 2 -1 -4 -6 -8 -8 -8 -9 -10 -10 
-38 -36 -35 -35 -37 -38 -38 -37 -37 -37 -37 -36 -38 -40 -41 -43 -44 -43 -43 -41 -39 -38 -34 -32 -31 -30 -27 -27 -27 -27 -26 -28 -28 -29 -31 -34 -38 -38 -35 -28 -29 -34 -35 -33 -33 -34 -35 -38 -40 -41 -41 -41 -43 -42 -46 -51 -52 -52 -47 -43 -44 -45 -39 -28 -41 -41 -41 -41 -42 -42 -37 -34 -30 -30 -29 -26 -24 -24 -24 -24 -25 -26 -29 -33 -34 -32 -31 -32 -34 -38 -39 -39 -39 -38 -37 -39 -36 -36 -36 -38 -40 -40 -40 -39 -38 -37 -36 -33 -30 -27 -25 -25 -23 -22 -22 -22 -22 -22 -21 -20 -18 -17 -15 -15 -14 -14 -13 -12 -13 -12 -13 -12 -11 -10 -9 -7 -5 -3 -2 -1 -1 -1 -2 -2 -2 -2 -4 -3 -4 -3 -1 3 5 8 7 9 9 10 12 13 14 13 12 11 11 12 13 13 11 11 11 12 12 13 13 13 14 15 17 17 16 15 15 16 15 14 14 14 18 24 25 22 23 26 36 78 132 133 66 50 66 91 127 145 126 102 84 67 57 53 52 54 47 39 37 42 55 60 48 35 31 35 31 28 28 28 34 36 32 31 20 24 33 42 48 56 53 49 44 38 36 38 32 26 25 22 20 18 23 27 31 37 44 45 40 36 41 37 39 36 43 48 49 45 46 44 36 32 39 38 34 33 34 40 47 49 52 49 48 52 46 41 36 32 34 32 32 32 31 31 32 25 18 19 21 23 27 30 38 44 48 46 44 41 33 26 20 19 17 12 11 14 14 7 2 -10 -2 3 7 6 16 24 26 23 14 19 28 32 29 28 34 36 35 39 44 38 36 45 50 46 32 17 18 12 9 16 26 32 24 24 30 33 34 30 14 9 10 13 11 9 11 12 15 15 15 14 15 17 22 25 31 37 34 16 3 1 -5 -7 -9 -7 -8 -9 -10 -11 
-37 -36 -35 -36 -37 -39 -38 -37 -36 -35 -34 -33 -36 -39 -41 -43 -45 -46 -46 -44 -42 -39 -36 -34 -33 -30 -29 -28 -26 -26 -26 -28 -29 -31 -33 -36 -41 -42 -38 -33 -30 -31 -30 -31 -32 -33 -33 -33 -33 -40 -41 -41 -40 -43 -46 -52 -55 -56 -49 -45 -45 -45 -34 -28 -41 -41 -42 -42 -42 -42 -39 -36 -33 -31 -29 -28 -25 -24 -24 -25 -25 -24 -23 -33 -39 -32 -31 -33 -35 -36 -39 -39 -39 -39 -39 -38 -38 -37 -38 -39 -39 -40 -40 -40 -39 -37 -36 -33 -31 -27 -27 -25 -24 -23 -22 -22 -22 -22 -21 -19 -19 -18 -16 -17 -16 -15 -15 -14 -13 -14 -13 -13 -12 -10 -9 -7 -6 -4 -2 -1 -2 -2 -2 -2 -2 -3 -5 -4 -4 -4 -2 1 3 4 7 8 4 7 11 12 13 13 12 12 12 13 14 15 12 10 11 14 14 14 14 14 14 16 18 18 16 15 15 16 15 13 13 12 15 19 22 20 23 26 30 61 130 128 56 48 75 104 124 125 95 79 65 56 52 53 52 48 43 41 39 41 59 71 54 39 31 37 42 34 30 24 20 20 22 21 15 21 29 32 34 40 42 45 42 38 32 30 31 32 33 31 28 20 16 21 28 35 40 42 38 34 40 34 27 29 35 35 42 43 41 40 36 27 32 35 31 31 33 37 37 41 47 44 47 50 43 46 41 35 39 40 39 34 33 30 27 22 28 35 33 34 36 39 50 50 50 46 46 45 40 36 30 29 25 15 9 12 17 13 12 -8 -2 2 6 4 15 14 28 30 15 17 30 33 27 27 35 33 29 36 42 36 36 41 44 43 33 18 17 10 6 9 14 15 13 12 14 15 16 14 8 8 13 18 20 14 14 22 25 24 19 17 19 18 21 24 27 34 38 26 8 4 -1 -5 -8 -7 -8 -9 -10 -10 
-38 -37 -36 -36 -37 -37 -38 -37 -36 -34 -31 -28 -33 -38 -41 -43 -45 -49 -50 -48 -44 -41 -39 -37 -35 -33 -31 -28 -28 -27 -27 -29 -31 -34 -36 -39 -43 -43 -40 -37 -32 -31 -29 -29 -31 -32 -32 -32 -32 -34 -35 -42 -42 -43 -46 -52 -58 -56 -50 -46 -45 -45 -33 -28 -41 -41 -42 -43 -42 -42 -39 -37 -35 -32 -32 -30 -27 -27 -25 -25 -23 -24 -23 -32 -40 -29 -29 -33 -35 -36 -39 -39 -39 -42 -41 -39 -39 -39 -39 -39 -40 -40 -40 -40 -39 -38 -35 -34 -32 -30 -28 -26 -25 -24 -22 -22 -20 -21 -20 -20 -19 -19 -18 -17 -18 -17 -16 -16 -15 -14 -14 -13 -13 -12 -10 -9 -6 -5 -4 -3 -2 -2 -2 -2 -2 -3 -3 -3 -3 -3 -1 -1 1 1 2 5 3 7 11 11 12 12 12 13 12 12 13 11 10 9 12 14 14 14 15 14 15 16 18 17 16 15 15 15 16 14 13 11 11 14 19 18 23 25 25 41 90 99 50 59 83 101 124 117 80 91 80 63 59 55 55 58 57 57 52 43 47 60 57 40 29 34 40 35 37 30 25 24 20 17 13 13 18 22 30 35 37 40 40 38 35 37 40 42 38 37 35 27 18 14 19 27 29 30 31 29 27 24 21 25 29 32 39 42 42 38 35 28 25 31 29 28 30 27 30 35 42 41 44 46 47 45 40 40 40 48 45 38 35 32 29 29 40 43 40 45 48 48 53 45 42 40 39 40 39 39 40 35 30 21 10 8 15 16 16 -4 -1 3 7 3 12 13 31 32 14 15 24 25 30 32 33 30 25 35 42 36 34 36 39 33 23 15 12 7 3 4 5 6 8 6 7 9 8 9 13 13 22 27 28 23 24 39 32 27 25 22 24 23 25 33 34 39 42 28 14 11 3 -3 -6 -6 -7 -7 -8 -10 
-39 -37 -36 -36 -37 -37 -36 -37 -35 -35 -33 -31 -35 -38 -41 -45 -47 -49 -51 -48 -46 -43 -41 -38 -37 -37 -32 -30 -29 -28 -29 -31 -33 -38 -38 -38 -43 -45 -42 -39 -34 -31 -28 -28 -30 -33 -33 -33 -33 -34 -33 -34 -40 -40 -44 -53 -60 -55 -50 -45 -46 -43 -41 -40 -41 -43 -43 -44 -44 -43 -41 -38 -37 -35 -35 -32 -31 -28 -24 -25 -25 -24 -23 -24 -26 -26 -25 -28 -33 -36 -36 -39 -41 -43 -42 -41 -39 -39 -40 -39 -39 -39 -40 -40 -40 -40 -37 -35 -34 -32 -29 -28 -26 -24 -22 -21 -20 -19 -20 -20 -20 -20 -20 -20 -19 -19 -18 -17 -16 -15 -14 -14 -13 -13 -11 -9 -8 -6 -4 -4 -3 -2 -3 -2 -2 -2 -1 -1 -1 0 -1 0 -1 -3 -3 1 3 8 10 10 11 13 12 13 12 11 11 9 8 10 11 12 13 13 14 14 14 15 16 17 15 15 15 15 16 15 13 12 11 12 16 19 25 26 28 37 57 56 39 53 81 105 124 97 68 93 91 69 55 48 48 54 58 58 51 41 39 49 53 42 29 31 38 40 36 34 35 32 23 19 13 12 21 30 38 43 40 44 47 45 41 40 42 40 41 46 44 36 29 17 13 14 18 22 26 28 25 20 18 27 33 36 34 34 39 38 30 27 24 30 28 27 30 27 27 29 35 41 46 44 46 48 46 46 48 45 37 36 36 33 33 40 43 43 38 42 50 49 49 45 44 43 38 31 28 32 39 35 32 24 12 7 9 10 11 -1 1 4 7 5 21 37 42 34 15 11 17 21 29 28 32 31 22 32 43 36 32 34 35 27 14 9 9 4 7 11 12 13 21 22 14 16 13 14 25 26 22 26 31 26 21 31 28 24 29 30 29 26 25 27 30 38 45 32 20 11 6 -1 -3 -5 -5 -6 -6 -9 
-39 -38 -37 -36 -36 -36 -35 -35 -36 -37 -35 -35 -37 -40 -43 -44 -45 -46 -47 -48 -46 -45 -42 -40 -37 -37 -37 -34 -33 -32 -32 -33 -35 -38 -38 -38 -40 -42 -40 -40 -35 -30 -28 -28 -29 -30 -32 -33 -33 -33 -30 -32 -34 -34 -37 -41 -50 -56 -49 -47 -47 -45 -44 -45 -44 -42 -42 -45 -46 -44 -42 -42 -41 -39 -38 -37 -35 -41 -31 -25 -26 -26 -25 -24 -24 -23 -22 -26 -30 -36 -36 -37 -38 -39 -39 -39 -39 -39 -40 -39 -40 -40 -40 -40 -40 -40 -38 -37 -36 -34 -32 -30 -28 -26 -24 -21 -21 -20 -20 -22 -22 -23 -23 -23 -22 -20 -20 -19 -17 -16 -15 -14 -13 -12 -10 -9 -8 -6 -5 -5 -4 -3 -3 -2 -2 -1 0 0 0 0 0 -1 -2 -2 -2 0 3 7 8 9 10 12 12 13 13 11 10 8 10 12 12 12 13 14 14 14 14 15 15 17 16 15 14 13 13 14 14 13 13 13 15 19 22 22 25 37 69 75 44 50 71 82 82 66 60 83 85 68 53 48 45 50 51 47 40 38 42 55 54 46 31 27 33 39 40 38 35 31 25 24 19 11 15 29 43 45 42 44 47 52 50 46 44 41 45 47 46 45 38 27 16 14 14 19 21 25 28 21 16 20 24 32 32 30 36 37 30 29 26 26 21 24 29 27 31 37 47 53 57 51 59 61 58 54 48 40 40 38 34 33 41 47 47 44 40 41 42 43 44 37 38 39 35 30 27 23 24 24 22 21 14 12 11 9 9 8 0 2 4 1 8 35 40 30 17 9 10 19 29 25 30 30 18 24 37 33 28 29 21 13 8 5 4 5 11 15 21 26 34 33 21 23 20 17 24 34 26 27 31 27 19 26 22 20 33 43 39 32 29 26 26 33 49 45 28 18 8 3 -2 -4 -6 -6 -6 -9 
-40 -40 -38 -36 -35 -34 -34 -34 -37 -40 -38 -37 -39 -42 -44 -43 -43 -43 -43 -44 -46 -46 -44 -42 -40 -40 -37 -39 -37 -36 -35 -35 -37 -34 -34 -35 -36 -36 -36 -34 -32 -29 -26 -27 -27 -29 -31 -31 -31 -31 -27 -30 -34 -34 -34 -35 -36 -42 -54 -48 -45 -45 -45 -46 -45 -40 -38 -41 -47 -43 -44 -43 -42 -42 -42 -40 -39 -42 -36 -33 -31 -26 -26 -25 -24 -22 -23 -27 -25 -26 -36 -38 -38 -39 -39 -39 -39 -39 -39 -39 -40 -40 -40 -40 -40 -39 -40 -40 -38 -36 -34 -30 -29 -25 -24 -22 -21 -21 -21 -22 -24 -26 -26 -25 -25 -24 -22 -20 -19 -17 -16 -14 -14 -12 -11 -10 -8 -7 -6 -5 -5 -4 -3 -3 -2 -2 -1 1 1 2 1 0 0 -1 -2 0 2 6 6 8 4 9 13 13 13 12 10 9 11 13 13 13 13 14 15 14 14 15 15 15 16 14 13 12 12 13 12 12 14 15 15 17 19 19 22 32 69 86 50 42 57 70 67 57 59 67 67 59 49 46 43 47 43 35 34 40 45 58 55 46 33 26 29 38 41 39 39 35 27 25 20 12 12 21 33 39 35 36 41 49 57 53 45 38 37 39 41 40 35 29 20 14 12 14 16 21 22 16 14 16 20 27 28 26 31 33 28 30 23 19 19 28 32 32 40 45 52 61 63 57 66 68 63 54 50 49 49 42 37 40 47 51 49 50 44 38 35 35 38 34 32 30 27 23 23 25 28 28 23 17 12 12 11 10 9 8 0 0 1 2 4 31 37 26 18 8 9 16 20 16 22 25 15 17 28 24 17 17 11 6 4 4 8 17 19 17 20 25 32 36 27 28 28 25 26 38 32 31 36 33 22 21 17 19 32 43 40 32 33 29 27 33 44 48 34 22 13 12 7 -2 -3 -3 -6 -9 
-41 -40 -39 -36 -34 -32 -31 -32 -34 -37 -37 -38 -38 -46 -46 -44 -41 -39 -38 -42 -45 -47 -46 -44 -44 -43 -44 -44 -43 -42 -36 -36 -35 -33 -31 -31 -30 -30 -30 -30 -28 -26 -24 -24 -25 -26 -28 -27 -27 -28 -31 -31 -34 -35 -35 -34 -33 -30 -38 -44 -45 -43 -44 -45 -44 -41 -42 -40 -39 -42 -46 -43 -42 -42 -42 -42 -42 -40 -38 -38 -38 -31 -28 -25 -26 -24 -23 -22 -21 -19 -18 -29 -35 -40 -38 -37 -37 -38 -38 -39 -39 -40 -39 -39 -40 -39 -39 -39 -39 -39 -36 -33 -29 -27 -25 -23 -22 -20 -22 -23 -25 -28 -30 -29 -27 -26 -24 -22 -20 -19 -17 -15 -13 -12 -11 -9 -9 -7 -6 -6 -6 -5 -5 -4 -3 -2 -1 0 2 3 2 2 1 0 -1 -1 1 3 2 5 3 9 13 13 12 11 9 10 11 12 13 13 14 15 16 15 15 15 14 13 14 12 11 12 12 13 13 13 15 15 14 16 18 19 22 25 46 83 54 37 50 67 62 60 62 55 55 53 49 45 42 41 34 36 40 42 46 57 54 44 34 27 27 34 37 37 43 41 33 28 22 15 12 13 22 32 27 31 40 48 54 53 47 38 34 32 32 32 29 29 26 21 14 10 10 13 14 14 18 21 20 22 28 26 24 25 23 25 18 15 24 39 41 41 49 56 57 66 69 62 68 73 67 64 66 66 58 48 49 52 52 49 47 48 45 38 36 32 32 29 24 21 22 25 31 34 34 28 29 27 15 10 9 10 9 4 7 -2 -2 2 6 24 35 27 19 8 10 13 13 6 11 16 13 13 19 14 7 6 4 3 3 8 18 29 29 22 17 20 29 38 34 31 35 37 32 39 36 32 38 40 32 33 24 18 25 33 29 25 33 33 31 33 38 45 35 25 20 20 14 3 -8 -9 -10 -9 
-41 -41 -40 -38 -34 -31 -30 -29 -32 -35 -36 -40 -45 -49 -49 -45 -39 -33 -34 -39 -45 -47 -46 -45 -44 -46 -48 -47 -47 -46 -44 -41 -37 -34 -30 -29 -27 -23 -25 -26 -26 -23 -23 -22 -23 -24 -25 -25 -26 -26 -28 -30 -32 -36 -37 -34 -34 -34 -36 -39 -41 -43 -44 -43 -43 -42 -44 -41 -39 -39 -41 -42 -42 -43 -43 -42 -42 -41 -41 -39 -35 -33 -31 -29 -25 -25 -24 -22 -20 -18 -18 -15 -31 -38 -39 -38 -36 -37 -37 -38 -39 -39 -39 -39 -39 -39 -39 -39 -40 -39 -38 -36 -31 -29 -27 -24 -22 -22 -22 -24 -26 -29 -31 -30 -29 -28 -26 -24 -21 -19 -17 -16 -13 -13 -11 -10 -8 -7 -7 -5 -6 -7 -5 -4 -4 -3 -1 0 1 2 3 1 1 1 0 0 0 0 2 3 6 9 12 13 12 10 9 11 12 12 13 14 17 16 16 15 15 14 13 12 12 11 12 13 13 14 13 13 14 14 13 16 19 20 23 24 31 61 49 34 38 51 51 63 57 48 50 56 56 54 47 36 35 44 45 43 45 52 48 43 36 30 24 25 28 32 38 38 35 28 24 22 17 11 14 26 23 30 41 47 46 47 44 36 35 34 33 34 32 34 33 29 21 13 10 9 12 13 20 24 21 20 27 29 22 19 21 18 14 15 29 46 51 51 53 62 60 67 76 69 74 80 79 80 78 71 60 60 64 60 53 45 41 39 41 38 38 34 26 22 18 23 32 35 38 34 28 29 36 32 19 13 8 8 9 6 8 -4 -4 6 13 14 28 30 23 11 9 7 6 2 5 8 7 8 10 6 4 3 4 7 9 12 18 29 33 26 15 17 28 38 36 32 37 44 41 40 38 34 39 41 35 44 41 23 18 22 22 25 31 34 36 37 38 41 36 32 27 23 15 6 0 -9 -11 -10 
-41 -41 -41 -39 -36 -31 -31 -31 -33 -34 -36 -41 -46 -51 -50 -48 -41 -34 -33 -38 -43 -46 -44 -43 -44 -45 -49 -49 -48 -50 -48 -46 -41 -36 -33 -31 -27 -23 -23 -25 -24 -23 -21 -22 -22 -22 -23 -24 -23 -24 -27 -28 -30 -30 -33 -33 -34 -35 -36 -36 -41 -42 -43 -45 -44 -44 -44 -43 -43 -41 -41 -41 -41 -43 -43 -43 -43 -42 -42 -40 -38 -34 -34 -32 -31 -30 -30 -23 -22 -18 -15 -18 -35 -37 -39 -38 -36 -34 -34 -35 -37 -37 -39 -38 -38 -39 -39 -39 -40 -39 -39 -39 -33 -30 -27 -25 -24 -22 -24 -25 -27 -29 -31 -31 -29 -28 -27 -25 -22 -19 -18 -16 -14 -12 -12 -9 -8 -7 -7 -7 -6 -6 -6 -6 -4 -4 -3 -1 1 2 2 2 1 1 1 0 -2 -2 0 4 4 3 8 11 11 10 8 10 12 11 12 13 15 15 16 15 15 14 13 13 12 13 13 12 12 12 12 13 14 14 13 15 18 19 21 22 24 32 33 30 32 39 41 44 39 44 47 57 64 66 55 37 35 40 43 45 42 45 43 39 40 35 24 21 23 26 30 39 37 30 33 33 24 13 11 17 22 31 37 41 39 43 42 42 40 38 37 37 35 32 32 32 27 21 14 9 9 11 19 24 21 16 22 26 21 15 17 14 13 17 30 46 51 52 60 72 70 70 71 64 75 81 79 79 78 61 61 71 77 65 49 37 33 31 31 29 29 28 24 23 23 33 42 42 36 29 31 39 38 29 22 13 8 3 1 1 -3 -6 -7 3 12 20 28 29 24 7 1 2 -5 -13 2 1 1 2 5 3 1 2 9 15 17 14 15 24 31 25 15 12 23 32 38 37 37 45 50 47 42 35 42 44 37 46 46 31 30 29 25 30 38 43 37 38 38 40 44 37 30 24 21 17 4 -6 -8 -9 
-39 -40 -40 -39 -38 -35 -35 -35 -35 -35 -38 -40 -45 -48 -50 -50 -43 -36 -33 -36 -40 -41 -40 -40 -40 -42 -43 -44 -45 -46 -47 -47 -45 -42 -39 -35 -31 -27 -26 -25 -24 -23 -21 -21 -21 -23 -23 -23 -23 -24 -25 -26 -26 -29 -30 -31 -33 -35 -38 -36 -37 -42 -42 -44 -45 -45 -45 -46 -45 -45 -42 -42 -41 -41 -42 -42 -42 -42 -41 -40 -41 -41 -37 -36 -39 -39 -39 -38 -27 -20 -17 -25 -35 -32 -36 -37 -38 -37 -36 -34 -34 -37 -37 -37 -39 -39 -36 -38 -38 -38 -37 -36 -33 -30 -28 -26 -25 -25 -26 -26 -27 -27 -28 -27 -27 -27 -26 -26 -23 -19 -17 -15 -15 -13 -10 -10 -8 -8 -6 -6 -7 -7 -6 -6 -6 -4 -4 -2 0 1 1 2 2 2 1 -1 -2 -2 0 1 1 5 3 7 10 9 8 10 13 14 14 14 13 13 14 14 13 12 12 13 12 12 12 12 13 14 13 14 14 15 14 14 17 18 18 18 22 25 25 28 33 39 35 29 28 44 45 54 60 58 46 34 31 33 32 36 41 39 50 44 42 37 26 26 23 21 28 37 38 37 35 30 23 14 10 11 24 32 33 36 36 41 47 47 42 37 34 31 27 25 21 21 20 18 16 12 8 9 17 24 21 15 17 19 14 10 11 11 12 21 32 40 48 53 64 94 103 91 70 52 58 65 65 62 64 65 68 75 68 51 39 36 31 26 22 21 23 25 30 34 31 39 48 44 37 34 36 35 33 32 29 12 10 4 1 -1 -4 -6 -6 -1 11 16 22 19 14 4 3 2 1 1 1 4 7 4 1 2 2 9 15 18 23 18 17 25 28 26 24 17 17 27 38 44 44 43 44 49 46 37 44 51 50 50 49 37 33 41 32 28 28 37 43 43 39 46 42 31 32 33 31 31 8 -2 -6 -9 
-38 -39 -40 -40 -40 -40 -38 -37 -37 -37 -37 -40 -41 -44 -44 -45 -40 -36 -34 -39 -39 -36 -36 -35 -34 -35 -37 -37 -39 -40 -43 -45 -45 -45 -44 -41 -35 -30 -28 -27 -26 -24 -21 -22 -23 -23 -23 -23 -24 -24 -25 -26 -26 -28 -28 -28 -32 -32 -35 -36 -37 -36 -37 -42 -42 -43 -44 -50 -47 -45 -43 -40 -38 -38 -40 -42 -43 -41 -41 -40 -41 -41 -40 -38 -39 -39 -39 -39 -31 -16 -12 -10 -25 -31 -34 -32 -34 -33 -35 -34 -34 -34 -33 -32 -35 -37 -38 -38 -38 -38 -37 -36 -34 -31 -29 -27 -27 -27 -28 -27 -26 -25 -24 -25 -25 -24 -24 -22 -20 -19 -17 -16 -14 -12 -11 -10 -9 -7 -6 -6 -6 -6 -7 -6 -5 -5 -5 -4 -1 0 1 1 1 2 2 -1 -2 -2 -2 0 1 2 1 5 8 9 9 11 12 14 13 12 12 13 14 13 12 12 12 12 11 12 12 13 13 15 16 17 16 17 16 14 15 16 17 19 23 25 24 25 27 28 27 24 24 38 41 47 52 45 33 34 33 35 33 35 40 37 45 39 31 28 25 26 30 24 24 32 31 35 34 30 25 16 9 9 22 29 27 31 33 36 43 42 39 37 34 32 29 26 23 24 23 21 20 15 8 5 9 16 19 13 11 12 10 10 10 13 20 26 30 37 51 57 65 98 97 73 60 48 41 43 49 46 50 65 70 69 60 48 42 43 34 31 29 33 39 34 38 35 38 43 48 46 44 43 34 19 15 18 20 14 7 2 1 -3 -4 -6 -6 -2 8 7 14 14 7 1 1 1 3 6 5 4 4 4 5 9 14 16 20 21 26 25 22 21 23 27 30 28 23 22 37 48 52 52 49 48 46 41 46 55 60 51 48 42 31 38 42 42 32 25 30 37 39 43 34 22 22 29 30 32 9 1 -4 -6 
-36 -38 -39 -40 -42 -42 -41 -39 -38 -38 -37 -38 -38 -40 -40 -38 -36 -34 -33 -39 -39 -34 -32 -31 -29 -30 -31 -32 -33 -36 -38 -41 -43 -45 -47 -44 -38 -33 -30 -30 -30 -28 -25 -24 -24 -24 -25 -24 -24 -24 -25 -28 -29 -28 -28 -28 -32 -32 -34 -35 -35 -34 -36 -36 -41 -41 -42 -48 -52 -47 -44 -44 -41 -38 -39 -43 -43 -41 -41 -40 -41 -41 -40 -39 -39 -41 -40 -38 -35 -30 -12 -15 -24 -24 -29 -29 -25 -26 -30 -34 -34 -34 -32 -31 -31 -31 -34 -33 -34 -36 -37 -37 -37 -32 -29 -30 -30 -30 -30 -28 -26 -24 -22 -22 -22 -22 -21 -20 -19 -18 -17 -15 -14 -13 -12 -11 -8 -7 -6 -6 -5 -6 -6 -5 -5 -5 -5 -4 -3 -1 0 1 1 1 1 -1 -2 -2 -2 -1 -1 1 1 5 8 9 10 13 13 13 12 11 12 13 13 13 13 13 10 11 11 11 12 14 14 15 17 19 19 17 16 14 13 15 16 19 21 22 24 24 22 21 22 21 20 27 39 49 49 38 27 30 39 39 34 35 37 33 36 34 28 25 24 24 31 24 19 23 25 29 30 30 27 18 11 9 13 21 22 27 29 30 35 31 30 33 36 34 32 33 30 27 22 21 18 15 11 6 5 9 17 13 10 13 13 12 13 14 19 24 28 34 39 43 48 62 59 48 44 41 32 30 34 33 39 53 58 58 53 44 42 39 32 29 33 36 41 38 38 40 43 41 40 39 40 43 33 14 9 11 12 13 9 3 1 -4 -3 -4 -4 -1 6 9 13 10 3 1 3 6 10 14 14 12 17 20 15 22 30 27 28 28 32 30 22 18 19 27 35 39 34 23 26 35 42 45 44 42 41 42 47 57 60 52 45 38 35 38 40 40 34 25 24 32 40 36 25 15 15 20 21 24 8 1 -3 -5 
-35 -37 -39 -40 -42 -44 -42 -40 -39 -38 -38 -37 -36 -35 -36 -35 -34 -31 -30 -32 -33 -32 -32 -31 -30 -28 -27 -28 -29 -31 -34 -37 -41 -45 -47 -47 -40 -35 -33 -35 -35 -31 -28 -28 -27 -26 -26 -26 -25 -26 -26 -29 -31 -38 -38 -38 -35 -35 -35 -34 -34 -33 -33 -34 -38 -38 -35 -36 -43 -45 -46 -42 -42 -43 -44 -45 -44 -41 -40 -41 -41 -40 -40 -40 -39 -40 -40 -39 -38 -38 -30 -26 -25 -22 -17 -24 -26 -26 -26 -27 -34 -34 -36 -35 -34 -33 -29 -29 -33 -36 -35 -36 -36 -33 -30 -30 -32 -34 -34 -30 -28 -25 -21 -21 -21 -20 -19 -19 -18 -17 -17 -17 -16 -14 -14 -11 -10 -7 -6 -6 -6 -5 -5 -5 -5 -5 -6 -5 -4 -1 -1 0 0 1 1 0 -2 -2 -2 -1 -1 0 1 5 4 7 11 14 12 11 12 11 11 14 13 14 14 13 10 11 12 12 12 14 15 16 17 19 17 15 14 13 12 14 16 18 18 18 22 24 19 15 17 16 15 20 40 58 55 37 27 28 39 45 38 37 36 32 36 37 31 27 25 21 21 19 17 17 18 17 18 21 21 17 14 11 9 12 18 24 26 27 27 21 25 31 39 42 39 36 31 26 22 23 21 18 15 9 6 6 8 8 9 11 12 10 11 15 18 24 27 26 24 25 30 34 35 34 34 35 30 24 23 22 25 33 39 45 41 36 40 35 30 30 33 34 40 41 41 46 41 33 30 31 30 29 21 14 14 13 13 14 13 8 3 -4 -3 -3 -1 2 4 6 8 8 2 2 7 11 14 18 24 25 30 32 26 30 35 34 36 37 37 30 24 26 24 25 30 41 39 24 19 21 26 31 33 36 39 41 45 53 55 50 41 30 31 34 31 28 30 29 23 24 33 26 17 13 14 12 9 11 4 1 -3 -5 
-33 -36 -39 -40 -41 -43 -42 -40 -39 -39 -38 -36 -35 -35 -33 -33 -31 -30 -29 -31 -34 -35 -36 -34 -31 -28 -27 -25 -27 -28 -31 -34 -38 -41 -43 -43 -39 -36 -35 -35 -35 -34 -33 -32 -30 -29 -27 -27 -27 -27 -27 -30 -33 -38 -38 -38 -37 -36 -35 -35 -35 -35 -34 -35 -35 -35 -38 -37 -39 -39 -42 -42 -45 -47 -45 -44 -43 -41 -40 -40 -41 -41 -40 -41 -39 -40 -40 -39 -38 -38 -34 -31 -29 -29 -29 -26 -26 -27 -26 -26 -28 -32 -37 -35 -36 -35 -33 -29 -31 -33 -34 -35 -35 -33 -32 -32 -32 -33 -33 -32 -30 -26 -24 -22 -21 -19 -19 -19 -17 -17 -17 -17 -18 -16 -15 -11 -10 -8 -7 -6 -5 -4 -4 -4 -4 -4 -5 -5 -4 -2 -1 0 0 0 0 -1 -1 -3 -1 -2 -1 0 1 5 4 6 11 11 11 10 11 11 12 14 13 14 13 12 11 11 10 10 12 14 15 16 17 18 16 13 12 12 13 16 16 17 18 17 19 20 16 12 13 13 12 16 32 58 62 40 39 31 31 44 46 41 35 37 42 38 34 32 29 26 22 24 26 21 17 13 11 12 13 13 12 10 9 9 13 17 23 25 21 20 28 34 43 49 43 35 31 29 27 26 22 17 14 12 10 8 5 4 6 4 7 8 10 17 20 27 26 18 16 20 25 27 27 29 30 31 31 22 19 18 21 28 33 38 34 30 32 30 27 30 33 30 34 42 45 43 39 33 33 37 33 25 17 18 18 16 18 19 18 14 10 -4 -3 -2 -1 2 6 9 7 7 0 6 11 13 14 17 25 31 34 37 35 34 35 34 37 41 37 29 28 35 32 31 34 43 44 29 28 26 26 26 32 34 37 43 46 48 48 49 40 28 27 28 25 21 24 29 25 21 25 20 12 16 19 11 4 2 2 1 -4 -5 
-33 -37 -39 -40 -41 -40 -41 -40 -39 -39 -38 -36 -34 -34 -33 -31 -29 -28 -28 -31 -36 -39 -39 -36 -36 -28 -25 -25 -26 -26 -28 -32 -35 -37 -38 -38 -36 -35 -34 -36 -38 -39 -37 -35 -35 -31 -29 -28 -28 -28 -28 -31 -34 -36 -38 -38 -39 -39 -36 -36 -36 -36 -35 -34 -31 -31 -35 -37 -37 -37 -40 -42 -45 -48 -44 -44 -43 -41 -41 -41 -41 -39 -40 -40 -39 -40 -40 -39 -38 -37 -38 -33 -32 -32 -37 -31 -25 -26 -26 -27 -26 -26 -35 -38 -40 -39 -36 -33 -31 -33 -34 -35 -35 -35 -33 -34 -33 -34 -33 -33 -33 -29 -25 -23 -21 -18 -18 -18 -17 -17 -18 -18 -18 -18 -14 -13 -9 -8 -6 -6 -4 -3 -3 -2 -3 -3 -4 -4 -2 -2 -1 -1 -1 -1 -1 -1 -2 -2 -2 -3 -2 -2 1 6 7 8 10 11 10 9 10 12 11 11 11 10 10 11 11 12 11 10 12 14 15 16 15 15 15 12 11 13 14 15 16 17 17 16 17 17 15 12 11 11 13 20 25 43 47 33 46 33 27 39 52 47 40 39 37 37 39 41 35 31 26 30 33 32 31 19 14 14 15 15 17 15 10 9 9 11 17 19 16 21 27 36 47 48 41 40 38 34 28 24 22 20 19 20 16 10 8 8 9 6 6 10 15 20 23 28 24 16 15 23 25 23 21 25 29 26 28 21 18 20 24 29 34 32 27 25 25 25 22 29 30 25 28 36 38 40 39 35 31 29 27 22 19 23 23 19 17 17 19 14 4 -5 -4 -2 -1 1 5 8 7 0 2 5 10 13 11 12 18 23 32 37 38 32 36 31 32 37 36 34 31 41 38 38 41 46 45 35 36 35 36 33 37 39 34 41 49 48 42 39 38 29 24 19 14 16 23 28 27 26 34 22 18 20 17 8 9 -1 -2 -2 -4 -6 
-33 -37 -40 -40 -40 -39 -39 -39 -38 -38 -38 -37 -35 -34 -33 -31 -29 -26 -25 -29 -37 -43 -42 -36 -36 -29 -26 -25 -26 -25 -28 -30 -33 -33 -34 -34 -33 -33 -34 -38 -41 -41 -40 -35 -35 -33 -31 -29 -29 -28 -29 -32 -34 -36 -37 -38 -39 -39 -38 -38 -38 -37 -36 -34 -30 -30 -33 -34 -36 -37 -38 -42 -42 -46 -43 -44 -43 -42 -41 -42 -40 -40 -39 -40 -39 -40 -40 -39 -38 -37 -38 -35 -34 -34 -37 -37 -25 -26 -25 -26 -28 -30 -32 -36 -41 -40 -39 -35 -31 -34 -34 -34 -35 -35 -35 -34 -34 -34 -35 -33 -33 -30 -28 -24 -21 -19 -17 -17 -17 -17 -18 -18 -19 -18 -15 -11 -9 -6 -6 -5 -3 -2 -2 -2 -2 -2 -2 -1 -1 -1 -1 -1 -1 -2 -2 -2 -2 -2 -2 -4 -5 -4 -3 4 6 8 9 10 10 9 10 10 9 8 9 9 9 11 12 12 12 12 13 14 15 16 15 14 14 13 12 12 12 13 15 16 15 13 13 14 14 12 10 12 19 22 21 22 21 20 30 28 25 29 45 70 62 41 37 37 37 40 37 31 26 29 31 31 29 20 18 20 22 24 26 24 15 9 7 7 10 13 13 19 24 34 43 41 35 40 39 33 27 25 27 25 23 20 16 12 10 12 10 6 7 15 18 20 21 23 21 14 12 16 21 21 19 23 32 28 21 16 15 19 24 27 26 25 28 29 30 27 21 22 26 25 24 31 31 32 33 33 30 26 24 24 26 29 26 19 16 16 16 11 4 -5 -3 -2 -1 1 4 2 3 -2 0 -1 8 10 9 9 10 13 21 28 30 27 31 26 31 39 40 36 37 44 46 46 47 50 48 42 41 41 44 40 40 46 40 39 42 45 43 36 28 26 18 10 9 12 16 22 23 27 52 31 23 21 14 6 7 -4 -3 -4 -6 -7 
-31 -36 -39 -39 -39 -38 -37 -38 -38 -38 -37 -38 -38 -36 -34 -32 -29 -26 -24 -26 -36 -43 -44 -36 -36 -31 -27 -27 -27 -28 -27 -30 -31 -32 -30 -30 -30 -30 -32 -36 -38 -40 -40 -35 -35 -34 -33 -32 -31 -30 -29 -32 -37 -37 -38 -38 -39 -39 -38 -39 -39 -39 -37 -36 -30 -31 -32 -32 -35 -36 -38 -39 -40 -49 -47 -43 -43 -43 -42 -42 -36 -36 -39 -38 -38 -39 -39 -38 -38 -37 -38 -37 -37 -37 -37 -37 -25 -25 -25 -25 -28 -31 -32 -33 -38 -40 -37 -34 -32 -32 -33 -33 -35 -35 -35 -35 -34 -34 -33 -33 -33 -31 -31 -24 -20 -18 -16 -15 -15 -15 -17 -16 -16 -14 -10 -7 -6 -6 -5 -4 -3 -2 -1 -1 -1 -1 0 0 0 0 -1 -1 -2 -2 -3 -3 -3 -2 -3 -5 -5 -6 -5 1 4 4 6 7 8 9 10 9 8 8 8 9 11 12 12 12 12 13 15 16 15 15 15 13 12 11 11 11 12 13 12 13 13 12 13 12 12 11 10 12 17 22 19 15 14 15 18 21 23 29 42 72 82 57 36 31 33 37 36 33 27 26 28 26 20 16 15 14 16 21 26 28 23 14 7 5 6 8 10 14 18 26 34 37 35 38 40 38 33 32 32 27 23 19 18 17 11 9 7 6 5 9 13 17 17 21 22 15 12 15 20 22 20 19 24 25 19 15 13 14 18 20 19 24 31 36 41 39 33 22 21 22 19 20 22 24 25 28 31 31 31 30 29 27 21 18 18 17 16 7 2 -4 -2 -2 -1 1 3 1 2 -1 0 -2 3 9 11 8 7 11 16 18 17 20 25 20 26 35 40 40 40 45 45 44 43 40 43 43 44 45 46 43 44 52 50 44 42 45 45 37 31 29 22 12 8 11 13 14 17 20 35 29 17 15 11 5 3 -5 -5 -5 -6 -7 
-29 -33 -37 -38 -37 -36 -36 -37 -38 -38 -39 -40 -40 -40 -37 -35 -30 -26 -23 -26 -35 -44 -47 -46 -39 -33 -29 -29 -31 -30 -29 -32 -32 -30 -29 -27 -26 -27 -30 -34 -35 -39 -40 -40 -38 -37 -35 -36 -34 -34 -33 -33 -35 -37 -38 -38 -38 -38 -38 -39 -39 -38 -39 -39 -37 -35 -35 -34 -29 -31 -37 -41 -41 -39 -46 -43 -43 -43 -43 -43 -42 -41 -40 -38 -38 -39 -39 -38 -38 -37 -38 -36 -36 -36 -35 -34 -36 -30 -28 -28 -25 -28 -32 -31 -32 -32 -35 -34 -32 -32 -32 -33 -34 -34 -34 -34 -34 -33 -32 -30 -29 -27 -24 -22 -19 -16 -14 -13 -12 -12 -13 -13 -11 -8 -3 -1 -3 -5 -5 -5 -2 -1 1 0 0 0 0 0 0 0 0 -1 -2 -3 -3 -3 -2 -2 -3 -4 -6 -7 -8 -4 3 4 3 6 8 9 11 11 9 10 9 10 12 13 13 12 12 13 15 16 15 15 16 14 13 12 12 12 12 13 13 13 12 11 12 11 11 13 11 11 12 18 17 15 16 15 15 17 18 22 33 50 73 72 48 34 30 30 30 32 27 24 22 20 18 15 15 12 11 14 20 26 28 23 15 8 6 6 8 10 13 20 32 39 36 37 44 44 40 37 32 27 25 24 24 21 13 7 5 3 6 8 5 10 10 17 18 12 9 12 18 21 21 16 20 26 18 15 14 11 11 13 15 22 29 38 43 47 44 28 19 18 17 14 15 19 19 25 33 34 29 26 23 19 18 17 17 18 17 7 3 -2 0 -1 -2 0 2 4 1 -1 1 2 5 10 12 9 5 7 14 13 11 13 14 14 22 31 34 39 38 42 39 40 38 28 31 37 40 42 43 43 42 47 53 48 44 46 46 42 36 29 22 17 11 9 9 9 11 13 22 24 16 13 9 5 5 -4 -5 -5 -6 -6 
-27 -31 -34 -35 -36 -36 -35 -36 -37 -38 -39 -41 -42 -44 -41 -37 -33 -28 -25 -28 -34 -41 -42 -42 -39 -36 -33 -34 -36 -37 -37 -37 -33 -31 -27 -26 -25 -25 -27 -31 -33 -35 -37 -37 -38 -40 -40 -39 -38 -35 -35 -35 -37 -37 -39 -39 -38 -38 -38 -39 -39 -41 -39 -39 -38 -38 -37 -36 -35 -31 -35 -39 -39 -38 -39 -43 -43 -44 -44 -47 -45 -43 -39 -36 -38 -40 -40 -39 -39 -37 -38 -37 -36 -36 -35 -36 -36 -32 -30 -29 -29 -26 -28 -30 -29 -29 -33 -35 -33 -32 -33 -34 -34 -34 -35 -33 -33 -33 -31 -29 -27 -25 -21 -20 -17 -15 -12 -10 -9 -9 -9 -10 -7 0 5 5 -1 -4 -5 -4 -2 0 1 1 1 1 1 1 1 1 0 -1 -2 -3 -3 -2 -2 -2 -3 -5 -6 -7 -7 -4 0 4 2 6 8 9 11 11 10 11 12 12 13 14 14 13 14 15 15 17 17 16 14 14 14 13 12 12 11 13 15 15 14 12 10 10 11 14 12 9 12 12 13 14 16 14 14 15 15 20 25 30 38 48 44 39 34 31 30 25 24 25 24 24 24 19 18 14 13 13 16 22 25 23 19 12 6 7 8 8 9 15 34 41 32 36 44 43 41 40 36 33 33 30 25 21 12 3 1 1 2 2 1 2 2 8 8 5 6 7 14 15 16 14 18 28 21 14 13 11 10 14 16 21 32 42 40 41 41 32 26 20 16 12 12 16 16 22 29 30 28 27 24 20 20 17 17 18 17 8 4 -3 -1 0 0 1 2 2 -1 -4 1 7 13 15 12 9 7 8 13 14 15 14 11 12 14 17 23 34 31 35 34 38 33 21 21 26 32 37 39 40 44 47 47 43 47 48 45 43 41 34 28 21 14 9 7 7 8 10 17 21 17 17 11 8 5 -1 -4 -5 -6 -6 
-24 -28 -32 -33 -33 -34 -34 -34 -36 -38 -39 -41 -44 -46 -44 -41 -35 -29 -27 -28 -33 -37 -38 -38 -38 -36 -35 -37 -40 -43 -37 -37 -34 -31 -27 -25 -23 -22 -26 -28 -31 -32 -33 -36 -38 -41 -44 -42 -39 -35 -35 -35 -37 -38 -39 -38 -38 -38 -37 -38 -39 -41 -42 -41 -39 -39 -39 -38 -35 -34 -34 -33 -33 -30 -32 -36 -38 -45 -42 -43 -44 -44 -39 -37 -40 -41 -41 -40 -39 -37 -38 -38 -36 -35 -35 -36 -35 -33 -33 -33 -32 -29 -24 -28 -28 -28 -28 -29 -30 -34 -35 -35 -35 -35 -36 -33 -33 -33 -30 -28 -26 -23 -21 -19 -17 -14 -10 -7 -4 -4 -5 -10 -8 2 1 22 38 21 -4 -3 -1 0 1 2 1 1 1 1 2 2 1 0 -1 -2 -2 -2 -2 -2 -3 -4 -5 -6 -6 -4 -1 3 5 8 10 10 11 10 10 12 12 12 13 13 13 12 15 16 17 18 17 16 15 14 14 15 13 10 11 13 15 15 13 12 11 10 9 11 13 11 11 10 10 12 14 14 16 17 19 25 26 21 22 24 29 35 39 47 43 30 29 31 31 31 29 24 21 17 16 14 13 16 18 16 15 13 9 8 7 3 2 9 29 37 28 31 39 36 33 36 38 38 34 28 24 16 9 2 1 -1 -4 -7 -12 -13 -9 -7 1 1 2 2 6 4 3 8 13 21 21 12 11 12 14 18 19 26 40 47 39 33 35 38 33 26 18 12 11 16 14 15 21 25 31 28 26 26 25 21 20 18 17 12 9 -3 -2 -1 0 1 1 2 -1 -5 1 8 16 16 10 5 7 12 13 20 20 17 15 15 17 17 21 31 27 25 25 29 25 15 14 23 34 34 33 39 46 51 48 47 50 45 39 34 36 35 30 21 11 9 8 7 7 9 14 19 18 19 14 11 7 7 -2 -5 -5 -6 
-21 -25 -28 -29 -30 -30 -32 -32 -33 -36 -38 -40 -43 -45 -43 -44 -37 -31 -27 -29 -31 -34 -35 -35 -36 -36 -37 -39 -41 -43 -42 -39 -36 -33 -30 -26 -23 -25 -27 -28 -30 -31 -32 -34 -38 -41 -42 -43 -40 -37 -36 -36 -36 -38 -38 -38 -38 -37 -36 -38 -38 -38 -40 -40 -40 -39 -39 -39 -37 -34 -34 -32 -30 -28 -28 -30 -35 -39 -38 -42 -42 -42 -42 -42 -41 -41 -41 -41 -39 -39 -38 -36 -36 -34 -34 -35 -36 -36 -34 -36 -36 -31 -28 -26 -26 -26 -28 -30 -29 -32 -37 -37 -36 -35 -35 -35 -35 -33 -31 -29 -27 -23 -22 -20 -18 -14 -7 -2 1 26 -2 -5 3 12 8 2 1 1 -1 -1 0 0 1 1 1 1 1 1 1 1 1 0 -1 -2 -2 -1 -1 -1 -2 -3 -3 -4 -4 -2 1 1 6 9 12 13 13 12 13 13 13 12 14 14 13 12 16 19 18 17 17 15 15 15 16 17 14 12 13 14 12 13 12 12 12 10 9 10 15 15 11 11 11 12 13 16 20 20 22 26 25 21 21 20 23 30 41 59 47 47 40 34 30 29 28 28 21 16 16 16 15 14 16 15 14 13 13 11 7 2 2 4 23 37 26 27 37 32 30 29 30 33 31 24 17 6 6 3 1 -3 -5 1 1 1 1 8 -10 -8 -7 -5 1 2 5 9 6 13 17 6 9 14 15 17 20 28 38 42 37 30 31 36 36 31 25 17 11 14 11 13 17 23 34 35 35 35 30 22 19 16 18 15 6 -5 -3 -1 1 2 2 -2 3 3 2 10 13 11 8 6 5 7 11 20 21 15 14 19 20 22 33 43 37 24 17 15 12 8 9 18 26 24 23 32 42 50 54 54 55 49 45 37 27 21 18 14 9 8 7 8 7 7 8 11 16 20 16 14 13 9 -1 -4 -5 -6 
-17 -20 -24 -26 -27 -27 -29 -30 -31 -33 -35 -38 -40 -43 -42 -40 -36 -31 -27 -27 -29 -31 -32 -33 -34 -35 -36 -38 -41 -43 -42 -40 -38 -38 -32 -30 -30 -30 -30 -30 -29 -28 -30 -31 -34 -38 -40 -40 -38 -36 -34 -36 -36 -36 -37 -37 -38 -34 -33 -32 -34 -36 -37 -39 -39 -38 -38 -37 -36 -36 -34 -33 -31 -28 -29 -30 -30 -35 -35 -37 -38 -41 -41 -41 -42 -40 -40 -40 -39 -38 -37 -36 -36 -36 -35 -35 -35 -34 -35 -36 -36 -33 -32 -30 -26 -23 -24 -29 -31 -31 -33 -39 -38 -37 -36 -36 -36 -35 -32 -30 -28 -25 -23 -21 -19 -15 -6 5 5 2 1 4 15 51 23 7 6 6 1 0 0 -1 0 -1 0 1 2 1 1 1 1 0 -1 -1 -1 -1 0 0 -1 -2 -1 -2 -1 0 2 7 8 10 13 14 13 12 12 13 13 13 14 14 13 13 16 18 18 17 17 15 14 14 15 16 13 13 13 13 12 11 11 11 11 11 9 12 14 15 11 12 12 12 13 17 20 19 22 26 26 25 25 23 26 29 38 50 45 54 54 40 30 26 22 22 18 13 11 12 13 11 14 21 23 23 19 12 8 4 1 5 20 29 22 28 31 29 28 25 22 28 30 23 14 4 3 -3 -3 10 3 6 7 8 6 3 4 3 5 -8 -6 -3 -1 2 5 7 5 7 10 12 12 14 20 28 32 37 37 33 28 30 30 27 26 24 17 11 10 13 19 27 36 44 45 39 29 21 16 15 20 17 10 -4 -3 -1 1 2 2 2 3 8 8 12 13 9 6 6 4 10 14 26 21 12 12 17 22 28 43 52 43 28 19 12 6 4 8 15 17 19 25 32 35 41 52 54 54 49 43 38 30 28 27 20 14 10 8 8 7 6 7 13 19 23 22 22 19 8 7 -2 -3 -5 
-16 -18 -20 -22 -23 -24 -25 -27 -28 -29 -32 -35 -39 -41 -39 -37 -33 -29 -26 -26 -27 -29 -30 -31 -32 -33 -35 -37 -40 -42 -41 -40 -37 -37 -32 -34 -35 -35 -33 -31 -28 -27 -28 -30 -33 -35 -38 -38 -36 -34 -34 -34 -35 -35 -35 -36 -35 -32 -30 -29 -31 -34 -37 -37 -38 -37 -36 -37 -38 -38 -35 -35 -33 -30 -30 -30 -30 -31 -32 -36 -37 -37 -40 -39 -40 -40 -40 -39 -39 -38 -35 -36 -37 -35 -35 -36 -34 -34 -35 -36 -35 -35 -35 -32 -30 -23 -22 -23 -27 -31 -34 -36 -37 -37 -36 -35 -35 -34 -33 -32 -28 -26 -24 -23 -22 -19 -9 4 4 8 8 11 34 53 22 8 8 7 1 -1 -2 -3 -3 -2 -1 0 1 2 1 1 1 0 0 0 0 1 1 1 1 1 0 0 0 0 3 5 7 11 13 13 12 11 12 12 13 13 13 14 14 13 14 16 17 17 16 16 15 15 14 15 14 13 11 13 13 12 11 10 11 10 9 12 15 14 11 13 12 11 13 16 17 16 20 25 27 32 35 31 31 29 32 44 48 53 52 44 36 29 23 20 17 14 12 13 14 12 10 22 23 21 18 7 2 1 0 2 9 18 18 23 23 27 23 21 21 19 24 12 3 1 2 1 3 8 10 11 12 13 9 7 9 8 5 2 6 -9 -10 -4 4 6 3 6 5 8 13 18 23 29 29 31 35 36 29 25 24 23 22 23 18 12 11 15 24 30 34 37 38 35 30 23 16 16 18 16 6 -5 -5 -2 1 2 2 2 3 4 5 11 13 9 6 10 17 17 15 24 21 13 13 20 28 33 43 47 39 28 22 14 6 4 7 13 20 27 33 31 28 35 46 52 52 47 42 44 42 40 42 37 26 14 9 7 7 7 8 8 15 18 20 21 22 12 3 1 -2 -3 
-16 -16 -17 -18 -20 -21 -22 -23 -25 -26 -28 -32 -34 -37 -36 -33 -31 -28 -26 -26 -27 -28 -29 -29 -31 -32 -34 -35 -38 -40 -40 -38 -37 -35 -38 -40 -40 -39 -36 -34 -29 -27 -27 -28 -30 -33 -34 -34 -32 -32 -32 -33 -33 -33 -34 -35 -35 -32 -31 -30 -30 -32 -33 -35 -37 -35 -35 -36 -37 -37 -37 -37 -37 -32 -32 -33 -33 -36 -36 -37 -33 -35 -36 -36 -39 -38 -39 -39 -39 -38 -35 -35 -36 -36 -36 -35 -36 -36 -35 -36 -35 -36 -36 -35 -33 -35 -29 -28 -25 -27 -32 -37 -39 -40 -35 -35 -35 -33 -33 -32 -30 -27 -25 -26 -26 -23 -14 -6 0 5 6 4 12 18 9 10 7 5 2 0 -4 -5 -4 -3 -2 -1 1 1 1 1 1 1 0 0 1 2 2 2 2 1 2 1 1 2 2 3 8 10 12 12 12 11 12 13 14 15 15 16 15 12 12 13 15 16 16 16 16 15 13 13 12 11 10 13 13 12 12 10 10 10 8 10 14 11 9 12 12 11 11 13 15 14 17 23 28 34 38 39 36 37 34 37 41 42 41 43 44 39 28 24 18 17 18 18 16 14 10 15 12 10 10 6 2 1 -1 -1 3 6 12 12 8 17 14 17 22 10 16 10 2 -4 6 7 12 13 13 13 14 13 12 13 17 17 15 9 3 -1 -3 -3 -4 -5 1 5 3 7 15 20 22 24 23 28 35 37 31 26 23 20 18 17 15 12 11 13 20 25 28 26 25 26 25 20 15 12 12 13 5 -4 -7 -2 0 2 3 2 6 7 4 8 10 5 11 45 67 36 17 14 14 14 17 23 30 36 43 40 35 21 18 16 9 5 7 10 21 31 32 26 25 31 37 43 44 44 43 47 49 48 48 43 33 21 15 10 8 7 7 4 7 10 15 15 20 18 7 3 1 -3 
-15 -15 -14 -15 -16 -18 -20 -21 -22 -23 -25 -28 -31 -33 -33 -31 -28 -26 -25 -26 -29 -30 -30 -29 -31 -32 -33 -35 -36 -38 -37 -36 -36 -32 -38 -40 -40 -42 -38 -34 -30 -26 -27 -28 -30 -32 -31 -30 -30 -29 -29 -31 -32 -32 -32 -35 -35 -34 -35 -32 -32 -32 -30 -32 -32 -31 -32 -36 -36 -36 -35 -37 -37 -36 -36 -37 -37 -35 -37 -37 -32 -33 -34 -33 -34 -37 -37 -38 -38 -38 -37 -37 -36 -36 -36 -36 -36 -36 -35 -36 -36 -35 -34 -34 -37 -35 -35 -33 -31 -30 -29 -33 -38 -41 -37 -35 -33 -31 -33 -32 -30 -29 -28 -28 -29 -28 -20 -12 -4 1 5 6 9 8 8 8 6 4 2 -1 -5 -7 -5 -4 -3 -1 0 1 1 1 1 1 1 1 1 1 3 3 3 2 2 2 2 2 1 0 2 3 10 13 12 12 13 13 14 15 16 16 14 12 11 12 14 15 15 16 16 14 11 10 10 9 9 10 11 11 11 11 9 9 8 10 12 8 6 8 9 9 9 9 12 12 15 21 24 25 30 34 34 39 40 33 28 29 29 36 39 38 29 24 19 23 26 23 17 14 14 11 6 3 3 2 -2 -3 -7 -9 -5 -2 2 3 4 11 17 18 19 13 11 4 1 2 12 17 20 18 16 16 14 14 18 21 26 26 21 13 9 6 2 1 -31 -31 -22 4 5 6 14 18 16 16 16 25 35 36 33 30 28 24 21 17 15 15 15 12 13 19 26 24 18 19 19 15 12 10 10 9 3 -2 -4 -2 2 1 2 3 4 7 8 4 5 3 16 70 71 43 23 11 9 12 17 21 26 34 38 36 36 19 14 15 10 6 10 8 20 31 29 23 24 29 28 30 32 35 41 40 45 46 39 33 29 24 21 14 8 6 5 3 4 6 10 12 19 24 14 4 1 -3 
-16 -13 -12 -12 -14 -16 -18 -19 -19 -21 -23 -26 -29 -31 -31 -29 -26 -25 -24 -27 -33 -37 -37 -35 -34 -34 -34 -34 -36 -36 -35 -35 -33 -31 -37 -40 -41 -41 -39 -35 -31 -29 -29 -30 -31 -31 -30 -28 -28 -27 -28 -29 -30 -32 -34 -36 -37 -39 -35 -35 -33 -32 -32 -32 -30 -30 -31 -36 -36 -35 -35 -36 -37 -39 -39 -37 -37 -37 -37 -37 -36 -34 -35 -27 -33 -36 -36 -37 -36 -37 -37 -37 -35 -36 -36 -36 -34 -34 -35 -35 -35 -34 -34 -34 -37 -37 -35 -34 -33 -32 -32 -32 -34 -38 -36 -35 -34 -33 -34 -31 -31 -29 -29 -29 -30 -28 -24 -16 -8 -2 3 4 5 5 5 5 5 4 3 -1 -5 -6 -6 -5 -3 -1 0 1 1 1 1 1 1 1 1 1 2 2 3 2 2 2 1 1 1 0 0 1 8 11 12 11 12 14 14 14 15 15 14 12 12 12 13 13 13 15 14 14 12 12 13 11 10 9 9 10 10 10 10 10 10 10 9 7 5 9 8 9 9 9 9 9 12 17 19 16 18 31 42 37 31 24 22 24 24 31 30 31 24 19 19 26 29 26 21 17 20 17 13 7 2 -2 11 1 1 1 1 1 -3 0 1 5 7 6 6 6 3 3 4 12 26 27 24 21 19 19 17 17 24 26 25 20 14 12 9 10 5 2 -31 -30 -27 -11 5 9 13 12 11 10 11 16 23 28 31 30 27 25 24 21 22 22 20 15 11 13 24 26 16 14 12 10 9 9 9 4 2 0 -1 -1 1 1 2 3 1 2 4 4 4 7 12 33 27 26 15 6 8 14 24 18 19 35 37 29 29 18 14 13 10 7 6 7 20 29 27 21 25 29 23 22 24 31 38 35 34 37 29 21 20 21 19 14 8 5 5 5 4 6 8 8 13 20 15 7 2 1 
-18 -14 -10 -11 -13 -15 -17 -18 -19 -19 -20 -24 -27 -29 -29 -27 -26 -24 -23 -29 -37 -44 -45 -42 -39 -36 -35 -35 -34 -34 -34 -32 -31 -32 -35 -37 -39 -39 -37 -34 -32 -30 -32 -34 -34 -31 -29 -28 -27 -26 -27 -29 -29 -32 -33 -37 -40 -43 -40 -34 -34 -34 -34 -32 -31 -28 -28 -31 -32 -33 -35 -36 -38 -41 -40 -39 -39 -36 -36 -36 -36 -37 -36 -35 -34 -33 -34 -34 -34 -35 -36 -36 -35 -34 -34 -34 -34 -34 -34 -34 -35 -33 -33 -34 -34 -33 -34 -35 -35 -32 -32 -32 -32 -38 -37 -34 -33 -34 -34 -33 -33 -28 -28 -30 -29 -28 -24 -17 -10 -3 1 2 3 3 3 4 5 4 4 1 -3 -5 -4 -3 -2 -1 0 0 1 1 1 1 1 1 0 1 1 2 2 2 1 2 1 1 1 0 1 3 7 11 11 11 12 13 13 14 14 14 13 13 12 12 12 11 13 14 15 16 15 13 13 12 11 9 11 12 10 10 10 11 12 13 12 11 9 13 11 10 10 9 9 8 9 12 14 14 13 20 31 38 34 25 24 23 22 24 21 21 22 22 26 27 25 25 24 22 22 8 5 3 -5 3 4 7 9 8 7 4 10 1 0 1 3 4 2 0 6 14 18 21 32 37 27 22 20 18 18 20 26 25 19 10 10 10 8 6 5 2 -6 0 -2 -17 -6 10 12 9 10 10 9 10 13 17 19 20 19 19 23 27 25 19 16 12 10 12 15 16 12 12 12 10 11 10 10 7 6 -3 -2 1 1 0 1 2 4 4 4 3 9 11 15 9 14 23 12 5 7 18 33 17 12 24 35 32 20 16 13 12 11 8 7 10 18 24 25 20 24 29 20 17 22 31 35 32 29 25 24 18 11 10 10 10 7 8 12 7 6 6 7 7 9 10 8 12 8 5 
-21 -18 -15 -14 -16 -16 -16 -17 -17 -18 -19 -21 -24 -26 -26 -26 -24 -23 -24 -30 -38 -45 -50 -45 -40 -37 -36 -34 -34 -33 -32 -31 -26 -32 -34 -35 -36 -36 -35 -33 -32 -32 -33 -38 -38 -33 -30 -28 -26 -24 -25 -27 -30 -31 -34 -39 -42 -44 -42 -34 -34 -34 -35 -34 -33 -25 -27 -29 -31 -32 -35 -35 -35 -40 -40 -40 -38 -36 -36 -36 -36 -36 -36 -35 -34 -33 -32 -33 -30 -33 -34 -34 -35 -34 -32 -31 -28 -32 -33 -34 -34 -34 -33 -33 -34 -33 -37 -38 -35 -32 -32 -32 -32 -35 -38 -35 -34 -34 -33 -33 -33 -28 -28 -30 -30 -28 -24 -19 -13 -6 -2 1 1 2 3 3 4 3 3 1 -2 -3 -3 -3 -2 -1 -1 0 1 1 1 1 1 1 0 1 1 2 2 1 1 1 1 1 1 1 1 3 4 10 12 12 14 14 13 13 13 12 13 15 12 12 12 13 13 14 14 15 14 13 12 12 11 10 11 12 10 11 12 13 14 15 14 11 12 15 14 13 11 8 10 10 10 10 9 10 13 20 29 33 29 23 23 22 25 20 17 23 24 26 29 25 21 16 9 14 14 7 2 1 2 8 10 11 11 10 9 9 7 3 0 10 -2 -1 6 3 13 23 23 22 28 33 30 29 26 21 16 17 20 19 17 11 11 12 10 8 8 5 2 -5 -1 -19 -17 -5 6 4 3 8 9 9 10 12 12 12 11 11 14 19 20 17 17 16 13 12 11 11 13 14 14 13 14 12 4 2 2 -2 0 1 1 0 1 2 2 1 2 1 4 7 10 11 11 10 6 4 6 12 20 15 12 15 23 23 18 14 13 12 11 11 8 10 11 16 17 18 21 27 21 17 20 29 29 29 29 24 21 19 11 8 6 6 6 7 14 11 11 7 6 5 6 8 9 14 10 5 
-24 -23 -21 -21 -19 -18 -17 -17 -16 -15 -17 -19 -21 -22 -23 -24 -24 -23 -24 -28 -35 -44 -46 -43 -40 -37 -35 -34 -33 -32 -31 -30 -31 -33 -34 -35 -34 -33 -32 -32 -32 -33 -35 -38 -38 -35 -32 -28 -26 -24 -25 -28 -30 -31 -35 -39 -44 -44 -43 -40 -39 -38 -37 -34 -33 -29 -27 -28 -30 -32 -33 -35 -35 -39 -38 -38 -36 -35 -34 -34 -35 -35 -35 -36 -34 -31 -28 -25 -19 -25 -32 -34 -33 -34 -34 -33 -32 -33 -32 -34 -34 -33 -34 -34 -34 -35 -38 -38 -36 -35 -34 -33 -31 -32 -36 -35 -36 -35 -34 -33 -34 -30 -30 -30 -32 -33 -26 -20 -15 -8 -4 -3 -1 0 0 1 0 1 1 0 -1 -3 -3 -2 -1 -2 -1 0 1 1 1 1 1 1 1 1 1 1 1 1 1 0 0 0 1 1 1 2 3 8 12 13 14 15 13 14 13 13 13 14 12 12 13 14 14 13 13 14 14 14 14 12 13 12 12 12 11 10 10 11 12 13 13 8 13 15 14 14 12 10 9 10 13 14 11 9 15 23 26 25 25 26 25 24 25 22 22 27 28 26 25 20 16 11 6 7 4 2 1 3 8 17 17 14 12 11 12 12 10 3 2 1 2 2 3 8 15 26 29 26 25 31 32 33 30 23 18 19 20 18 19 16 16 16 13 10 9 7 3 -3 -4 -8 -22 -19 -3 6 8 4 6 5 7 9 9 8 8 9 10 15 15 14 15 14 14 15 14 11 11 14 14 12 13 10 3 0 1 -3 1 2 1 1 1 1 2 0 1 -1 1 5 5 5 7 4 4 4 4 5 10 12 13 19 26 26 27 23 18 13 12 11 10 9 8 10 13 15 17 21 25 18 15 20 22 26 31 26 20 18 15 11 9 7 5 6 16 17 16 11 5 4 4 7 9 9 7 4 
-28 -28 -27 -29 -25 -20 -18 -16 -15 -14 -14 -16 -18 -20 -20 -21 -23 -24 -23 -24 -33 -40 -40 -39 -37 -34 -34 -32 -31 -31 -30 -30 -32 -35 -35 -34 -32 -31 -30 -29 -30 -31 -34 -36 -37 -37 -34 -30 -25 -21 -25 -28 -29 -32 -33 -37 -41 -43 -41 -40 -39 -40 -39 -35 -33 -29 -29 -30 -31 -31 -33 -34 -36 -37 -36 -34 -34 -35 -34 -34 -35 -35 -35 -35 -35 -31 -27 -23 -19 -23 -34 -34 -32 -32 -32 -33 -33 -33 -31 -31 -32 -33 -34 -34 -33 -35 -36 -33 -36 -36 -35 -33 -31 -31 -31 -33 -34 -37 -36 -35 -35 -30 -31 -30 -32 -33 -28 -23 -17 -11 -7 -5 -4 -2 -3 -3 -1 -1 -1 -2 -2 -2 -2 -2 -2 -2 -1 0 1 1 2 1 0 0 0 0 0 0 0 1 0 0 0 0 -1 0 1 2 4 4 9 12 14 15 14 14 14 13 13 14 13 13 13 14 14 13 13 15 15 15 14 12 12 12 14 14 12 10 9 10 11 13 13 7 11 14 12 14 16 14 10 11 15 19 16 15 17 21 19 20 24 35 32 24 21 25 27 28 27 22 19 15 14 9 4 2 -2 3 5 9 15 22 19 16 13 13 14 14 10 3 2 1 5 7 8 15 19 23 30 31 29 33 33 34 30 24 25 24 24 19 17 18 21 19 14 11 9 13 8 1 -3 1 -7 -18 -6 6 10 3 4 4 7 8 7 6 6 7 9 14 14 13 13 12 11 12 12 9 10 14 11 8 8 6 3 -2 -2 -2 0 1 -1 -1 -1 1 2 2 2 2 1 2 2 2 2 2 3 3 4 4 5 10 12 21 32 34 31 26 19 13 11 10 11 10 9 11 17 21 22 24 28 18 10 12 19 27 33 32 26 20 15 12 9 6 5 6 12 14 16 13 7 4 4 5 5 4 5 3 
-32 -34 -37 -39 -30 -22 -19 -17 -14 -12 -12 -14 -15 -15 -16 -21 -25 -28 -28 -27 -30 -33 -34 -34 -32 -32 -32 -31 -31 -30 -29 -28 -30 -33 -33 -30 -29 -28 -27 -28 -28 -30 -31 -34 -38 -40 -38 -33 -28 -24 -25 -28 -30 -31 -31 -32 -36 -37 -37 -39 -40 -40 -40 -37 -33 -30 -30 -31 -32 -32 -33 -34 -33 -33 -33 -34 -34 -34 -34 -33 -34 -35 -34 -34 -35 -31 -27 -26 -27 -30 -32 -32 -31 -29 -32 -32 -32 -32 -32 -31 -32 -33 -35 -33 -32 -33 -33 -33 -36 -37 -36 -35 -33 -30 -30 -29 -30 -31 -31 -35 -34 -31 -31 -31 -32 -33 -33 -26 -21 -16 -11 -9 -7 -6 -6 -5 -6 -4 -5 -4 -3 -2 -3 -2 -2 -2 -1 -1 0 0 1 0 1 1 1 1 1 0 0 0 0 0 0 -1 -1 -2 0 1 4 7 7 10 13 13 12 13 12 12 13 14 13 12 12 14 14 14 14 16 16 14 14 12 10 11 13 13 13 11 9 11 12 14 14 5 7 14 12 15 16 15 14 15 19 21 23 26 25 21 18 23 27 34 33 24 19 21 23 19 18 18 19 16 12 4 1 2 4 10 15 16 17 23 19 15 12 13 13 12 9 5 1 2 6 10 12 20 25 23 27 31 30 32 34 32 27 28 30 25 20 16 17 20 22 19 15 13 13 19 11 2 -1 2 2 -1 2 2 1 1 2 3 5 7 6 2 1 2 3 9 11 10 12 12 6 4 4 2 2 3 2 2 2 1 1 -3 -3 -2 -1 -2 -3 -2 -4 2 4 5 7 8 5 2 2 1 2 1 2 2 6 5 5 8 10 18 30 39 36 28 20 12 10 11 13 12 11 14 21 27 25 26 28 23 11 10 22 28 29 30 27 21 17 14 7 5 5 5 8 9 12 11 7 4 4 2 3 4 3 2 
-34 -37 -41 -37 -28 -22 -18 -16 -15 -13 -12 -12 -13 -13 -17 -22 -27 -33 -32 -29 -27 -25 -28 -28 -29 -29 -30 -30 -30 -31 -31 -31 -32 -33 -32 -29 -27 -24 -25 -27 -29 -28 -29 -34 -39 -43 -41 -36 -31 -27 -28 -29 -29 -30 -29 -29 -30 -30 -31 -34 -37 -39 -41 -38 -33 -31 -30 -31 -32 -33 -33 -33 -31 -29 -31 -31 -32 -34 -34 -32 -32 -33 -33 -34 -34 -31 -29 -29 -30 -32 -32 -31 -32 -30 -29 -33 -31 -31 -31 -32 -34 -32 -33 -32 -32 -33 -33 -33 -35 -37 -38 -38 -34 -29 -24 -23 -26 -29 -29 -31 -34 -31 -32 -30 -31 -31 -33 -29 -24 -20 -15 -13 -12 -11 -10 -9 -9 -10 -8 -6 -6 -4 -3 -2 -2 -2 -3 -1 -2 -1 0 0 1 1 2 1 1 0 0 0 1 1 -1 -1 -1 -2 -1 1 3 8 4 8 12 12 11 13 13 13 14 14 13 12 12 13 14 14 14 16 16 14 12 10 8 8 10 12 14 13 12 13 11 14 13 5 7 11 12 13 15 15 16 21 24 24 25 30 33 30 21 26 31 28 25 25 26 24 21 17 20 18 20 16 8 2 2 9 10 13 18 19 21 25 20 15 13 13 11 9 7 2 2 6 9 11 12 21 27 28 33 39 35 34 32 27 27 31 29 22 21 20 20 20 18 16 19 19 18 15 7 10 1 5 8 8 3 -1 -19 -21 -7 -6 -5 3 2 1 1 5 5 5 4 2 4 8 10 11 10 4 3 2 -1 -2 -3 -3 -4 -5 -4 -2 -1 -5 -6 1 1 5 16 18 15 18 14 12 10 4 2 0 1 1 5 5 6 7 9 15 23 35 33 27 18 11 7 10 11 11 12 18 23 28 23 20 22 22 13 13 26 31 24 21 17 13 10 8 6 6 6 7 8 9 10 11 8 5 3 -1 1 2 1 -1 
-32 -34 -28 -29 -25 -20 -19 -17 -15 -15 -14 -14 -17 -17 -19 -23 -27 -30 -30 -27 -24 -22 -24 -24 -27 -28 -29 -30 -31 -33 -34 -34 -35 -35 -33 -29 -25 -22 -23 -27 -29 -30 -30 -35 -39 -41 -32 -33 -33 -31 -30 -30 -30 -30 -28 -27 -25 -25 -27 -30 -33 -38 -40 -37 -34 -31 -30 -32 -32 -33 -33 -32 -30 -27 -29 -30 -31 -31 -32 -32 -32 -32 -33 -34 -34 -34 -34 -34 -33 -33 -33 -32 -32 -34 -34 -31 -29 -32 -30 -31 -32 -32 -30 -29 -30 -31 -31 -32 -33 -35 -36 -37 -35 -32 -27 -25 -27 -27 -28 -29 -28 -31 -36 -32 -31 -32 -33 -33 -27 -24 -20 -19 -16 -15 -14 -13 -13 -13 -12 -10 -8 -5 -4 -2 -1 -3 -3 -3 -2 -2 -1 0 1 2 2 2 1 1 1 1 0 0 0 -1 -2 -3 -3 1 4 6 2 10 15 13 13 14 14 13 15 15 15 14 12 12 13 12 13 15 16 13 12 11 10 7 6 10 14 14 14 15 11 9 6 7 12 11 9 9 13 18 22 29 37 32 29 34 32 28 25 29 31 26 27 36 37 35 31 26 25 21 18 7 1 4 12 13 13 16 16 18 22 25 21 17 13 11 10 9 6 2 5 8 10 14 15 16 18 30 48 57 49 46 35 28 30 32 27 28 25 24 21 19 17 17 24 22 18 12 5 5 5 6 10 9 -11 -3 -7 -1 -8 1 1 1 -5 -6 3 17 24 21 15 6 2 1 3 4 3 3 2 1 1 1 -5 -6 -6 -5 -2 1 1 2 1 5 7 12 21 21 20 24 21 18 20 17 6 1 0 2 3 4 7 6 6 10 17 27 23 21 14 7 5 7 10 11 14 19 18 17 14 10 10 10 12 19 28 31 28 26 20 14 8 7 7 8 7 7 8 9 9 11 8 5 8 -2 -1 0 1 -3 
-29 -31 -28 -22 -20 -20 -20 -19 -18 -17 -17 -19 -22 -22 -23 -25 -26 -26 -26 -23 -20 -19 -21 -24 -26 -29 -31 -31 -32 -33 -38 -38 -39 -39 -35 -30 -23 -20 -22 -25 -31 -35 -36 -39 -40 -41 -32 -34 -35 -35 -33 -33 -33 -30 -28 -24 -20 -18 -21 -25 -31 -35 -39 -37 -34 -30 -31 -32 -32 -32 -32 -30 -28 -27 -27 -29 -31 -32 -33 -33 -33 -33 -33 -33 -34 -34 -34 -34 -33 -34 -34 -33 -32 -34 -33 -30 -29 -30 -29 -30 -30 -30 -30 -29 -30 -30 -30 -32 -31 -31 -34 -35 -38 -38 -30 -28 -28 -28 -28 -28 -28 -33 -37 -34 -32 -32 -34 -34 -32 -28 -25 -24 -22 -20 -18 -17 -16 -15 -14 -12 -10 -7 -4 -1 -2 -3 -4 -4 -4 -3 -2 0 1 2 3 2 2 1 0 0 0 0 0 -2 -3 -4 -3 0 4 7 2 8 14 14 14 14 13 12 13 14 14 14 12 12 13 14 13 13 13 13 12 11 10 11 11 10 12 16 16 15 11 7 5 12 15 14 10 9 12 17 24 35 41 38 37 34 30 30 31 32 27 22 25 29 32 28 23 24 24 17 15 10 4 8 20 26 19 20 21 19 20 22 18 14 11 9 8 8 5 5 9 10 10 18 24 20 17 33 47 53 55 50 36 32 33 34 34 37 32 25 20 18 19 21 24 20 13 5 3 10 10 9 10 11 5 2 8 3 2 7 10 3 -5 -4 2 5 8 22 27 16 7 2 2 4 5 4 5 4 3 1 -3 -4 -8 -8 -3 1 6 13 5 5 13 20 22 23 27 26 24 25 27 26 20 8 2 1 2 3 6 5 5 10 19 18 13 11 8 5 4 6 8 9 11 11 10 10 10 7 6 9 20 28 28 26 23 19 18 19 16 16 18 18 13 9 8 8 10 11 7 4 1 -4 -1 0 0 -2 
-26 -27 -25 -22 -21 -22 -22 -22 -22 -21 -22 -26 -29 -30 -29 -27 -24 -22 -21 -18 -18 -17 -20 -23 -27 -31 -32 -32 -33 -33 -37 -39 -41 -43 -38 -32 -24 -19 -21 -27 -33 -40 -43 -42 -42 -40 -39 -35 -35 -35 -35 -36 -36 -31 -26 -22 -17 -14 -16 -21 -27 -32 -36 -36 -33 -30 -30 -30 -30 -31 -32 -30 -30 -28 -28 -29 -31 -32 -33 -33 -33 -33 -33 -34 -34 -34 -34 -34 -34 -34 -33 -33 -32 -31 -32 -30 -30 -28 -28 -29 -31 -28 -30 -29 -30 -30 -30 -32 -31 -31 -33 -33 -36 -38 -32 -33 -32 -28 -28 -28 -29 -36 -32 -33 -33 -33 -36 -33 -32 -33 -33 -33 -28 -24 -23 -21 -20 -18 -16 -15 -14 -9 -5 0 -2 -5 -6 -6 -5 -4 -3 -1 1 2 3 3 2 1 1 0 0 0 -1 -2 -4 -4 -2 0 3 8 1 6 12 14 13 13 14 13 13 12 12 12 13 14 15 15 14 13 12 13 10 11 12 13 11 6 4 10 17 13 7 5 6 14 17 15 10 9 12 15 24 43 49 45 37 33 27 29 26 26 23 21 26 27 25 21 16 19 19 8 8 5 6 21 35 41 31 28 25 20 15 16 14 11 10 9 7 5 6 10 12 11 11 18 26 30 28 29 34 42 53 52 45 43 40 40 44 41 34 26 19 17 20 21 22 16 6 5 8 13 13 11 10 9 10 9 8 6 9 17 19 5 -1 -14 -4 2 5 11 17 15 13 7 5 6 11 9 18 16 11 5 1 1 -13 -10 -4 0 4 18 6 9 19 22 24 28 31 29 25 25 26 25 18 12 3 0 2 2 3 3 4 9 12 9 8 7 6 4 6 11 11 9 7 6 9 9 10 10 9 9 13 19 26 25 25 23 24 26 23 19 19 17 14 11 9 8 9 10 6 3 1 -3 -2 0 -1 -1 
-24 -23 -23 -23 -24 -24 -24 -25 -25 -26 -27 -32 -35 -39 -34 -27 -22 -19 -16 -15 -15 -16 -19 -22 -27 -30 -31 -32 -33 -33 -33 -38 -40 -41 -40 -32 -24 -17 -20 -26 -36 -45 -48 -44 -41 -39 -37 -35 -34 -35 -36 -35 -34 -30 -25 -21 -16 -11 -12 -17 -23 -28 -32 -34 -31 -28 -29 -28 -29 -29 -30 -31 -31 -28 -29 -30 -31 -32 -33 -33 -34 -34 -33 -33 -34 -34 -34 -34 -33 -33 -33 -33 -33 -32 -31 -30 -29 -29 -28 -29 -30 -31 -29 -28 -29 -31 -31 -34 -40 -31 -31 -32 -32 -31 -36 -37 -36 -36 -30 -27 -27 -32 -26 -27 -34 -32 -35 -33 -33 -34 -34 -32 -32 -28 -26 -25 -22 -21 -20 -19 -18 -14 -9 -5 -6 -8 -9 -7 -6 -5 -3 -2 0 2 3 2 2 1 1 0 0 0 -1 -2 -3 -4 -3 -1 4 7 1 5 9 14 12 13 13 15 14 14 14 15 15 15 16 16 16 15 13 12 11 13 14 14 12 8 2 2 12 6 7 5 8 15 14 12 10 10 13 17 24 37 51 54 40 27 22 24 19 22 23 23 29 30 25 21 18 16 14 10 4 4 9 24 39 50 42 34 28 23 16 11 8 12 9 6 4 5 13 15 13 12 12 16 23 34 40 34 30 35 48 46 42 46 43 40 42 38 32 31 23 15 14 17 20 11 4 8 12 15 17 14 11 11 15 14 8 6 13 24 20 5 9 -1 -6 1 3 3 4 3 6 7 7 10 11 10 18 22 19 6 1 -2 -9 -10 -5 1 2 7 3 9 15 14 16 23 28 26 20 19 17 14 9 4 1 1 -2 2 2 5 3 6 4 3 5 7 7 4 5 11 16 16 7 6 10 10 11 13 13 15 20 26 33 25 21 19 21 21 17 13 12 11 10 10 10 8 8 9 6 4 3 -3 -2 0 0 -1 
-22 -22 -22 -24 -26 -26 -26 -25 -27 -30 -33 -37 -39 -40 -34 -28 -20 -17 -14 -14 -14 -15 -18 -22 -26 -28 -30 -28 -29 -30 -31 -35 -38 -39 -38 -33 -25 -20 -19 -26 -33 -40 -42 -41 -38 -35 -34 -32 -32 -33 -33 -34 -33 -31 -28 -25 -20 -13 -10 -14 -19 -24 -28 -31 -30 -27 -26 -27 -27 -28 -29 -28 -29 -28 -29 -31 -31 -30 -30 -32 -35 -36 -34 -33 -34 -33 -33 -33 -33 -33 -33 -33 -31 -31 -31 -31 -31 -30 -29 -30 -30 -30 -31 -30 -27 -29 -34 -40 -35 -32 -31 -32 -31 -28 -33 -36 -36 -34 -33 -32 -33 -32 -32 -32 -32 -27 -30 -33 -33 -32 -33 -33 -33 -31 -29 -26 -25 -24 -23 -24 -24 -19 -14 -11 -9 -9 -8 -6 -6 -5 -4 -2 0 0 1 1 1 1 1 0 0 -1 -1 -2 -3 -3 -3 0 2 4 4 2 7 12 12 12 13 15 15 15 16 16 17 16 16 17 17 17 14 13 15 15 14 13 13 13 5 1 3 2 2 3 10 14 11 10 12 12 14 18 22 26 41 47 37 23 20 21 17 21 26 25 26 24 23 23 22 10 5 4 2 10 17 24 34 41 46 36 28 22 18 11 8 18 17 12 7 9 19 18 17 17 15 17 27 33 42 44 40 39 45 40 37 37 37 34 32 27 23 24 18 9 5 5 7 5 8 12 14 15 18 16 13 13 17 13 6 7 12 19 15 7 2 1 2 1 -7 -3 -1 -1 1 2 6 16 19 6 5 12 12 5 1 -4 -8 -12 -11 -10 -5 1 1 2 4 10 19 26 27 20 13 12 6 3 3 2 1 -1 -4 -2 1 3 1 2 4 7 5 4 6 4 5 8 12 12 6 6 10 15 17 15 17 24 42 53 63 49 19 11 13 13 10 9 9 10 9 8 7 7 8 9 7 5 6 -3 -3 -2 0 -1 
-20 -21 -22 -24 -25 -26 -27 -29 -31 -34 -37 -41 -42 -42 -35 -29 -23 -19 -16 -15 -15 -15 -19 -21 -26 -28 -28 -19 -19 -25 -28 -32 -36 -39 -38 -34 -29 -25 -24 -26 -31 -34 -36 -35 -33 -31 -29 -27 -28 -29 -31 -32 -34 -33 -33 -33 -28 -23 -17 -15 -17 -20 -25 -27 -28 -26 -26 -26 -26 -26 -27 -28 -27 -29 -30 -31 -31 -29 -27 -29 -33 -33 -33 -33 -32 -32 -32 -32 -32 -33 -32 -31 -32 -32 -32 -32 -32 -30 -30 -30 -29 -30 -29 -29 -29 -26 -25 -32 -31 -27 -31 -32 -35 -41 -43 -39 -34 -27 -27 -36 -34 -32 -32 -33 -33 -33 -32 -34 -32 -32 -29 -28 -32 -33 -30 -28 -28 -26 -25 -25 -24 -21 -17 -14 -11 -9 -6 -6 -6 -6 -5 -4 -2 0 1 1 1 1 1 0 0 0 -1 -2 -2 -3 -2 -2 0 1 1 1 8 11 12 13 14 16 17 17 17 17 17 17 17 16 17 17 15 15 16 15 16 15 17 16 12 9 9 7 4 2 8 10 11 13 13 13 13 14 17 24 29 33 31 26 23 22 18 18 21 19 20 20 22 22 19 7 1 -4 -6 12 20 23 26 34 40 30 24 20 19 18 14 20 22 17 8 7 18 21 24 29 26 21 32 38 26 45 50 43 45 43 38 33 31 29 22 18 15 13 13 11 5 1 3 12 21 18 15 17 19 16 14 13 12 10 11 14 15 16 13 8 6 2 1 -2 -6 -5 -3 1 1 -1 -4 -1 11 5 3 1 -3 -5 -2 -4 -9 -15 -15 -14 -9 -4 0 1 6 16 24 25 23 23 13 4 3 5 10 10 3 -1 -6 -6 -2 1 1 6 22 23 12 7 6 6 7 6 5 5 4 6 11 19 19 23 19 34 54 63 78 79 30 13 12 11 9 8 8 10 8 7 8 7 8 9 8 5 6 -2 -2 -3 -1 -1 
-19 -20 -21 -23 -24 -25 -28 -31 -34 -37 -41 -43 -45 -43 -36 -30 -26 -22 -18 -16 -15 -15 -18 -22 -26 -29 -32 -27 -27 -23 -26 -31 -34 -37 -38 -36 -33 -30 -27 -28 -28 -29 -30 -29 -27 -26 -24 -24 -23 -26 -29 -32 -34 -35 -36 -37 -36 -33 -26 -16 -15 -15 -25 -27 -27 -25 -24 -24 -24 -25 -25 -26 -27 -28 -29 -31 -31 -30 -28 -29 -31 -31 -32 -32 -31 -32 -32 -32 -33 -32 -32 -32 -31 -32 -31 -32 -31 -30 -30 -29 -30 -29 -28 -26 -25 -25 -23 -30 -31 -31 -31 -31 -34 -48 -48 -40 -35 -34 -43 -44 -37 -30 -33 -35 -36 -33 -32 -33 -32 -33 -36 -35 -34 -33 -33 -30 -29 -27 -27 -25 -24 -22 -20 -16 -14 -10 -5 -6 -7 -6 -5 -4 -3 -1 0 0 0 0 0 0 0 0 0 -2 -2 -2 -2 -2 -2 -1 0 1 9 10 11 11 12 14 16 16 17 17 16 15 15 14 14 16 15 15 15 14 14 15 15 13 10 13 16 5 6 5 7 11 12 14 14 14 12 10 13 22 29 37 38 33 26 20 14 15 16 14 17 18 22 20 16 10 3 -9 3 15 27 27 25 30 34 31 28 24 21 26 20 17 18 15 9 7 12 20 28 30 24 23 41 46 36 50 52 45 41 37 35 33 31 28 21 16 15 17 19 16 9 6 12 17 22 21 17 19 21 21 20 16 10 13 15 16 17 21 15 8 7 3 2 -6 -3 -5 -7 -7 -7 -7 -21 -6 2 2 4 -4 -16 -8 0 -6 -15 -19 -20 -17 -12 -7 -4 0 5 13 9 4 4 4 3 2 5 7 11 9 7 -3 -10 -8 -4 1 2 11 26 28 14 6 6 6 5 6 4 3 5 7 10 14 17 27 21 32 38 40 48 50 28 20 20 16 9 7 9 11 9 10 16 10 6 8 8 5 2 -2 -2 -3 -4 -4 
-18 -19 -21 -22 -23 -25 -28 -30 -34 -38 -42 -44 -42 -40 -31 -31 -31 -32 -23 -19 -16 -16 -19 -22 -25 -29 -31 -29 -29 -25 -27 -30 -33 -36 -37 -38 -36 -33 -30 -28 -26 -25 -24 -23 -23 -22 -21 -21 -23 -25 -30 -33 -35 -37 -38 -39 -38 -37 -34 -22 -15 -21 -27 -29 -28 -24 -22 -22 -22 -24 -24 -25 -27 -28 -29 -31 -31 -30 -30 -30 -30 -31 -31 -31 -31 -31 -32 -32 -33 -32 -31 -31 -31 -31 -32 -32 -31 -30 -30 -30 -30 -30 -26 -19 -19 -19 -26 -29 -31 -31 -30 -31 -31 -35 -36 -38 -36 -38 -44 -44 -38 -35 -26 -31 -32 -32 -31 -32 -31 -31 -34 -35 -35 -34 -31 -31 -33 -33 -28 -27 -25 -24 -22 -21 -18 -16 -12 -11 -9 -8 -7 -6 -4 -2 -1 -1 -1 0 0 0 0 0 0 0 -2 -2 -2 -2 -2 -3 -1 1 4 9 10 10 11 13 14 14 16 17 15 14 15 14 13 15 14 14 13 12 13 14 13 12 13 17 18 4 2 3 10 15 14 14 13 13 12 10 11 16 29 44 49 36 20 15 15 15 15 15 20 23 23 19 9 6 3 -8 2 16 30 31 28 32 33 31 29 23 20 22 20 17 14 12 12 11 8 18 26 28 22 25 38 45 44 49 46 43 37 41 43 45 42 32 25 22 23 25 22 17 13 12 19 20 22 23 19 19 20 18 16 13 11 18 20 21 24 23 17 10 9 8 10 6 4 5 -10 -17 -21 -14 -25 -6 0 1 4 5 1 1 7 2 -19 -22 -31 -23 -15 -11 -8 -3 4 7 8 4 3 5 10 13 10 6 8 5 3 -5 -13 -12 -5 2 3 11 19 21 14 8 5 5 5 5 4 3 6 7 7 11 16 24 28 43 34 26 28 28 26 25 23 19 13 9 12 12 11 12 15 9 5 6 6 5 4 7 -4 -5 -6 -6 
-17 -18 -20 -21 -23 -24 -27 -29 -34 -37 -43 -41 -39 -36 -31 -31 -31 -32 -24 -20 -19 -17 -18 -20 -23 -26 -29 -27 -25 -24 -26 -28 -31 -33 -36 -36 -38 -36 -32 -28 -25 -22 -18 -19 -20 -19 -19 -21 -24 -28 -32 -34 -35 -37 -38 -37 -37 -38 -34 -26 -24 -34 -34 -27 -22 -20 -19 -22 -22 -23 -24 -24 -26 -27 -30 -32 -33 -32 -30 -30 -30 -29 -30 -30 -31 -32 -32 -33 -33 -33 -31 -31 -31 -31 -32 -32 -31 -30 -30 -30 -30 -30 -28 -25 -20 -19 -25 -29 -29 -29 -28 -29 -33 -36 -36 -36 -35 -39 -41 -40 -39 -38 -26 -22 -22 -29 -30 -31 -28 -25 -34 -34 -35 -36 -28 -30 -26 -31 -28 -29 -28 -25 -25 -24 -22 -22 -19 -16 -13 -10 -9 -8 -6 -4 -2 -1 -1 0 0 0 0 0 0 0 -1 -2 -2 -2 -2 -3 0 3 5 8 7 9 10 12 12 12 14 16 16 15 15 14 14 15 15 13 14 13 13 14 15 16 17 19 18 4 -5 2 11 17 14 14 14 12 11 11 11 17 29 43 43 31 20 13 12 13 14 15 17 19 18 18 12 6 -2 -7 5 15 27 32 27 26 24 20 20 21 20 19 18 16 13 15 18 15 9 16 23 26 24 25 36 41 38 40 45 45 42 50 50 57 53 37 31 37 39 38 33 26 19 17 17 19 20 23 24 23 21 16 13 11 18 24 23 24 24 21 15 11 21 17 11 9 8 4 1 -5 -17 -24 -18 -9 1 4 13 20 18 9 5 4 1 -4 -30 -29 -19 -16 -12 -8 -2 2 4 3 4 9 11 12 8 3 3 2 2 -8 -11 -16 -11 5 7 12 13 14 20 15 7 5 4 4 5 3 5 5 4 6 14 21 25 38 32 26 29 27 22 20 20 20 15 11 15 16 16 15 12 7 5 5 5 5 4 5 -4 -8 -9 -6 
-16 -17 -18 -20 -22 -23 -25 -28 -31 -34 -38 -37 -34 -32 -31 -29 -28 -26 -24 -21 -19 -18 -17 -19 -20 -19 -19 -22 -22 -23 -24 -27 -29 -29 -29 -30 -32 -32 -31 -28 -24 -21 -20 -20 -20 -20 -20 -22 -28 -34 -36 -37 -35 -35 -34 -33 -32 -32 -32 -30 -29 -30 -29 -25 -16 -17 -18 -20 -21 -22 -23 -25 -26 -28 -30 -33 -35 -35 -34 -30 -31 -30 -30 -30 -30 -30 -31 -32 -32 -33 -32 -31 -31 -30 -30 -31 -31 -30 -30 -30 -29 -29 -29 -29 -25 -25 -25 -27 -28 -29 -29 -31 -35 -36 -36 -36 -35 -34 -34 -38 -39 -39 -35 -31 -29 -27 -28 -28 -26 -28 -36 -35 -36 -35 -33 -35 -19 -28 -33 -33 -31 -29 -27 -26 -25 -25 -23 -20 -17 -15 -13 -11 -9 -6 -4 -2 -1 0 0 0 0 0 0 0 0 -1 -1 -1 -1 -1 0 2 2 2 2 7 11 12 12 12 13 15 16 16 15 15 14 15 15 14 14 14 16 14 16 16 15 17 17 4 -1 2 13 17 13 11 12 12 12 12 15 17 23 31 31 29 25 17 12 12 13 13 13 13 13 7 8 2 1 1 8 6 7 16 16 15 15 18 20 22 22 18 15 14 16 18 21 16 11 15 21 27 28 22 32 41 37 39 51 50 49 55 58 63 57 41 38 50 53 47 37 30 27 23 16 18 22 22 24 24 23 21 16 14 19 21 21 21 21 19 13 11 24 17 10 9 10 10 7 3 -3 -3 2 2 3 6 13 24 23 12 7 7 4 3 -15 -20 -20 -19 -18 -13 -8 1 1 2 4 5 5 6 3 2 -1 -3 -8 -9 -11 -24 1 14 17 15 11 9 19 14 9 6 4 4 4 4 7 7 5 6 10 15 17 34 38 25 24 34 31 20 16 17 15 12 16 15 15 13 9 7 5 4 4 5 5 2 -4 -7 -8 -7 
-15 -16 -17 -18 -21 -22 -24 -27 -28 -31 -31 -32 -31 -30 -29 -28 -27 -25 -24 -23 -22 -20 -18 -18 -18 -16 -16 -17 -18 -20 -23 -27 -29 -26 -21 -25 -28 -29 -28 -26 -25 -23 -26 -25 -23 -23 -23 -24 -32 -41 -42 -38 -35 -33 -30 -28 -29 -29 -31 -32 -33 -34 -34 -28 -21 -19 -20 -20 -21 -22 -24 -25 -26 -29 -32 -34 -37 -40 -39 -34 -32 -31 -30 -30 -30 -29 -30 -30 -31 -33 -32 -30 -30 -30 -29 -29 -30 -32 -31 -30 -29 -29 -29 -29 -27 -26 -27 -28 -29 -29 -30 -31 -31 -38 -37 -36 -34 -34 -36 -37 -38 -39 -34 -31 -28 -25 -25 -24 -24 -24 -28 -34 -35 -36 -35 -36 -29 -27 -32 -33 -33 -31 -29 -28 -27 -27 -25 -23 -21 -19 -17 -14 -12 -9 -6 -4 -1 0 0 0 0 0 0 0 0 0 -1 0 0 2 1 1 1 1 1 7 10 11 11 11 13 14 15 15 15 15 14 15 16 14 15 15 14 13 14 13 13 13 12 5 2 1 10 14 12 10 13 13 13 16 22 19 18 23 24 23 25 23 16 14 13 12 13 14 11 3 2 0 1 1 5 2 1 5 7 8 14 18 22 25 24 19 14 14 14 18 22 15 14 18 23 27 29 24 27 33 36 43 52 49 54 61 65 61 49 41 44 50 52 47 38 35 34 29 18 19 26 23 21 24 26 22 17 16 21 19 16 16 17 16 16 13 13 14 14 13 17 21 19 11 6 4 5 5 7 9 12 20 23 14 7 10 10 9 -12 -19 -22 -23 -23 -20 -16 -12 -7 1 2 2 1 -1 -2 -3 -3 -6 -8 -5 2 6 14 27 20 14 11 8 11 9 8 7 5 4 5 7 8 11 14 15 15 22 20 25 31 21 15 24 33 21 11 11 13 11 15 10 8 7 6 6 7 5 5 5 5 3 10 -5 -7 -5 
-14 -15 -16 -17 -20 -21 -23 -24 -25 -26 -27 -26 -27 -26 -26 -25 -25 -25 -25 -26 -29 -23 -21 -19 -17 -10 -10 -13 -15 -18 -22 -27 -32 -27 -23 -24 -26 -26 -26 -26 -26 -27 -32 -28 -26 -25 -25 -28 -33 -39 -39 -37 -34 -30 -28 -25 -22 -22 -31 -32 -35 -37 -37 -34 -26 -22 -21 -22 -22 -23 -24 -25 -27 -29 -32 -36 -40 -41 -40 -37 -34 -31 -30 -29 -30 -30 -29 -29 -31 -31 -31 -30 -29 -28 -29 -28 -29 -31 -31 -31 -29 -28 -28 -28 -27 -27 -27 -27 -28 -30 -30 -30 -30 -30 -36 -37 -36 -37 -37 -36 -36 -34 -32 -31 -24 -22 -27 -23 -22 -22 -24 -30 -34 -36 -37 -35 -37 -38 -32 -34 -33 -32 -30 -29 -29 -28 -27 -25 -24 -22 -19 -16 -14 -11 -8 -6 -2 0 0 1 1 1 1 0 1 0 0 0 2 2 2 2 2 3 8 9 8 8 9 11 12 13 13 14 14 14 14 16 17 15 15 16 14 12 13 14 17 18 17 17 5 1 6 9 9 12 13 13 14 16 23 22 18 18 18 16 18 24 23 17 12 11 11 10 8 4 3 1 1 1 1 -1 3 3 7 11 15 16 21 27 27 21 17 14 14 18 22 17 17 20 23 25 31 34 28 31 35 40 46 51 60 67 61 60 54 47 48 49 45 48 46 41 36 29 23 22 27 25 19 18 20 18 19 23 22 20 17 13 11 11 15 17 16 16 16 16 21 21 16 13 11 11 14 13 12 11 12 14 17 10 7 13 14 2 -19 -17 -25 -25 -32 -32 -23 -18 -13 -8 -6 -6 -6 -6 -7 -7 -6 -5 -7 -3 10 46 96 68 26 13 9 7 8 8 7 7 6 5 7 10 8 11 19 22 25 19 19 20 21 19 11 11 22 16 7 8 10 9 9 9 9 8 6 5 6 5 7 7 7 6 2 -3 -6 -4 
-14 -14 -15 -16 -18 -20 -21 -22 -23 -22 -22 -23 -24 -23 -23 -24 -25 -25 -26 -28 -28 -26 -24 -21 -17 -10 -9 -11 -14 -17 -20 -24 -27 -25 -23 -23 -23 -24 -24 -25 -26 -28 -31 -29 -26 -25 -26 -28 -33 -36 -37 -35 -32 -30 -28 -31 -29 -30 -33 -34 -36 -37 -37 -33 -29 -25 -22 -22 -23 -23 -24 -25 -27 -29 -33 -38 -43 -43 -41 -38 -33 -30 -29 -29 -29 -29 -29 -29 -29 -29 -30 -29 -28 -27 -27 -29 -31 -32 -32 -31 -29 -28 -27 -27 -28 -26 -27 -27 -27 -27 -27 -28 -28 -29 -30 -30 -33 -33 -35 -34 -33 -31 -30 -30 -28 -27 -26 -22 -20 -21 -23 -27 -32 -39 -41 -38 -39 -39 -38 -36 -33 -32 -31 -29 -30 -29 -28 -27 -26 -24 -21 -18 -15 -13 -10 -7 -4 -2 0 1 1 1 1 1 1 1 0 2 2 2 3 3 1 2 7 8 8 7 7 10 12 13 13 13 14 13 13 14 16 15 15 16 14 12 14 16 18 19 19 19 10 2 1 2 5 12 14 13 15 17 20 24 17 16 16 14 16 27 34 29 18 11 9 8 8 4 2 1 4 3 2 2 2 7 17 16 14 14 22 28 27 20 21 14 16 19 18 19 19 21 20 22 34 57 48 34 38 42 44 45 47 56 52 55 57 50 44 39 35 36 36 35 35 33 35 29 29 28 21 16 18 22 26 27 21 16 16 16 13 11 13 19 24 22 18 16 18 18 16 17 13 15 19 16 14 14 17 17 12 6 8 12 6 6 5 -13 -20 -24 -26 -27 -27 -23 -19 -14 -14 -12 -11 -12 -12 -12 -10 -8 -4 3 16 56 78 40 14 9 10 9 9 8 8 11 13 11 12 16 14 16 19 19 20 14 14 19 24 23 14 8 8 7 4 4 6 7 8 8 7 7 6 5 7 7 10 10 7 6 2 -1 -2 -1 
-13 -13 -14 -15 -17 -18 -20 -20 -19 -20 -19 -19 -20 -21 -22 -22 -24 -25 -25 -28 -28 -29 -26 -24 -19 -15 -10 -11 -13 -15 -17 -20 -22 -22 -21 -21 -22 -22 -23 -24 -25 -28 -29 -28 -26 -25 -24 -27 -31 -34 -34 -32 -30 -34 -34 -33 -31 -33 -34 -35 -36 -38 -37 -34 -29 -24 -23 -23 -23 -24 -24 -25 -26 -27 -32 -35 -38 -40 -40 -35 -31 -29 -28 -28 -29 -29 -29 -29 -29 -29 -29 -28 -27 -26 -27 -28 -32 -34 -33 -28 -28 -27 -27 -27 -27 -27 -28 -26 -26 -25 -23 -19 -22 -29 -29 -28 -28 -30 -33 -35 -33 -31 -28 -30 -33 -34 -36 -28 -21 -21 -21 -23 -29 -40 -40 -38 -38 -36 -39 -36 -32 -32 -31 -30 -29 -29 -30 -29 -28 -26 -23 -20 -16 -14 -11 -9 -6 -3 -1 0 0 1 1 1 1 1 2 2 2 3 3 3 2 2 4 7 8 7 8 11 12 13 13 13 13 13 14 15 16 16 13 12 13 14 15 16 17 18 19 18 15 8 3 4 5 10 14 13 13 15 16 21 16 16 16 18 20 30 39 28 16 11 10 8 4 2 1 1 4 6 7 6 6 8 22 20 19 16 21 26 24 19 18 15 17 19 21 23 23 25 24 24 38 78 73 37 35 41 45 50 52 49 47 48 49 46 43 38 33 27 25 26 28 29 32 28 31 33 26 17 18 25 27 24 19 16 17 18 14 12 15 22 31 25 19 16 16 18 19 16 15 16 20 21 22 21 23 21 12 6 8 9 8 6 5 -15 -21 -18 -20 -18 -27 -28 -23 -21 -20 -20 -18 -18 -18 -17 -15 -11 -5 6 11 30 32 15 7 13 28 21 11 9 9 13 19 20 25 28 24 19 16 15 15 16 14 20 22 26 24 12 4 3 3 4 5 5 7 6 3 3 5 3 8 11 15 13 5 2 0 0 1 1 
-13 -13 -14 -15 -16 -17 -17 -18 -17 -17 -16 -18 -18 -19 -20 -21 -23 -24 -25 -28 -30 -32 -30 -27 -23 -17 -14 -14 -14 -14 -15 -16 -17 -18 -19 -19 -19 -21 -22 -23 -24 -26 -26 -27 -25 -24 -24 -26 -28 -28 -30 -29 -25 -29 -29 -33 -37 -36 -36 -36 -37 -37 -36 -33 -29 -24 -24 -24 -24 -24 -24 -24 -25 -26 -28 -31 -33 -34 -34 -31 -27 -25 -25 -26 -27 -28 -28 -26 -25 -26 -28 -27 -26 -26 -26 -30 -34 -36 -34 -31 -28 -27 -26 -26 -26 -26 -26 -26 -25 -25 -24 -22 -27 -28 -27 -28 -28 -28 -30 -39 -35 -38 -31 -35 -33 -31 -37 -35 -26 -22 -21 -19 -19 -25 -36 -40 -39 -39 -43 -39 -33 -31 -31 -31 -31 -31 -30 -30 -29 -28 -25 -22 -19 -16 -14 -12 -9 -6 -4 -2 -1 1 1 1 1 2 2 3 3 4 4 3 2 2 2 6 7 7 8 12 12 12 13 13 13 13 14 15 16 15 13 11 13 14 16 17 16 18 20 19 15 10 1 3 4 7 11 13 13 14 13 17 17 17 18 23 25 32 36 24 12 9 8 4 1 2 1 2 3 7 11 9 11 11 24 25 21 20 25 27 26 20 18 17 16 18 21 23 24 24 28 29 40 86 86 42 34 46 50 57 59 51 50 48 46 47 51 42 33 27 24 22 20 21 23 23 26 31 28 20 21 27 26 21 18 16 15 14 11 13 19 29 32 26 20 17 17 17 18 16 16 17 20 24 27 22 21 18 10 7 8 7 2 2 2 -2 -5 2 3 -6 -26 -27 -26 -26 -33 -33 -27 -23 -22 -20 -17 -13 -6 2 3 7 8 6 7 19 44 29 13 10 12 18 21 22 24 25 27 19 11 11 14 17 12 15 20 27 30 14 6 6 5 6 6 6 6 2 1 1 2 3 8 5 7 5 2 -4 -5 -6 3 3 
-12 -13 -14 -14 -15 -15 -15 -15 -16 -15 -15 -15 -17 -18 -18 -20 -22 -23 -25 -29 -32 -34 -32 -27 -27 -19 -18 -16 -15 -14 -13 -14 -15 -16 -16 -17 -18 -19 -21 -22 -23 -25 -25 -25 -23 -22 -23 -26 -28 -28 -28 -26 -25 -25 -25 -30 -34 -36 -35 -35 -35 -36 -35 -32 -29 -26 -26 -26 -25 -26 -24 -24 -23 -24 -26 -28 -29 -29 -27 -26 -24 -23 -23 -25 -27 -26 -26 -24 -21 -22 -25 -26 -26 -27 -27 -32 -37 -40 -37 -34 -30 -27 -26 -26 -26 -25 -26 -25 -24 -24 -24 -24 -24 -25 -25 -28 -28 -28 -28 -30 -31 -32 -34 -37 -34 -29 -29 -43 -34 -27 -27 -24 -24 -19 -29 -35 -40 -34 -37 -38 -36 -34 -34 -31 -32 -34 -30 -31 -30 -29 -27 -24 -21 -19 -17 -14 -13 -9 -7 -3 -1 0 1 1 3 3 3 4 4 5 4 3 2 1 0 3 6 8 9 13 12 12 13 12 11 12 13 15 16 16 14 13 14 15 16 16 15 18 18 17 11 6 -2 4 3 5 9 13 15 14 12 15 15 14 15 21 29 29 23 16 9 7 4 2 -1 1 3 5 5 9 13 11 12 13 22 34 27 24 26 26 23 20 17 16 13 12 15 19 22 22 31 32 43 82 70 41 40 67 71 62 62 56 49 47 48 56 66 52 40 35 29 25 20 20 22 19 20 25 24 22 23 27 27 22 18 16 12 10 10 13 21 32 30 28 22 19 19 17 16 18 19 19 20 23 27 21 16 12 9 11 10 7 -12 -13 4 1 3 5 5 -11 -20 -23 -25 -29 -33 -33 -32 -28 -25 -22 -20 -16 -10 -5 -3 -1 0 1 3 13 27 19 9 9 18 30 27 21 16 14 16 12 9 10 12 13 13 13 21 29 24 12 9 10 9 14 10 8 4 1 0 1 1 3 5 4 3 1 -4 -7 -9 -10 -7 -7 
-12 -13 -13 -14 -14 -14 -14 -14 -13 -13 -14 -13 -14 -16 -18 -19 -20 -22 -25 -28 -31 -33 -33 -29 -26 -23 -21 -20 -17 -15 -14 -14 -14 -15 -16 -17 -18 -20 -22 -24 -25 -25 -27 -25 -23 -22 -23 -26 -30 -30 -29 -27 -26 -26 -26 -28 -30 -32 -33 -33 -34 -35 -35 -32 -29 -27 -27 -28 -28 -28 -28 -26 -24 -24 -25 -26 -26 -25 -24 -22 -20 -21 -22 -25 -26 -28 -27 -23 -19 -21 -22 -25 -25 -27 -27 -31 -37 -38 -36 -32 -29 -27 -26 -25 -25 -25 -25 -24 -23 -22 -22 -23 -23 -23 -24 -24 -25 -25 -27 -29 -29 -26 -31 -33 -31 -29 -22 -31 -28 -26 -26 -26 -25 -27 -30 -32 -23 -29 -35 -35 -38 -36 -36 -36 -34 -34 -33 -32 -32 -30 -28 -26 -24 -21 -18 -17 -16 -15 -9 -5 -2 0 1 3 2 2 3 3 3 3 3 3 3 1 -1 0 6 7 9 15 13 12 12 11 12 10 12 14 14 15 15 15 13 13 15 16 15 18 18 17 10 5 1 4 5 2 3 9 13 14 11 12 15 13 13 18 23 15 11 9 4 2 1 4 -3 2 9 16 14 15 20 18 17 15 23 37 28 27 26 21 16 14 15 14 14 11 11 15 18 22 35 38 39 59 47 46 50 90 102 74 62 58 52 49 50 51 56 55 53 47 35 28 23 22 26 23 17 20 23 23 22 26 28 26 22 18 14 12 12 15 23 33 33 33 26 21 23 19 17 21 23 21 20 22 24 21 14 9 7 12 12 8 2 1 5 3 2 4 4 1 -3 -16 -20 -26 -30 -32 -32 -29 -27 -24 -24 -19 -14 -8 -8 -6 -5 -3 1 6 5 5 5 4 21 36 28 20 13 10 8 7 8 10 11 12 10 13 20 22 13 9 7 9 9 11 8 3 1 1 -1 -1 0 1 3 3 -2 -4 -8 -13 -15 -16 -14 -15 
-11 -11 -12 -12 -11 -11 -11 -11 -12 -11 -12 -12 -13 -14 -16 -18 -19 -21 -23 -26 -30 -34 -34 -31 -27 -28 -28 -22 -19 -15 -15 -14 -14 -15 -15 -16 -18 -20 -23 -25 -28 -28 -28 -25 -24 -21 -21 -27 -32 -32 -31 -31 -28 -29 -28 -28 -28 -27 -27 -30 -32 -34 -35 -33 -30 -27 -27 -30 -32 -33 -31 -27 -23 -24 -24 -25 -24 -23 -21 -19 -18 -18 -20 -23 -27 -30 -30 -26 -23 -20 -21 -22 -23 -23 -24 -29 -32 -34 -32 -30 -28 -26 -25 -24 -25 -25 -25 -24 -23 -22 -22 -22 -23 -23 -23 -23 -23 -24 -24 -25 -28 -30 -32 -35 -33 -33 -33 -32 -30 -22 -20 -20 -26 -30 -30 -28 -26 -24 -26 -33 -35 -35 -36 -38 -40 -35 -35 -34 -33 -33 -29 -27 -25 -22 -20 -19 -17 -16 -12 -8 -5 -1 1 1 2 2 2 1 1 1 1 2 1 0 -2 -2 5 7 9 12 13 12 11 13 13 13 13 14 14 14 15 16 15 14 13 14 16 18 18 17 15 13 1 2 2 6 7 8 5 3 9 12 11 12 12 13 12 4 1 1 1 0 -3 0 3 2 11 25 27 32 36 30 25 23 27 36 38 33 26 21 17 14 12 16 17 15 13 13 17 24 33 39 41 43 34 58 63 92 118 86 64 61 59 53 48 43 47 54 58 57 45 31 23 25 25 20 16 16 21 23 22 25 27 26 23 23 19 18 18 18 25 33 31 35 24 20 23 22 22 21 23 23 23 26 26 19 13 6 7 13 10 8 4 1 4 3 -11 1 6 5 1 -9 -15 -22 -27 -33 -36 -36 -26 -22 -23 -22 -19 -15 -13 -11 -9 -8 -2 1 4 5 6 5 15 24 19 15 12 10 9 9 10 10 9 10 9 15 18 13 7 6 6 7 6 5 2 1 1 0 -1 -2 -1 -1 -1 -3 -5 -10 -13 -18 -24 -34 -34 -24 
-10 -10 -11 -11 -10 -10 -11 -11 -11 -10 -10 -12 -13 -14 -14 -16 -18 -19 -21 -23 -27 -29 -30 -28 -27 -28 -28 -24 -20 -17 -16 -16 -15 -15 -16 -17 -18 -20 -23 -27 -31 -31 -29 -27 -23 -20 -20 -25 -29 -31 -31 -31 -31 -32 -33 -30 -25 -22 -22 -26 -30 -33 -35 -33 -30 -28 -28 -30 -35 -39 -36 -31 -27 -27 -27 -25 -23 -22 -20 -17 -17 -16 -19 -24 -30 -34 -35 -31 -26 -22 -21 -21 -20 -21 -23 -26 -28 -29 -28 -28 -26 -24 -23 -24 -24 -25 -25 -24 -23 -22 -22 -21 -22 -23 -23 -22 -22 -22 -22 -23 -22 -28 -30 -36 -35 -34 -32 -31 -34 -25 -19 -23 -29 -33 -29 -27 -24 -17 -21 -30 -34 -34 -35 -40 -37 -37 -36 -36 -34 -34 -30 -28 -25 -23 -21 -18 -18 -16 -14 -12 -11 -10 -2 0 2 1 1 1 -1 0 0 -1 0 0 -2 -2 3 7 8 9 12 11 11 12 11 13 13 15 14 14 15 14 15 16 15 13 12 15 16 18 17 8 2 1 2 2 2 5 5 2 1 3 8 10 10 10 4 1 1 1 2 2 -3 -1 10 6 4 12 26 27 27 35 34 35 37 44 43 34 25 23 19 15 16 18 18 16 14 16 18 20 24 28 32 31 30 48 53 56 69 63 58 53 54 54 48 37 34 45 54 51 41 34 28 21 20 19 20 17 16 19 21 24 25 26 28 28 24 21 19 21 27 27 29 29 24 22 21 21 20 21 22 23 24 24 22 14 9 4 9 15 9 6 4 1 5 4 2 7 5 3 1 -6 -9 -17 -25 -30 -34 -33 -28 -24 -24 -25 -25 -22 -18 -15 -12 -9 -6 -3 0 1 3 2 5 11 12 9 9 9 9 9 8 8 3 2 2 4 8 7 5 4 4 2 1 2 1 1 0 -1 -1 -2 -1 -3 -4 -6 -9 -14 -18 -22 -28 -34 -34 -30 
-10 -10 -10 -10 -10 -10 -10 -11 -10 -9 -9 -10 -12 -12 -13 -14 -16 -17 -18 -20 -21 -24 -25 -26 -25 -25 -24 -23 -20 -18 -16 -16 -15 -16 -16 -16 -18 -19 -22 -25 -29 -29 -31 -27 -24 -21 -20 -23 -25 -28 -29 -31 -34 -36 -39 -32 -24 -16 -17 -22 -28 -33 -35 -32 -29 -27 -27 -30 -34 -38 -39 -34 -27 -27 -27 -26 -25 -23 -19 -17 -14 -14 -19 -25 -32 -39 -40 -34 -28 -22 -21 -20 -19 -20 -21 -26 -24 -24 -24 -24 -24 -23 -22 -23 -23 -24 -23 -23 -22 -22 -22 -21 -22 -22 -22 -21 -22 -22 -22 -21 -21 -26 -29 -34 -32 -34 -34 -37 -38 -34 -30 -32 -33 -32 -28 -27 -25 -17 -17 -17 -27 -33 -31 -36 -39 -36 -36 -34 -33 -32 -31 -30 -27 -24 -21 -20 -18 -18 -16 -14 -12 -8 0 0 0 -1 -1 -2 -3 -3 -2 -3 -2 -2 -3 -4 2 7 8 9 11 11 11 12 11 11 12 14 14 14 14 13 13 15 14 12 12 12 16 19 18 12 13 0 1 -1 1 3 2 1 1 3 6 8 7 6 5 3 2 0 1 0 -2 -1 8 8 5 4 10 19 26 34 38 40 43 47 40 29 25 23 20 19 16 16 17 14 10 14 21 22 21 21 23 27 33 45 45 39 41 45 45 45 46 45 44 40 33 30 33 34 31 28 26 24 19 19 20 17 14 17 21 25 23 22 23 24 21 20 19 27 33 26 25 42 39 26 19 20 18 20 23 22 20 20 16 10 7 6 8 10 8 4 2 4 4 3 2 2 2 1 -2 -6 -10 -16 -22 -29 -26 -25 -28 -26 -25 -27 -28 -24 -22 -17 -13 -11 -7 -6 -4 -3 0 2 3 3 5 4 3 3 6 8 4 3 1 2 2 1 3 4 5 2 1 1 1 1 1 0 0 -3 -5 -5 -5 -7 -9 -9 -14 -17 -21 -24 -27 -31 -32 -31 
-10 -9 -9 -9 -10 -10 -10 -12 -10 -9 -10 -11 -10 -12 -12 -13 -14 -16 -14 -14 -18 -20 -22 -24 -24 -24 -23 -22 -20 -18 -17 -16 -16 -16 -16 -16 -15 -16 -18 -21 -24 -26 -28 -27 -24 -23 -22 -20 -20 -20 -27 -29 -34 -36 -38 -35 -27 -19 -18 -22 -26 -30 -32 -31 -28 -26 -25 -28 -32 -36 -37 -34 -30 -29 -29 -28 -27 -24 -22 -17 -13 -14 -17 -23 -29 -34 -36 -32 -28 -24 -21 -20 -18 -19 -21 -22 -21 -21 -21 -21 -22 -22 -22 -23 -24 -24 -24 -24 -23 -22 -22 -22 -21 -21 -21 -21 -21 -21 -20 -20 -21 -23 -26 -27 -31 -31 -30 -34 -36 -34 -29 -32 -33 -28 -30 -27 -26 -30 -26 -26 -27 -29 -25 -30 -35 -36 -34 -33 -30 -31 -31 -34 -22 -16 -22 -21 -19 -17 -17 -17 -15 -11 -7 -4 -4 -3 -3 -4 -5 -4 -1 -4 1 2 1 -3 1 5 6 8 8 10 11 12 12 11 12 13 12 13 13 12 12 14 14 13 13 11 15 17 16 12 4 -1 -1 -1 -2 0 1 2 3 4 3 4 4 3 2 1 0 -1 1 1 1 2 6 9 8 7 4 12 26 29 34 41 41 35 27 23 22 22 20 18 13 12 14 13 9 11 20 22 23 19 18 23 30 42 43 37 32 31 32 34 32 33 37 36 34 30 31 34 33 29 23 27 22 21 19 17 13 17 23 26 25 21 19 19 16 15 17 27 32 26 26 36 38 29 19 17 17 17 19 18 17 15 12 6 4 7 8 7 6 2 1 4 3 2 3 3 2 2 -2 -7 -11 -16 -20 -23 -27 -27 -31 -29 -34 -34 -29 -26 -23 -19 -15 -11 -9 -6 -6 -6 -4 -3 2 2 2 2 3 3 2 3 1 0 -1 0 1 1 2 3 4 3 2 -1 -1 1 1 -2 -4 -7 -7 -8 -9 -12 -14 -19 -20 -21 -22 -24 -26 -30 -32 -32 
-10 -9 -9 -9 -10 -10 -11 -13 -13 -9 -12 -12 -12 -12 -12 -12 -14 -14 -13 -14 -16 -18 -20 -21 -23 -24 -23 -21 -19 -19 -17 -16 -16 -16 -15 -14 -13 -13 -13 -17 -20 -23 -24 -24 -25 -24 -24 -22 -22 -22 -26 -29 -32 -34 -37 -37 -29 -20 -20 -22 -26 -29 -30 -29 -27 -25 -25 -27 -31 -33 -34 -33 -31 -30 -29 -30 -30 -28 -23 -18 -13 -13 -16 -22 -27 -31 -31 -30 -26 -24 -23 -22 -22 -23 -24 -23 -21 -18 -18 -19 -20 -21 -23 -23 -24 -25 -25 -24 -23 -22 -22 -21 -20 -21 -21 -21 -21 -20 -20 -20 -20 -21 -21 -24 -26 -27 -29 -31 -34 -31 -32 -36 -32 -21 -29 -29 -28 -30 -30 -27 -28 -27 -28 -30 -33 -34 -32 -32 -23 -23 -29 -34 -31 -26 -25 -23 -21 -17 -19 -18 -18 -18 -11 -8 -7 -6 -6 -6 -5 -4 -2 2 3 8 5 4 3 1 2 7 8 9 11 12 12 12 12 11 10 12 13 12 12 14 15 14 13 12 15 15 10 5 1 -1 -2 -2 -1 1 2 4 3 3 4 4 3 3 2 1 0 -3 1 1 2 2 7 9 9 10 7 9 16 25 28 31 33 31 22 18 17 19 18 13 11 11 13 16 13 11 17 20 21 20 16 16 23 36 41 38 33 28 26 27 26 26 29 28 31 31 35 37 36 31 23 27 24 22 20 18 14 14 18 21 21 21 18 14 13 13 15 23 27 25 26 25 26 24 20 17 15 14 15 12 11 6 9 9 9 10 8 6 4 2 2 3 3 3 3 4 4 2 -2 -5 -10 -15 -19 -21 -19 -27 -34 -33 -34 -32 -30 -27 -24 -20 -15 -12 -10 -9 -6 -10 -9 -7 -4 -3 -2 1 2 1 0 -2 -3 -3 -2 -3 -2 -1 0 2 2 1 -1 -2 -3 -1 -2 -4 -7 -10 -11 -10 -12 -15 -18 -22 -22 -25 -25 -26 -29 -31 -33 -34 
-10 -9 -9 -9 -9 -11 -13 -16 -18 -16 -15 -14 -13 -12 -12 -12 -13 -14 -13 -13 -14 -16 -18 -21 -22 -23 -24 -21 -20 -18 -17 -16 -15 -16 -14 -13 -12 -12 -12 -14 -17 -18 -22 -24 -25 -26 -27 -28 -28 -28 -27 -28 -29 -30 -31 -30 -24 -19 -19 -22 -24 -26 -28 -26 -24 -22 -23 -25 -28 -30 -32 -32 -30 -30 -30 -32 -33 -31 -28 -23 -17 -14 -17 -20 -23 -27 -29 -27 -25 -23 -23 -25 -26 -27 -27 -24 -21 -17 -17 -18 -19 -20 -23 -23 -24 -26 -26 -24 -22 -21 -20 -20 -19 -19 -19 -20 -20 -21 -21 -20 -19 -18 -19 -20 -22 -21 -26 -28 -30 -36 -34 -38 -37 -34 -33 -31 -30 -28 -28 -28 -29 -29 -29 -31 -34 -33 -33 -33 -27 -22 -28 -28 -33 -30 -28 -26 -24 -23 -21 -18 -18 -18 -14 -11 -10 -9 -8 -8 -7 -6 -2 2 3 12 13 8 4 1 5 8 9 8 10 12 12 11 11 11 10 10 12 13 13 16 16 15 13 11 12 10 7 5 4 2 -1 -2 -1 2 3 5 5 5 4 4 4 3 2 0 -1 -2 0 0 3 4 7 5 7 11 11 11 11 18 25 25 23 28 22 16 13 12 11 11 11 11 13 17 14 9 12 16 18 20 16 13 18 29 36 38 36 33 28 23 22 21 22 22 27 25 31 36 35 32 26 20 22 17 15 16 13 11 12 14 14 15 14 12 11 12 14 21 23 23 25 26 25 23 20 18 17 14 11 9 9 5 9 10 11 10 7 6 3 3 1 1 1 2 3 5 5 3 -4 -6 -9 -14 -19 -19 -18 -21 -26 -29 -29 -30 -29 -26 -25 -22 -19 -15 -15 -14 -14 -16 -15 -12 -9 -8 -5 -4 -5 -4 -5 -5 -5 -6 -6 -7 -7 -6 -6 -6 -6 -5 -6 -6 -6 -5 -6 -7 -9 -12 -12 -13 -15 -17 -21 -23 -26 -28 -27 -30 -32 -32 -34 -36 
-10 -9 -9 -9 -9 -11 -13 -15 -18 -18 -18 -17 -14 -13 -12 -12 -13 -13 -13 -14 -14 -16 -17 -20 -21 -23 -24 -22 -20 -19 -17 -16 -15 -14 -14 -13 -12 -11 -12 -12 -14 -15 -18 -21 -23 -24 -27 -28 -27 -26 -26 -26 -26 -26 -24 -24 -21 -19 -19 -22 -24 -26 -26 -25 -23 -21 -22 -24 -26 -28 -29 -29 -29 -28 -31 -31 -33 -33 -30 -26 -20 -18 -17 -19 -21 -22 -23 -24 -23 -24 -25 -26 -29 -31 -31 -27 -22 -17 -17 -17 -18 -20 -20 -22 -24 -25 -22 -22 -21 -21 -20 -19 -19 -19 -18 -20 -20 -20 -21 -20 -19 -17 -17 -17 -18 -19 -21 -21 -28 -33 -33 -36 -40 -36 -34 -32 -30 -30 -29 -31 -30 -31 -31 -31 -31 -32 -32 -33 -33 -31 -18 -16 -33 -33 -31 -29 -26 -24 -23 -21 -19 -17 -16 -14 -13 -11 -11 -10 -7 -4 1 3 4 13 16 15 10 4 5 8 8 9 10 12 12 12 11 12 12 12 11 11 11 13 13 12 10 9 9 7 5 3 2 1 -3 -1 1 3 4 5 5 5 4 4 4 3 2 1 1 0 0 1 4 5 9 9 5 8 11 11 11 11 14 16 16 19 16 14 12 11 11 12 14 12 12 14 12 8 9 16 20 18 14 12 18 24 29 40 40 34 26 24 24 24 22 19 21 19 23 25 27 29 23 16 18 17 15 13 11 12 12 14 16 13 12 13 13 14 14 15 18 20 21 24 24 22 19 17 15 13 11 5 6 10 13 9 10 10 8 9 5 1 4 3 3 3 4 5 7 5 0 -5 -8 -12 -19 -19 -19 -22 -23 -26 -27 -28 -21 -21 -24 -22 -20 -19 -19 -18 -19 -19 -19 -17 -15 -12 -11 -9 -8 -8 -8 -9 -10 -11 -11 -13 -13 -13 -13 -13 -12 -12 -11 -10 -13 -13 -10 -10 -13 -13 -14 -16 -18 -20 -23 -26 -28 -29 -30 -30 -33 -33 -35 -38 
-10 -9 -9 -8 -9 -11 -12 -14 -16 -18 -18 -17 -14 -13 -12 -12 -12 -12 -13 -13 -13 -14 -17 -18 -21 -22 -24 -22 -19 -18 -16 -16 -15 -14 -13 -13 -12 -11 -12 -12 -11 -11 -12 -16 -18 -22 -25 -25 -25 -24 -25 -25 -24 -23 -19 -20 -20 -18 -20 -23 -25 -27 -26 -25 -22 -20 -20 -22 -25 -27 -27 -27 -28 -29 -29 -31 -32 -32 -33 -28 -23 -19 -18 -18 -17 -18 -18 -20 -21 -22 -25 -28 -31 -33 -35 -29 -22 -17 -16 -15 -16 -18 -18 -22 -24 -25 -22 -22 -21 -21 -21 -19 -19 -17 -16 -20 -20 -20 -20 -19 -18 -16 -15 -14 -15 -16 -17 -19 -26 -29 -33 -31 -34 -34 -34 -33 -32 -33 -31 -33 -33 -32 -30 -31 -30 -29 -30 -33 -33 -34 -26 -23 -33 -33 -33 -30 -27 -25 -24 -22 -20 -19 -17 -16 -15 -14 -13 -11 -8 -4 2 5 7 15 16 16 14 8 6 8 8 9 10 10 11 12 11 12 12 12 12 11 10 11 10 10 9 9 10 5 2 2 1 2 0 0 1 2 4 5 5 4 4 4 5 4 3 2 2 1 1 1 2 7 11 11 4 7 11 11 12 12 13 15 16 22 16 15 14 14 14 16 19 15 12 10 9 8 9 14 17 16 12 13 18 20 23 34 43 40 30 28 23 23 22 18 15 14 16 18 18 23 23 19 19 22 19 14 11 12 12 13 14 12 11 12 12 14 13 12 13 14 18 19 18 16 16 17 17 15 11 5 6 11 11 11 10 9 8 10 8 3 2 2 2 3 4 4 5 5 4 -3 -8 -13 -17 -20 -22 -26 -27 -27 -29 -28 -22 -22 -25 -24 -23 -22 -22 -22 -22 -23 -23 -21 -19 -17 -15 -13 -13 -12 -12 -13 -15 -16 -18 -18 -19 -18 -17 -17 -17 -15 -16 -15 -13 -13 -14 -15 -16 -17 -18 -20 -21 -23 -27 -29 -31 -31 -31 -32 -34 -34 -36 -39 
-10 -9 -7 -8 -8 -9 -11 -13 -14 -15 -15 -14 -13 -13 -11 -11 -11 -12 -12 -12 -13 -14 -15 -17 -19 -21 -21 -21 -19 -17 -17 -16 -15 -13 -13 -13 -12 -12 -13 -12 -11 -10 -10 -12 -14 -17 -19 -20 -22 -23 -24 -24 -25 -24 -23 -22 -20 -20 -22 -24 -27 -30 -29 -26 -22 -19 -19 -21 -25 -27 -26 -26 -26 -27 -28 -28 -30 -31 -31 -29 -27 -23 -21 -18 -15 -14 -14 -16 -19 -22 -25 -29 -33 -33 -32 -28 -24 -19 -15 -16 -16 -17 -19 -22 -23 -24 -22 -22 -22 -22 -22 -19 -17 -16 -16 -20 -20 -20 -20 -19 -19 -18 -15 -14 -15 -15 -16 -18 -24 -28 -33 -33 -34 -34 -34 -34 -34 -42 -38 -35 -36 -35 -32 -31 -30 -29 -18 -21 -32 -34 -35 -34 -33 -32 -31 -31 -28 -26 -24 -23 -23 -22 -18 -18 -17 -16 -14 -11 -7 -3 1 5 9 14 15 16 15 6 2 4 7 7 8 10 11 12 10 11 11 11 11 12 12 11 10 10 10 11 6 2 1 2 2 3 1 0 1 2 3 4 4 4 4 4 4 4 2 2 3 2 2 4 4 7 7 9 5 7 10 12 12 13 14 14 13 14 13 16 15 14 13 19 22 14 10 9 7 6 8 8 10 12 11 14 19 22 22 25 33 37 32 27 25 26 25 21 18 16 16 15 15 18 18 17 17 19 18 14 11 11 12 11 12 12 13 12 12 12 11 11 10 11 15 16 13 13 15 18 18 8 11 10 8 10 11 10 9 10 9 7 8 7 6 6 6 5 6 5 4 5 3 -2 -8 -13 -16 -20 -23 -27 -29 -29 -29 -28 -28 -25 -27 -26 -24 -24 -24 -24 -24 -23 -24 -23 -22 -22 -20 -18 -18 -18 -18 -19 -20 -22 -22 -21 -22 -20 -19 -20 -20 -20 -20 -18 -18 -18 -19 -20 -21 -22 -24 -25 -26 -29 -31 -32 -33 -32 -33 -35 -35 -36 -37 -39 
-10 -8 -8 -7 -8 -8 -10 -12 -12 -10 -10 -12 -13 -11 -10 -10 -11 -11 -11 -12 -11 -13 -14 -15 -17 -19 -20 -19 -18 -17 -15 -15 -14 -13 -13 -13 -13 -14 -17 -14 -12 -10 -9 -9 -8 -9 -12 -16 -19 -21 -23 -25 -26 -27 -28 -25 -23 -21 -22 -26 -29 -33 -33 -28 -23 -18 -17 -20 -24 -29 -26 -24 -24 -24 -25 -27 -28 -30 -29 -29 -29 -27 -23 -14 -14 -11 -11 -15 -18 -21 -24 -27 -30 -31 -29 -28 -25 -21 -18 -18 -17 -17 -19 -22 -22 -23 -24 -23 -21 -23 -22 -21 -18 -16 -14 -14 -18 -19 -20 -20 -20 -18 -18 -16 -15 -15 -16 -18 -22 -25 -28 -23 -35 -34 -33 -31 -34 -36 -34 -34 -33 -33 -32 -32 -33 -32 -27 -30 -30 -34 -34 -36 -35 -33 -27 -29 -29 -26 -26 -25 -25 -25 -25 -22 -19 -17 -15 -11 -7 -2 1 2 9 12 15 16 12 5 1 1 2 3 6 9 11 12 10 10 11 11 11 12 12 12 10 11 10 6 2 2 3 3 4 3 2 1 0 1 3 3 3 3 4 4 4 3 0 2 3 -1 3 5 7 7 4 7 8 8 9 10 12 13 14 13 12 10 12 15 15 13 12 17 17 11 11 10 6 6 6 3 2 6 9 13 19 21 23 22 26 29 26 28 28 29 29 27 29 25 24 23 21 20 18 17 15 15 14 13 12 12 12 11 12 13 13 13 13 11 10 10 10 10 11 15 12 12 14 16 17 11 13 13 9 8 7 5 5 6 5 6 6 7 7 6 6 4 4 3 2 4 2 -4 -9 -13 -17 -19 -23 -25 -29 -31 -32 -31 -32 -31 -32 -33 -25 -23 -26 -26 -24 -24 -24 -24 -25 -26 -25 -24 -23 -24 -26 -25 -26 -26 -25 -25 -24 -22 -23 -23 -24 -24 -23 -23 -23 -23 -24 -24 -26 -28 -29 -31 -31 -33 -40 -40 -34 -33 -35 -42 -42 -42 -39 -36 
-10 -8 -7 -8 -7 -8 -9 -10 -10 -10 -10 -10 -11 -10 -9 -10 -10 -10 -10 -11 -10 -12 -13 -15 -16 -17 -18 -17 -16 -15 -15 -14 -13 -13 -13 -13 -14 -14 -16 -16 -14 -12 -9 -8 -7 -8 -8 -12 -16 -19 -21 -25 -27 -29 -30 -27 -25 -23 -23 -25 -29 -32 -31 -29 -24 -20 -19 -20 -20 -24 -22 -22 -21 -22 -23 -25 -27 -27 -28 -30 -31 -30 -28 -14 -14 -14 -14 -16 -19 -20 -23 -25 -28 -28 -28 -27 -26 -24 -22 -19 -18 -16 -17 -19 -20 -21 -23 -23 -23 -24 -24 -20 -20 -16 -14 -16 -18 -20 -21 -21 -21 -18 -18 -17 -17 -16 -16 -18 -21 -22 -25 -27 -31 -38 -34 -33 -34 -34 -32 -33 -31 -30 -34 -35 -36 -35 -32 -31 -31 -23 -33 -35 -35 -36 -26 -20 -25 -27 -28 -28 -28 -28 -27 -24 -21 -18 -15 -12 -7 -2 1 2 9 10 13 10 7 3 3 2 3 3 2 5 9 11 10 11 12 11 10 10 11 11 11 14 10 3 1 2 4 4 4 4 2 1 1 2 3 4 3 3 4 4 4 4 2 2 1 -2 4 5 9 10 6 5 4 4 7 7 10 13 13 12 11 10 12 14 15 12 10 10 11 8 10 11 7 8 6 4 2 3 3 10 15 17 23 25 27 28 23 26 30 29 29 32 41 36 33 29 27 26 26 21 18 14 11 11 12 12 11 11 11 12 11 11 11 10 10 10 10 11 11 12 12 12 13 14 15 10 9 8 4 2 1 1 2 1 2 2 3 4 5 4 3 3 2 2 1 1 1 -7 -11 -15 -17 -19 -21 -24 -27 -29 -29 -36 -33 -34 -30 -26 -24 -25 -28 -26 -25 -25 -23 -24 -26 -27 -28 -28 -28 -29 -30 -30 -31 -30 -30 -28 -27 -27 -27 -27 -29 -27 -28 -28 -28 -28 -29 -29 -30 -31 -33 -32 -34 -35 -40 -39 -34 -34 -32 -33 -34 -32 -33 -31 
-9 -8 -7 -7 -7 -8 -9 -9 -9 -9 -8 -9 -10 -9 -10 -9 -9 -9 -10 -10 -10 -10 -12 -14 -15 -16 -16 -16 -16 -15 -14 -14 -13 -13 -14 -13 -13 -15 -16 -16 -15 -14 -11 -9 -7 -7 -6 -11 -14 -17 -21 -24 -28 -31 -32 -29 -25 -23 -22 -23 -27 -30 -31 -28 -25 -22 -20 -19 -18 -19 -18 -18 -19 -20 -22 -24 -25 -27 -29 -30 -33 -32 -30 -25 -21 -19 -18 -19 -21 -22 -23 -24 -26 -26 -27 -27 -27 -26 -24 -21 -19 -15 -14 -16 -17 -19 -20 -23 -24 -24 -23 -20 -20 -17 -15 -16 -19 -22 -23 -22 -22 -22 -19 -17 -17 -16 -17 -18 -20 -21 -23 -26 -29 -32 -24 -33 -34 -33 -33 -28 -28 -29 -34 -36 -36 -36 -33 -30 -31 -21 -25 -35 -36 -35 -35 -34 -19 -27 -30 -29 -30 -30 -29 -26 -22 -17 -15 -11 -7 -3 1 5 5 2 2 2 1 3 3 3 3 3 3 2 5 10 11 11 11 11 12 11 8 8 9 11 6 3 1 2 3 5 5 4 1 0 1 2 3 3 3 3 3 3 4 4 3 3 2 1 4 5 7 9 8 3 2 5 6 3 9 12 11 9 10 8 11 11 10 9 9 4 6 3 2 6 5 7 3 5 2 1 2 8 13 13 19 23 27 30 28 26 29 27 31 34 36 37 31 29 30 32 32 30 30 18 12 12 14 13 11 10 11 10 10 10 8 9 10 11 11 12 12 14 14 12 10 9 6 2 1 1 -2 -5 -9 -10 -7 -8 -7 -10 -12 -6 1 1 -5 -4 1 1 -3 -5 -8 -11 -15 -17 -18 -19 -20 -23 -26 -27 -28 -26 -27 -29 -28 -28 -28 -28 -28 -27 -26 -25 -25 -26 -28 -29 -30 -32 -33 -33 -33 -33 -34 -34 -33 -32 -32 -31 -32 -32 -33 -33 -33 -34 -34 -33 -33 -32 -32 -34 -34 -34 -35 -35 -36 -35 -34 -33 -31 -30 -31 -29 -29 -28 
-10 -8 -7 -7 -8 -7 -8 -8 -9 -8 -8 -9 -9 -8 -9 -9 -9 -8 -9 -9 -9 -10 -11 -13 -14 -15 -15 -15 -15 -14 -14 -12 -13 -13 -13 -14 -14 -15 -15 -17 -17 -16 -14 -13 -13 -8 -7 -10 -13 -15 -19 -22 -26 -29 -31 -28 -25 -22 -21 -21 -26 -30 -32 -29 -25 -22 -22 -23 -23 -20 -16 -17 -18 -19 -20 -23 -25 -26 -28 -31 -34 -35 -33 -30 -27 -24 -23 -24 -24 -23 -23 -23 -24 -24 -26 -28 -28 -28 -26 -23 -19 -15 -11 -14 -16 -17 -19 -21 -23 -24 -22 -20 -19 -17 -16 -18 -21 -24 -24 -23 -20 -18 -17 -16 -17 -17 -16 -16 -18 -20 -21 -24 -27 -29 -29 -31 -37 -35 -33 -27 -29 -28 -33 -34 -35 -35 -38 -32 -32 -29 -26 -30 -37 -37 -35 -36 -36 -32 -31 -31 -31 -32 -31 -26 -21 -17 -13 -10 -8 -5 -2 1 2 3 4 4 2 2 2 3 3 3 3 2 2 6 10 12 11 10 11 12 11 9 8 7 5 2 1 2 4 5 5 4 -1 0 1 2 3 3 3 3 3 4 4 3 2 2 2 3 5 7 8 9 6 2 3 3 7 9 12 12 9 6 8 8 9 8 6 6 6 7 4 1 4 5 3 5 7 7 5 5 7 8 11 12 18 20 22 23 26 29 24 21 25 27 29 33 29 28 31 32 34 29 29 24 18 14 15 15 8 8 10 8 9 9 9 10 12 13 13 13 10 8 6 4 2 1 -3 -5 -8 -8 -10 -14 -16 -16 -14 -14 -13 -15 -18 -13 -10 -10 -12 -10 -7 -5 -8 -11 -14 -17 -19 -20 -20 -20 -21 -23 -24 -27 -26 -26 -25 -25 -28 -33 -34 -33 -31 -31 -25 -26 -27 -27 -29 -31 -33 -39 -39 -39 -39 -37 -39 -37 -39 -39 -39 -39 -39 -40 -40 -38 -38 -41 -41 -36 -39 -39 -38 -36 -37 -37 -38 -31 -31 -33 -32 -30 -26 -25 -30 -29 -32 -35 
-11 -9 -8 -8 -8 -9 -9 -9 -8 -8 -9 -9 -8 -9 -9 -9 -8 -9 -9 -9 -10 -10 -11 -12 -13 -14 -14 -14 -13 -13 -12 -12 -12 -14 -14 -15 -16 -16 -16 -18 -20 -21 -19 -13 -14 -11 -10 -12 -12 -14 -17 -20 -23 -26 -28 -26 -23 -21 -21 -22 -26 -29 -31 -29 -27 -25 -25 -27 -30 -26 -23 -21 -20 -19 -20 -22 -25 -27 -29 -32 -34 -36 -35 -32 -31 -30 -30 -30 -28 -31 -24 -22 -21 -23 -26 -28 -30 -30 -28 -25 -21 -17 -14 -15 -16 -16 -18 -19 -21 -22 -20 -19 -18 -19 -19 -20 -23 -26 -24 -22 -16 -12 -11 -12 -17 -17 -16 -17 -17 -17 -20 -21 -23 -26 -27 -30 -36 -34 -36 -24 -27 -32 -37 -35 -31 -31 -34 -35 -37 -34 -19 -21 -32 -39 -37 -36 -39 -36 -32 -31 -33 -34 -31 -26 -21 -15 -11 -10 -10 -10 -7 -4 -1 1 3 1 1 1 2 3 3 4 3 3 1 2 6 10 11 11 12 12 11 10 9 5 4 3 3 3 4 5 4 3 1 1 2 3 3 3 3 3 2 3 3 2 0 0 1 1 4 8 9 9 5 3 3 1 5 8 12 13 10 6 5 7 5 4 3 4 2 1 1 1 4 2 1 2 3 5 5 6 7 7 8 4 19 32 30 27 26 27 26 22 19 18 20 28 27 26 27 28 32 29 24 26 22 18 17 13 7 9 6 8 11 6 10 11 11 10 8 6 3 3 5 2 1 -6 -11 -15 -16 -16 -19 -22 -25 -22 -20 -18 -19 -22 -22 -20 -19 -18 -19 -20 -17 -15 -17 -18 -20 -22 -23 -25 -23 -23 -22 -23 -24 -25 -26 -27 -25 -28 -29 -33 -34 -34 -33 -31 -27 -30 -29 -34 -35 -37 -35 -37 -39 -39 -39 -40 -39 -40 -39 -39 -39 -39 -39 -39 -39 -40 -43 -42 -42 -35 -31 -34 -30 -30 -31 -30 -30 -28 -30 -27 -25 -31 -28 -30 -36 -34 -35 -41 
-12 -10 -8 -8 -8 -9 -9 -9 -9 -8 -8 -8 -9 -9 -9 -8 -9 -9 -8 -9 -10 -11 -12 -13 -13 -13 -14 -14 -13 -12 -12 -12 -12 -13 -13 -13 -15 -16 -18 -19 -21 -25 -24 -21 -17 -14 -14 -12 -13 -11 -14 -17 -20 -23 -24 -23 -22 -20 -21 -23 -26 -29 -31 -29 -28 -27 -27 -29 -30 -29 -28 -25 -22 -20 -21 -22 -25 -28 -31 -32 -34 -36 -34 -34 -33 -34 -36 -34 -32 -32 -22 -19 -19 -24 -27 -30 -33 -33 -30 -28 -23 -19 -17 -17 -16 -16 -17 -19 -19 -19 -19 -18 -17 -19 -19 -20 -25 -28 -24 -20 -14 -7 -5 -8 -11 -12 -17 -15 -16 -16 -17 -19 -21 -23 -25 -28 -32 -41 -48 -34 -35 -34 -35 -35 -33 -32 -32 -33 -35 -41 -33 -15 -18 -30 -36 -36 -37 -38 -35 -33 -34 -34 -31 -27 -19 -13 -9 -12 -14 -14 -13 -9 -6 -1 1 0 1 1 1 2 4 4 4 2 1 1 2 7 10 12 12 13 11 10 10 7 4 3 3 3 3 4 3 2 1 2 3 3 3 3 3 2 2 3 3 2 1 0 0 1 6 10 10 8 7 5 2 2 4 5 8 10 10 6 2 3 3 2 1 1 -7 2 1 1 2 1 -2 1 2 4 5 3 3 3 3 2 14 31 40 39 36 30 27 25 21 18 17 22 19 17 19 20 25 28 28 30 23 18 19 11 9 10 9 10 11 11 10 8 6 3 4 4 1 0 -8 -10 -11 -14 -18 -21 -22 -22 -25 -26 -26 -25 -22 -20 -26 -29 -29 -26 -23 -22 -22 -22 -23 -24 -24 -25 -26 -28 -30 -30 -28 -26 -24 -25 -26 -25 -27 -28 -33 -30 -30 -31 -32 -33 -32 -33 -35 -35 -33 -30 -32 -35 -34 -37 -39 -41 -41 -42 -42 -42 -40 -40 -43 -42 -42 -39 -37 -37 -38 -45 -44 -30 -24 -28 -30 -28 -25 -22 -23 -25 -34 -31 -24 -32 -33 -42 -42 -39 -37 -42 
-12 -10 -8 -8 -9 -9 -9 -8 -8 -8 -7 -8 -8 -9 -8 -9 -9 -9 -9 -9 -11 -12 -13 -13 -13 -13 -13 -13 -11 -11 -11 -11 -12 -12 -13 -13 -13 -16 -17 -19 -22 -24 -25 -21 -19 -17 -15 -13 -10 -10 -12 -15 -17 -19 -21 -21 -20 -19 -20 -22 -25 -28 -29 -28 -28 -27 -28 -29 -30 -30 -29 -26 -23 -21 -21 -22 -24 -28 -30 -32 -35 -35 -34 -34 -34 -36 -38 -37 -32 -27 -24 -24 -24 -25 -28 -31 -33 -35 -32 -30 -26 -22 -19 -18 -17 -17 -18 -18 -18 -18 -17 -16 -16 -16 -16 -20 -23 -18 -18 -20 -17 -11 -8 -9 -10 -10 -12 -14 -16 -16 -16 -16 -18 -21 -21 -24 -27 -32 -34 -34 -35 -34 -35 -36 -36 -37 -35 -33 -32 -45 -48 -33 -30 -33 -35 -36 -37 -37 -36 -37 -35 -34 -35 -29 -18 -16 -12 -13 -16 -18 -17 -14 -11 -7 -4 -4 -4 -3 -1 0 3 3 4 3 0 0 1 3 8 11 12 11 11 10 10 10 3 2 2 3 3 2 2 0 1 2 2 2 3 3 2 1 0 0 1 1 0 0 -1 0 5 7 8 7 7 7 6 3 3 4 3 5 6 3 1 1 3 1 1 1 4 2 3 2 7 1 -3 -4 -5 -5 -2 -3 -2 2 2 5 10 18 25 31 43 40 29 24 24 22 20 19 16 15 16 18 21 22 25 24 18 16 19 9 6 8 9 9 8 8 4 3 1 -1 -4 -6 -8 -10 -16 -20 -22 -19 -22 -25 -28 -28 -30 -29 -29 -29 -28 -28 -33 -34 -32 -30 -30 -27 -26 -24 -25 -27 -28 -29 -32 -38 -38 -35 -33 -36 -35 -32 -29 -29 -29 -28 -29 -29 -30 -29 -32 -33 -34 -34 -34 -34 -34 -32 -31 -32 -34 -36 -38 -38 -39 -40 -41 -41 -41 -39 -40 -40 -41 -40 -38 -37 -36 -36 -34 -25 -24 -24 -29 -25 -26 -31 -29 -31 -37 -38 -37 -40 -40 -44 -45 -39 -42 -50 
-12 -11 -10 -9 -9 -9 -9 -8 -8 -8 -8 -9 -9 -9 -9 -9 -9 -9 -9 -10 -12 -13 -14 -14 -14 -13 -13 -12 -11 -10 -11 -11 -11 -12 -12 -12 -13 -15 -15 -18 -19 -22 -23 -21 -19 -18 -17 -13 -11 -10 -12 -13 -14 -15 -17 -17 -17 -18 -19 -21 -23 -25 -26 -27 -27 -28 -28 -29 -30 -30 -29 -27 -24 -21 -21 -21 -24 -27 -30 -32 -33 -33 -33 -32 -34 -37 -38 -38 -33 -28 -26 -25 -25 -26 -28 -31 -33 -34 -35 -31 -27 -25 -21 -20 -19 -19 -18 -18 -18 -16 -16 -15 -15 -14 -14 -18 -23 -22 -21 -20 -17 -15 -12 -11 -10 -10 -12 -13 -16 -16 -16 -16 -17 -18 -18 -19 -21 -26 -30 -33 -35 -35 -36 -36 -37 -36 -36 -35 -31 -34 -34 -37 -37 -35 -38 -40 -36 -38 -38 -39 -38 -36 -36 -34 -26 -21 -15 -15 -18 -21 -20 -19 -16 -13 -9 -9 -9 -8 -6 -4 -2 0 3 3 2 1 2 4 5 9 11 10 8 10 9 8 1 1 3 3 2 2 1 1 1 2 1 1 1 2 0 -2 -2 -2 -1 -1 -1 0 -2 -1 2 3 4 4 5 5 5 3 3 3 3 2 1 1 2 1 6 2 -4 1 1 1 5 3 2 1 5 -7 -9 -7 -5 -1 0 1 1 3 8 11 11 10 31 47 40 31 29 28 28 23 21 21 22 21 24 28 22 18 18 13 10 5 3 6 7 6 4 6 1 0 -3 -6 -11 -14 -15 -18 -21 -24 -25 -23 -26 -30 -34 -35 -35 -34 -33 -32 -33 -33 -35 -34 -33 -31 -31 -29 -28 -26 -28 -30 -33 -32 -36 -38 -38 -39 -38 -36 -35 -32 -36 -34 -34 -28 -29 -30 -30 -29 -33 -34 -33 -32 -34 -34 -33 -31 -33 -33 -36 -37 -38 -38 -39 -40 -42 -43 -41 -39 -35 -39 -40 -40 -40 -39 -29 -31 -32 -26 -32 -37 -34 -35 -35 -37 -35 -34 -39 -41 -41 -41 -43 -43 -40 -43 -52 -57 
-12 -11 -11 -9 -9 -9 -9 -9 -8 -8 -8 -8 -8 -9 -9 -9 -9 -9 -10 -11 -13 -15 -15 -15 -15 -14 -13 -12 -11 -11 -11 -11 -11 -10 -11 -12 -13 -13 -14 -15 -17 -19 -19 -19 -19 -17 -16 -13 -13 -11 -13 -13 -12 -11 -14 -15 -15 -16 -18 -19 -20 -22 -23 -25 -26 -26 -27 -27 -28 -28 -27 -26 -24 -22 -22 -22 -24 -26 -29 -30 -31 -31 -31 -30 -30 -34 -35 -34 -31 -27 -27 -27 -27 -28 -29 -30 -32 -33 -33 -31 -29 -26 -24 -23 -21 -20 -20 -18 -18 -16 -14 -14 -13 -12 -13 -15 -18 -19 -20 -21 -21 -20 -19 -17 -13 -12 -13 -13 -14 -16 -17 -16 -17 -17 -14 -14 -14 -23 -27 -32 -36 -36 -36 -39 -36 -34 -35 -34 -34 -34 -33 -34 -35 -37 -43 -46 -39 -39 -39 -39 -37 -38 -35 -33 -33 -26 -20 -20 -20 -24 -24 -23 -22 -19 -17 -16 -14 -14 -12 -11 -8 -5 0 2 3 4 5 4 5 5 9 9 4 6 7 6 1 1 3 2 2 1 1 0 1 1 -1 -2 -3 -4 -7 -7 -7 -7 -8 -7 -7 -8 -7 -5 -3 -2 -2 -2 -1 0 1 2 4 4 3 2 2 2 1 2 8 4 1 5 6 2 1 6 6 2 -4 1 1 1 -4 -1 1 1 1 1 3 9 9 10 23 31 34 34 36 39 37 32 31 28 30 26 22 24 19 17 27 17 8 9 6 4 3 2 -6 -5 -6 -6 -8 -11 -14 -23 -23 -23 -22 -25 -26 -24 -28 -34 -40 -40 -40 -38 -37 -36 -36 -37 -33 -32 -31 -29 -34 -35 -36 -39 -36 -36 -36 -36 -38 -41 -42 -43 -43 -42 -43 -42 -43 -43 -41 -38 -33 -34 -32 -33 -34 -37 -35 -34 -35 -35 -34 -30 -30 -33 -37 -37 -36 -36 -38 -38 -40 -42 -43 -36 -34 -36 -43 -45 -50 -50 -48 -47 -47 -47 -51 -61 -48 -45 -44 -41 -39 -39 -42 -48 -45 -43 -53 -55 -36 -50 -67 -70 
-13 -12 -12 -11 -10 -9 -9 -9 -9 -8 -8 -8 -8 -8 -8 -9 -9 -9 -10 -11 -13 -15 -16 -16 -15 -14 -13 -12 -11 -11 -11 -11 -10 -10 -10 -10 -10 -11 -12 -13 -15 -16 -17 -17 -17 -17 -16 -14 -12 -12 -12 -13 -13 -13 -14 -14 -14 -15 -16 -18 -18 -19 -21 -22 -24 -26 -26 -27 -27 -27 -26 -25 -25 -23 -23 -24 -25 -27 -28 -29 -30 -31 -30 -30 -31 -32 -32 -32 -30 -28 -28 -28 -29 -30 -30 -31 -31 -32 -31 -31 -30 -27 -25 -23 -23 -22 -21 -19 -17 -16 -14 -13 -12 -12 -11 -12 -11 -15 -19 -22 -25 -25 -25 -21 -17 -14 -12 -14 -15 -17 -18 -17 -18 -18 -18 -18 -19 -23 -26 -30 -33 -35 -34 -35 -37 -35 -36 -36 -34 -33 -33 -31 -32 -34 -36 -38 -40 -41 -43 -39 -39 -36 -38 -37 -33 -29 -28 -26 -27 -27 -26 -25 -24 -23 -23 -20 -20 -20 -19 -16 -12 -8 -2 2 5 8 8 5 5 4 6 8 7 3 5 6 0 1 2 2 1 0 0 -1 -1 0 -4 -6 -8 -9 -10 -11 -11 -12 -14 -14 -12 -11 -10 -9 -8 -7 -8 -7 -6 -6 -5 -2 1 2 3 2 2 2 4 4 3 2 2 6 8 3 1 1 1 1 6 7 5 4 -1 0 1 -1 -1 1 4 7 5 6 11 13 20 14 24 37 48 55 36 25 26 23 20 20 20 8 5 9 8 9 9 8 3 -3 -8 -10 -12 -12 -12 -15 -15 -19 -21 -22 -23 -26 -27 -23 -30 -35 -37 -40 -40 -39 -40 -39 -38 -37 -32 -33 -32 -35 -41 -40 -41 -42 -41 -39 -39 -40 -41 -43 -45 -45 -45 -47 -43 -44 -49 -51 -43 -47 -39 -37 -38 -36 -37 -37 -42 -37 -40 -44 -35 -31 -31 -33 -42 -39 -36 -36 -37 -38 -38 -48 -53 -43 -43 -53 -55 -54 -53 -46 -43 -43 -42 -40 -45 -62 -47 -35 -40 -41 -31 -39 -44 -43 -41 -38 -47 -55 -59 -69 -76 -76 
-13 -13 -12 -12 -12 -10 -10 -9 -9 -8 -8 -8 -8 -8 -8 -8 -9 -9 -10 -11 -12 -15 -15 -15 -14 -13 -13 -12 -12 -12 -12 -11 -10 -10 -9 -9 -9 -9 -11 -12 -13 -14 -15 -16 -15 -15 -15 -15 -14 -14 -13 -14 -15 -16 -16 -15 -14 -14 -15 -16 -17 -18 -18 -20 -23 -24 -25 -26 -26 -26 -25 -25 -24 -25 -25 -25 -26 -27 -28 -28 -30 -31 -32 -30 -31 -32 -32 -31 -31 -30 -29 -30 -31 -32 -33 -32 -31 -31 -31 -32 -32 -28 -27 -25 -24 -23 -22 -19 -18 -16 -15 -14 -13 -12 -11 -12 -12 -15 -19 -23 -27 -28 -28 -24 -20 -16 -14 -14 -16 -16 -17 -18 -17 -18 -19 -19 -20 -23 -26 -29 -31 -34 -34 -31 -35 -36 -36 -37 -36 -34 -32 -30 -31 -26 -31 -34 -38 -39 -38 -37 -41 -38 -39 -37 -35 -33 -31 -29 -29 -29 -26 -26 -25 -23 -22 -22 -22 -23 -21 -19 -16 -12 -7 -2 2 8 7 4 4 3 5 5 7 7 3 1 1 2 2 1 0 -1 -4 -5 -6 -9 -9 -11 -11 -12 -13 -14 -14 -15 -16 -15 -14 -12 -11 -11 -10 -11 -11 -9 -9 -8 -8 -5 -2 0 1 2 2 3 1 2 2 4 5 7 4 5 5 1 1 1 5 9 11 4 2 1 2 -1 -3 -1 3 2 2 2 4 6 11 11 7 6 11 39 15 4 6 10 8 15 19 5 4 6 9 10 6 4 1 -3 -8 -10 -12 -13 -15 -15 -15 -19 -23 -25 -26 -30 -35 -34 -37 -39 -38 -40 -41 -41 -42 -41 -41 -38 -37 -36 -36 -38 -41 -40 -41 -43 -42 -41 -43 -43 -44 -43 -45 -45 -49 -48 -45 -48 -54 -58 -55 -51 -46 -47 -43 -41 -40 -39 -63 -61 -55 -60 -41 -36 -35 -35 -38 -38 -37 -36 -38 -42 -45 -46 -48 -46 -48 -48 -48 -46 -48 -42 -41 -41 -38 -34 -39 -46 -43 -40 -45 -45 -40 -48 -50 -45 -40 -32 -53 -64 -64 -67 -70 -68 
-13 -14 -15 -14 -12 -11 -10 -9 -9 -9 -8 -8 -8 -8 -8 -8 -8 -9 -9 -10 -11 -13 -13 -13 -13 -12 -12 -12 -12 -13 -11 -11 -11 -9 -9 -9 -9 -9 -11 -11 -12 -13 -14 -14 -14 -15 -15 -15 -15 -14 -15 -15 -15 -16 -16 -15 -14 -14 -14 -14 -15 -16 -17 -19 -21 -23 -24 -24 -25 -25 -25 -25 -25 -25 -26 -26 -26 -28 -28 -29 -30 -31 -32 -31 -32 -32 -31 -31 -31 -30 -31 -32 -34 -35 -35 -34 -31 -31 -31 -32 -32 -29 -27 -25 -23 -23 -21 -20 -18 -16 -15 -14 -13 -12 -13 -12 -12 -16 -19 -22 -26 -29 -29 -26 -22 -18 -15 -14 -15 -16 -17 -17 -17 -17 -19 -20 -21 -23 -26 -28 -30 -32 -32 -32 -35 -36 -38 -41 -37 -35 -34 -29 -31 -26 -31 -33 -35 -38 -38 -37 -39 -39 -37 -38 -36 -33 -33 -30 -29 -28 -27 -26 -24 -22 -21 -22 -23 -24 -24 -22 -20 -17 -14 -10 -5 2 4 1 1 1 4 4 4 6 4 2 2 2 1 -1 -3 -3 -8 -8 -9 -11 -11 -12 -13 -14 -15 -15 -16 -17 -17 -16 -14 -14 -12 -12 -12 -12 -12 -12 -11 -10 -9 -7 -5 -3 -1 1 3 3 4 1 4 6 8 9 3 4 6 3 4 2 3 5 8 3 1 4 3 1 -3 -2 3 1 1 1 2 2 5 7 5 1 1 17 5 -1 -6 5 4 9 12 4 1 4 5 4 3 3 -2 -4 -7 -9 -11 -13 -16 -19 -19 -22 -26 -29 -30 -35 -41 -42 -45 -46 -42 -41 -41 -42 -44 -44 -44 -42 -41 -40 -41 -42 -42 -41 -42 -42 -43 -42 -44 -46 -46 -44 -44 -45 -47 -46 -47 -47 -55 -58 -53 -50 -46 -47 -51 -52 -44 -46 -67 -73 -62 -60 -48 -39 -36 -35 -43 -46 -41 -40 -45 -51 -50 -45 -47 -48 -50 -49 -49 -50 -52 -49 -47 -47 -44 -38 -43 -47 -45 -46 -49 -47 -51 -51 -52 -47 -38 -29 -53 -64 -64 -65 -68 -66 
-14 -15 -16 -15 -12 -11 -10 -10 -9 -9 -8 -8 -8 -8 -8 -8 -8 -8 -8 -9 -10 -10 -11 -11 -11 -11 -12 -12 -13 -13 -12 -12 -11 -11 -9 -9 -9 -10 -10 -10 -12 -12 -13 -13 -14 -15 -15 -16 -16 -16 -17 -16 -16 -15 -15 -14 -15 -15 -14 -14 -14 -15 -17 -18 -20 -21 -22 -23 -23 -24 -24 -24 -25 -26 -26 -27 -27 -28 -29 -29 -29 -30 -30 -31 -31 -32 -32 -32 -32 -32 -33 -35 -36 -38 -38 -35 -32 -30 -29 -29 -29 -28 -24 -24 -23 -23 -23 -20 -19 -16 -15 -14 -14 -13 -12 -13 -14 -15 -19 -23 -26 -29 -30 -27 -24 -20 -18 -15 -15 -16 -16 -16 -16 -16 -17 -18 -21 -22 -24 -27 -29 -30 -32 -32 -33 -35 -34 -35 -38 -37 -35 -34 -34 -31 -32 -32 -32 -35 -38 -37 -38 -38 -38 -37 -33 -30 -32 -32 -32 -29 -26 -26 -23 -20 -19 -20 -23 -26 -27 -25 -24 -23 -24 -21 -20 -23 -14 -9 -4 0 -1 -1 0 3 7 8 2 -2 -7 -8 -9 -12 -11 -10 -11 -11 -12 -13 -14 -15 -16 -17 -17 -18 -19 -18 -16 -14 -14 -13 -12 -12 -12 -12 -12 -12 -11 -10 -9 -6 -3 0 2 5 7 5 2 4 7 9 4 1 2 4 3 1 1 0 1 1 5 8 8 5 -1 -1 -1 -2 -5 -5 -5 -6 -5 3 4 4 8 2 1 -11 1 2 5 7 8 6 7 1 -1 -1 -2 -3 -6 -4 -5 -8 -10 -14 -18 -22 -24 -26 -30 -35 -34 -39 -49 -49 -47 -46 -42 -42 -41 -43 -46 -50 -49 -47 -44 -44 -47 -47 -47 -44 -41 -38 -40 -36 -47 -51 -51 -48 -42 -41 -41 -45 -47 -52 -61 -64 -59 -52 -42 -48 -60 -62 -54 -58 -66 -67 -59 -53 -48 -48 -43 -48 -62 -59 -47 -43 -50 -54 -52 -45 -51 -54 -53 -55 -57 -57 -60 -58 -55 -54 -53 -51 -52 -53 -51 -51 -51 -51 -54 -59 -55 -53 -50 -51 -55 -64 -67 -66 -68 -65 
-14 -15 -16 -15 -14 -11 -10 -10 -9 -9 -8 -8 -8 -8 -8 -8 -8 -8 -8 -8 -9 -9 -9 -10 -10 -11 -11 -12 -12 -13 -13 -13 -12 -11 -10 -9 -9 -9 -9 -10 -11 -11 -12 -12 -13 -14 -14 -15 -16 -17 -17 -17 -16 -15 -14 -14 -15 -15 -14 -14 -14 -15 -16 -17 -18 -19 -21 -22 -22 -23 -22 -24 -25 -26 -26 -26 -27 -28 -28 -29 -28 -28 -28 -29 -30 -33 -32 -33 -33 -34 -35 -36 -38 -39 -39 -36 -32 -29 -28 -27 -26 -25 -24 -23 -24 -23 -23 -21 -19 -17 -16 -15 -14 -14 -13 -15 -15 -17 -18 -22 -26 -28 -29 -29 -27 -24 -20 -17 -16 -16 -15 -14 -15 -15 -16 -17 -20 -20 -23 -25 -27 -29 -30 -31 -32 -33 -32 -30 -36 -38 -35 -34 -35 -31 -31 -32 -30 -29 -33 -36 -37 -39 -39 -39 -36 -35 -34 -32 -32 -28 -26 -26 -23 -21 -18 -19 -24 -27 -28 -28 -28 -28 -28 -27 -26 -26 -20 -15 -8 -1 -5 -6 -7 -5 -3 0 0 -7 -11 -12 -12 -13 -13 -13 -13 -12 -14 -14 -15 -16 -17 -18 -18 -19 -20 -19 -17 -15 -14 -14 -13 -13 -12 -13 -13 -13 -13 -11 -10 -8 -4 -1 2 6 7 6 4 3 7 8 8 3 2 2 3 3 2 0 -2 -3 8 12 12 13 12 2 -4 -7 -10 -11 -13 -14 -14 -14 -16 -15 -8 -1 5 1 4 4 9 7 5 4 6 -1 -3 -4 -4 -5 -5 -2 -5 -8 -11 -14 -21 -25 -29 -32 -33 -33 -37 -45 -51 -50 -49 -47 -42 -42 -41 -45 -47 -50 -49 -47 -45 -49 -48 -48 -47 -45 -46 -47 -48 -46 -52 -49 -49 -52 -39 -41 -42 -46 -57 -74 -82 -66 -62 -59 -58 -49 -55 -59 -61 -58 -63 -67 -59 -52 -55 -64 -53 -59 -64 -55 -48 -48 -58 -57 -53 -51 -60 -55 -55 -59 -60 -57 -57 -57 -56 -54 -52 -53 -53 -50 -52 -52 -52 -60 -62 -63 -59 -58 -60 -63 -66 -68 -70 -70 -68 -65 
-13 -15 -15 -15 -12 -11 -10 -10 -10 -9 -8 -8 -8 -8 -8 -8 -7 -7 -7 -7 -8 -8 -8 -8 -10 -10 -10 -11 -12 -13 -13 -13 -12 -10 -10 -9 -9 -8 -9 -9 -10 -10 -11 -11 -11 -13 -13 -14 -15 -17 -17 -17 -17 -15 -14 -14 -13 -13 -14 -13 -14 -15 -16 -16 -16 -17 -18 -19 -20 -21 -21 -23 -25 -26 -26 -25 -26 -28 -28 -28 -28 -28 -28 -30 -31 -32 -33 -33 -35 -34 -35 -36 -39 -40 -40 -36 -33 -27 -25 -25 -25 -24 -22 -22 -24 -24 -23 -22 -20 -18 -16 -16 -16 -15 -14 -15 -16 -17 -18 -22 -26 -28 -30 -28 -29 -29 -21 -18 -17 -16 -14 -13 -13 -14 -14 -15 -18 -20 -22 -22 -25 -27 -28 -29 -31 -32 -34 -37 -37 -37 -35 -34 -33 -33 -33 -40 -28 -24 -33 -36 -36 -35 -35 -41 -40 -38 -37 -35 -31 -27 -24 -28 -27 -23 -20 -22 -26 -29 -30 -30 -30 -31 -31 -30 -30 -28 -24 -20 -16 -12 -14 -16 -15 -15 -11 -9 -9 -12 -17 -15 -14 -15 -16 -16 -15 -15 -15 -16 -16 -18 -19 -20 -20 -20 -21 -21 -19 -16 -15 -14 -13 -12 -12 -13 -14 -13 -13 -12 -11 -10 -7 -2 3 6 9 8 4 1 4 6 8 8 6 3 2 0 0 -1 0 4 12 1 7 12 2 -4 -10 -13 -16 -17 -18 -21 -22 -22 -23 -21 -14 -2 1 5 9 11 12 4 1 2 0 -3 -7 -7 -7 -9 -9 -7 -8 -11 -11 -17 -23 -29 -34 -37 -36 -34 -39 -55 -51 -50 -53 -54 -45 -44 -43 -48 -52 -52 -49 -47 -52 -56 -53 -49 -47 -49 -54 -61 -54 -43 -45 -42 -50 -52 -48 -49 -58 -48 -61 -61 -59 -52 -49 -56 -68 -63 -70 -75 -61 -57 -70 -77 -67 -49 -56 -71 -52 -56 -59 -53 -62 -67 -68 -66 -66 -68 -68 -51 -59 -58 -58 -55 -58 -61 -54 -56 -57 -55 -55 -53 -55 -55 -56 -60 -66 -67 -64 -64 -68 -70 -71 -72 -69 -69 -69 -63 
-12 -13 -13 -12 -11 -11 -10 -10 -10 -9 -9 -9 -8 -8 -8 -8 -7 -7 -7 -7 -7 -7 -7 -8 -8 -8 -9 -10 -11 -12 -12 -12 -11 -9 -9 -8 -8 -8 -8 -9 -9 -9 -10 -10 -11 -11 -11 -12 -13 -15 -17 -17 -16 -16 -14 -14 -13 -13 -13 -13 -14 -15 -14 -15 -16 -17 -18 -18 -19 -20 -20 -22 -23 -23 -24 -24 -25 -25 -27 -27 -27 -28 -28 -30 -31 -32 -33 -34 -34 -35 -36 -37 -38 -39 -39 -36 -32 -28 -26 -25 -25 -24 -23 -24 -24 -24 -24 -22 -20 -19 -18 -17 -16 -16 -14 -15 -15 -16 -19 -23 -25 -29 -29 -28 -28 -25 -22 -20 -17 -15 -14 -13 -12 -12 -14 -15 -16 -18 -19 -20 -22 -23 -25 -28 -29 -30 -32 -33 -32 -32 -35 -35 -32 -32 -38 -40 -36 -42 -35 -36 -36 -28 -27 -34 -36 -36 -37 -35 -36 -35 -34 -34 -33 -33 -33 -33 -29 -31 -32 -32 -32 -33 -34 -33 -32 -31 -28 -26 -23 -23 -26 -23 -22 -22 -18 -16 -15 -17 -18 -17 -15 -16 -18 -18 -18 -17 -16 -17 -18 -19 -20 -20 -20 -20 -19 -19 -20 -17 -16 -15 -13 -14 -14 -14 -14 -14 -14 -12 -10 -9 -7 -2 1 7 9 8 3 1 2 4 6 4 2 2 2 1 1 0 1 1 3 -2 -1 0 -7 -12 -17 -19 -20 -27 -26 -26 -25 -23 -22 -17 4 5 3 12 15 16 16 3 2 1 3 -2 -9 -12 -12 -13 -12 -13 -15 -18 -20 -22 -29 -34 -37 -36 -39 -42 -46 -49 -54 -59 -61 -63 -68 -63 -55 -53 -52 -52 -49 -50 -54 -58 -58 -42 -40 -54 -49 -46 -43 -38 -40 -40 -46 -47 -43 -47 -55 -59 -60 -60 -60 -57 -55 -56 -61 -69 -63 -60 -57 -62 -77 -78 -72 -68 -67 -65 -64 -63 -64 -61 -61 -63 -64 -63 -62 -62 -60 -58 -56 -56 -55 -56 -52 -51 -50 -50 -52 -54 -54 -54 -55 -55 -57 -60 -63 -63 -64 -64 -65 -66 -67 -66 -64 -62 -60 -58 
-10 -10 -11 -11 -10 -10 -10 -10 -9 -9 -9 -9 -9 -8 -8 -8 -7 -7 -7 -7 -6 -6 -6 -7 -7 -8 -8 -9 -10 -11 -11 -11 -10 -8 -8 -7 -7 -7 -7 -8 -8 -8 -9 -10 -10 -10 -10 -10 -10 -11 -18 -18 -16 -15 -14 -13 -13 -13 -12 -13 -13 -13 -14 -15 -16 -16 -17 -17 -17 -17 -18 -20 -20 -21 -21 -22 -23 -24 -24 -25 -26 -28 -28 -29 -30 -31 -32 -33 -35 -36 -37 -37 -38 -38 -38 -35 -30 -27 -25 -26 -25 -25 -25 -24 -24 -24 -24 -23 -22 -19 -19 -17 -17 -15 -16 -16 -16 -17 -20 -22 -26 -29 -29 -29 -29 -25 -22 -19 -18 -16 -14 -13 -12 -12 -12 -14 -15 -15 -17 -19 -20 -20 -23 -25 -27 -29 -31 -31 -32 -33 -35 -34 -30 -34 -37 -37 -37 -41 -35 -37 -37 -36 -36 -35 -29 -35 -38 -36 -39 -37 -37 -38 -35 -32 -28 -28 -31 -34 -32 -34 -34 -34 -34 -34 -33 -33 -31 -29 -28 -28 -28 -26 -25 -24 -22 -19 -19 -20 -20 -19 -19 -21 -21 -21 -20 -20 -20 -21 -22 -22 -21 -21 -20 -19 -18 -18 -23 -21 -18 -16 -14 -14 -16 -16 -16 -14 -14 -13 -11 -9 -7 -4 0 4 8 7 2 -2 1 1 1 2 1 2 3 3 2 1 -1 -3 -5 -6 -6 -9 -15 -17 -19 -20 -22 -29 -28 -28 -27 -26 -22 -15 2 2 2 5 14 25 32 10 5 3 1 -3 -15 -15 -15 -15 -15 -17 -20 -24 -26 -31 -37 -42 -43 -43 -46 -50 -53 -50 -59 -65 -67 -70 -69 -60 -51 -57 -58 -52 -50 -51 -54 -53 -52 -42 -48 -46 -35 -37 -37 -37 -39 -41 -49 -48 -48 -47 -49 -53 -52 -55 -59 -59 -58 -56 -60 -68 -62 -55 -55 -56 -78 -78 -76 -73 -71 -70 -67 -66 -65 -63 -62 -62 -62 -62 -61 -58 -56 -54 -51 -49 -49 -47 -45 -43 -42 -45 -49 -53 -54 -54 -55 -56 -57 -60 -61 -63 -63 -63 -63 -63 -63 -62 -59 -53 -53 -53 
-8 -9 -9 -10 -8 -9 -8 -9 -9 -9 -10 -9 -9 -8 -8 -8 -8 -7 -7 -7 -6 -6 -6 -7 -7 -7 -8 -8 -9 -10 -10 -9 -9 -8 -7 -6 -6 -6 -7 -7 -8 -8 -8 -9 -9 -9 -9 -9 -9 -11 -15 -16 -16 -15 -14 -13 -13 -13 -13 -13 -13 -14 -15 -15 -16 -15 -16 -16 -16 -17 -17 -17 -17 -18 -19 -20 -21 -21 -23 -25 -26 -27 -27 -29 -29 -30 -31 -32 -33 -36 -35 -37 -37 -37 -36 -34 -31 -28 -27 -26 -26 -26 -25 -25 -25 -24 -24 -23 -23 -21 -20 -19 -17 -17 -17 -16 -16 -17 -20 -23 -25 -29 -31 -29 -27 -25 -23 -21 -18 -16 -15 -12 -12 -11 -12 -13 -14 -15 -15 -17 -18 -19 -21 -24 -26 -28 -29 -31 -31 -34 -36 -39 -37 -40 -38 -37 -43 -46 -36 -30 -32 -41 -39 -36 -36 -35 -39 -39 -38 -39 -40 -43 -45 -39 -32 -30 -31 -30 -28 -34 -34 -34 -34 -34 -33 -34 -33 -32 -31 -31 -29 -26 -25 -24 -24 -24 -22 -22 -23 -22 -22 -23 -23 -23 -23 -23 -22 -22 -23 -23 -22 -21 -20 -19 -20 -20 -23 -22 -19 -16 -13 -12 -14 -16 -16 -15 -14 -12 -11 -11 -8 -6 -2 0 2 2 -2 -5 -6 -4 -2 0 3 4 5 4 2 1 -1 -3 2 1 -6 -8 -16 -19 -21 -22 -17 -28 -28 -29 -29 -29 -24 -18 -11 -8 -5 1 5 9 18 12 5 3 3 -3 -8 -12 -14 -16 -18 -23 -28 -35 -42 -49 -51 -53 -53 -49 -49 -49 -59 -62 -61 -64 -72 -68 -68 -62 -64 -66 -58 -51 -50 -49 -47 -46 -45 -35 -28 -35 -35 -36 -35 -44 -43 -46 -51 -52 -54 -49 -45 -48 -49 -52 -61 -62 -62 -59 -63 -61 -60 -60 -58 -63 -69 -72 -73 -71 -71 -69 -69 -67 -66 -65 -63 -63 -61 -60 -58 -55 -52 -49 -47 -45 -42 -40 -37 -38 -38 -42 -46 -50 -52 -54 -54 -55 -57 -58 -60 -62 -62 -63 -63 -63 -61 -59 -58 -53 -53 -53 
-8 -7 -9 -8 -8 -8 -8 -8 -9 -9 -10 -9 -9 -8 -8 -8 -8 -7 -7 -7 -6 -6 -6 -6 -7 -7 -7 -8 -8 -9 -9 -8 -8 -7 -6 -6 -6 -6 -6 -7 -7 -8 -8 -9 -9 -9 -8 -9 -9 -10 -12 -13 -15 -15 -14 -14 -14 -13 -14 -14 -15 -16 -15 -16 -15 -16 -16 -16 -16 -15 -16 -16 -15 -16 -17 -17 -19 -20 -21 -23 -26 -27 -27 -27 -27 -29 -29 -31 -33 -34 -35 -35 -36 -36 -34 -33 -31 -29 -28 -27 -27 -26 -25 -25 -25 -25 -24 -23 -23 -22 -20 -19 -18 -17 -17 -17 -16 -17 -19 -23 -26 -29 -31 -29 -27 -26 -23 -22 -20 -17 -15 -14 -12 -11 -12 -13 -13 -13 -14 -15 -16 -18 -20 -23 -25 -27 -28 -29 -32 -34 -36 -38 -41 -40 -33 -37 -41 -44 -43 -38 -34 -34 -31 -35 -46 -44 -44 -41 -38 -37 -36 -37 -41 -40 -31 -31 -33 -31 -34 -39 -38 -32 -34 -34 -34 -34 -34 -34 -34 -34 -31 -27 -27 -27 -26 -26 -26 -25 -25 -24 -24 -25 -24 -24 -26 -26 -24 -24 -25 -23 -24 -23 -22 -22 -21 -22 -24 -24 -22 -18 -13 -9 -15 -16 -17 -14 -13 -12 -12 -11 -10 -9 -6 -4 -3 -4 -7 -9 -9 -8 -3 -1 2 4 5 5 4 2 -1 -6 1 1 -3 1 1 2 1 9 -12 -26 -27 -28 -29 -30 -27 -25 -22 -19 -19 -6 2 5 7 6 2 1 -1 -4 -9 -13 -16 -22 -22 -28 -36 -46 -55 -59 -65 -66 -93 -72 -56 -63 -75 -70 -73 -72 -71 -67 -67 -65 -67 -58 -46 -42 -43 -46 -41 -43 -44 -40 -39 -38 -35 -34 -44 -55 -52 -54 -56 -54 -52 -51 -49 -52 -57 -57 -59 -57 -65 -59 -58 -57 -57 -58 -58 -61 -64 -67 -67 -68 -68 -67 -66 -67 -67 -65 -63 -62 -60 -58 -56 -52 -49 -47 -44 -40 -37 -30 -30 -32 -34 -39 -45 -48 -51 -53 -54 -55 -55 -57 -58 -60 -61 -63 -63 -60 -58 -56 -54 -53 -53 -53 
-7 -7 -7 -6 -7 -7 -7 -8 -8 -9 -10 -9 -9 -8 -8 -8 -8 -8 -7 -7 -7 -6 -6 -6 -6 -7 -8 -8 -8 -8 -8 -7 -7 -6 -6 -6 -6 -6 -6 -7 -7 -8 -8 -8 -9 -8 -8 -8 -9 -10 -11 -13 -13 -14 -15 -15 -15 -14 -15 -15 -17 -17 -17 -17 -16 -16 -16 -16 -14 -14 -14 -14 -14 -14 -15 -16 -17 -19 -20 -22 -24 -26 -27 -26 -26 -26 -28 -28 -31 -33 -34 -34 -34 -34 -33 -32 -31 -29 -29 -28 -27 -27 -26 -26 -25 -25 -24 -23 -22 -22 -21 -19 -18 -18 -17 -17 -17 -17 -19 -21 -26 -29 -30 -30 -27 -26 -24 -23 -21 -20 -17 -15 -13 -12 -12 -12 -13 -12 -13 -14 -15 -16 -19 -22 -25 -26 -27 -28 -30 -33 -35 -38 -42 -43 -39 -35 -33 -40 -40 -40 -37 -35 -28 -29 -38 -44 -46 -46 -41 -42 -35 -26 -22 -39 -39 -38 -35 -35 -38 -40 -40 -32 -33 -36 -34 -34 -34 -34 -34 -34 -33 -28 -28 -28 -29 -26 -26 -29 -28 -27 -26 -26 -26 -25 -25 -25 -26 -25 -25 -25 -24 -24 -24 -24 -22 -23 -26 -26 -23 -20 -18 -18 -23 -20 -19 -17 -15 -13 -12 -13 -13 -11 -10 -8 -7 -9 -12 -13 -12 -8 -6 -3 2 4 5 5 6 3 1 -4 1 2 1 2 3 6 5 2 -11 -25 -24 -25 -25 -27 -29 -29 -29 -25 -24 -11 -3 2 2 34 -1 -2 -4 -4 -11 -14 -16 -22 -22 -33 -43 -59 -73 -81 -84 -82 -93 -87 -79 -84 -81 -74 -72 -70 -66 -65 -60 -51 -46 -38 -36 -35 -39 -42 -44 -48 -46 -48 -43 -41 -43 -46 -49 -59 -61 -62 -51 -50 -51 -53 -53 -50 -50 -50 -49 -48 -51 -49 -49 -50 -52 -54 -54 -58 -59 -60 -61 -62 -63 -63 -63 -65 -66 -65 -64 -61 -58 -56 -52 -50 -47 -46 -41 -38 -35 -30 -30 -30 -31 -37 -44 -49 -50 -52 -53 -55 -55 -54 -55 -58 -59 -58 -57 -56 -54 -53 -53 -51 -50 -49 
-7 -7 -6 -7 -6 -6 -7 -7 -8 -8 -9 -9 -8 -8 -8 -8 -8 -8 -8 -7 -7 -7 -7 -7 -6 -7 -7 -7 -8 -7 -7 -7 -6 -6 -6 -6 -6 -6 -6 -7 -7 -8 -8 -8 -9 -9 -8 -8 -9 -9 -11 -12 -13 -14 -15 -16 -15 -16 -15 -16 -17 -19 -19 -18 -17 -16 -15 -15 -14 -13 -13 -13 -12 -13 -14 -15 -15 -17 -19 -21 -23 -25 -25 -25 -25 -25 -25 -26 -28 -31 -31 -32 -32 -32 -32 -31 -31 -30 -29 -29 -28 -28 -27 -27 -26 -25 -24 -23 -23 -22 -21 -20 -20 -20 -20 -20 -19 -18 -19 -21 -25 -29 -29 -29 -28 -27 -26 -24 -24 -23 -20 -18 -14 -13 -13 -12 -13 -13 -13 -13 -15 -16 -18 -20 -22 -24 -25 -26 -29 -31 -34 -37 -41 -48 -51 -41 -29 -38 -45 -40 -41 -39 -38 -37 -32 -44 -50 -49 -48 -40 -40 -41 -37 -29 -41 -39 -39 -39 -38 -39 -41 -38 -39 -41 -40 -36 -35 -33 -31 -31 -33 -33 -33 -33 -33 -33 -32 -32 -32 -26 -26 -29 -26 -26 -27 -25 -23 -21 -22 -24 -25 -25 -25 -24 -24 -25 -27 -27 -26 -24 -22 -21 -23 -22 -21 -19 -18 -17 -16 -17 -15 -14 -13 -13 -12 -14 -16 -16 -15 -13 -12 -4 1 3 5 5 4 5 5 1 4 2 1 5 3 2 8 4 -9 -24 -24 -24 -24 -25 -30 -30 -31 -28 -26 -26 -11 1 1 1 1 -7 1 2 1 -11 -16 -22 -28 -46 -47 -73 -87 -106 -104 -97 -94 -87 -80 -79 -69 -65 -67 -69 -46 -43 -41 -39 -37 -33 -37 -38 -43 -48 -53 -54 -46 -41 -41 -41 -44 -51 -56 -60 -63 -60 -50 -48 -48 -50 -49 -47 -44 -41 -35 -32 -33 -36 -38 -40 -43 -45 -48 -50 -51 -52 -53 -52 -54 -55 -58 -63 -65 -64 -61 -58 -56 -53 -51 -49 -48 -45 -43 -40 -36 -33 -32 -34 -35 -39 -45 -49 -51 -53 -54 -54 -53 -53 -54 -55 -56 -55 -53 -53 -52 -50 -51 -50 -47 -45 
-7 -6 -5 -6 -6 -6 -6 -7 -7 -8 -8 -8 -8 -8 -8 -8 -8 -8 -8 -8 -8 -8 -7 -7 -7 -7 -7 -7 -7 -7 -6 -6 -6 -6 -6 -6 -6 -6 -7 -7 -8 -8 -8 -8 -8 -9 -9 -9 -9 -9 -10 -12 -14 -15 -16 -15 -15 -15 -15 -16 -17 -19 -20 -19 -17 -15 -15 -14 -14 -13 -13 -12 -11 -11 -12 -13 -14 -16 -18 -20 -21 -24 -23 -23 -23 -23 -23 -24 -26 -27 -28 -29 -30 -30 -31 -31 -31 -31 -31 -31 -30 -29 -29 -28 -27 -26 -24 -24 -24 -22 -22 -21 -21 -20 -21 -21 -20 -18 -18 -17 -22 -29 -27 -28 -28 -27 -26 -27 -26 -25 -23 -20 -16 -15 -14 -13 -13 -13 -13 -14 -15 -16 -18 -19 -21 -21 -22 -24 -26 -28 -32 -35 -40 -49 -49 -57 -51 -50 -45 -46 -43 -46 -49 -45 -36 -47 -50 -49 -41 -38 -35 -35 -33 -28 -37 -39 -39 -43 -43 -43 -43 -41 -41 -41 -40 -39 -37 -36 -33 -32 -33 -37 -38 -37 -37 -38 -36 -36 -36 -30 -31 -33 -28 -26 -27 -27 -25 -22 -20 -20 -26 -27 -28 -27 -26 -28 -28 -28 -27 -26 -25 -23 -23 -23 -23 -22 -20 -19 -19 -19 -18 -17 -17 -16 -18 -18 -19 -19 -18 -15 -10 -4 2 4 5 4 3 3 3 1 4 1 1 3 5 8 8 8 4 -16 -26 -26 -28 -31 -32 -31 -25 -25 -26 -26 -17 -12 1 2 1 7 -15 1 1 1 -15 -26 -31 -64 -73 -87 -99 -100 -107 -96 -92 -83 -74 -68 -60 -61 -53 -49 -47 -43 -40 -39 -39 -43 -43 -45 -48 -48 -52 -52 -47 -41 -41 -41 -48 -53 -58 -61 -64 -59 -52 -49 -48 -48 -47 -44 -40 -32 -22 -14 -17 -21 -26 -30 -32 -36 -41 -42 -43 -43 -44 -43 -42 -46 -52 -59 -64 -62 -59 -55 -52 -51 -48 -49 -48 -47 -45 -43 -39 -38 -38 -39 -40 -43 -46 -49 -53 -54 -54 -54 -53 -53 -52 -52 -52 -51 -51 -49 -49 -49 -49 -46 -42 -37 
-5 -6 -5 -5 -6 -6 -6 -7 -7 -7 -7 -7 -8 -8 -8 -8 -8 -8 -8 -9 -9 -8 -8 -7 -7 -7 -6 -6 -6 -6 -5 -6 -6 -6 -6 -6 -6 -6 -7 -8 -8 -9 -9 -9 -9 -8 -9 -9 -9 -9 -10 -12 -13 -15 -15 -15 -15 -15 -15 -15 -16 -18 -18 -17 -15 -14 -14 -14 -14 -14 -14 -13 -12 -11 -12 -12 -12 -12 -16 -18 -20 -21 -21 -21 -20 -20 -21 -21 -24 -25 -26 -27 -28 -28 -29 -31 -31 -33 -33 -32 -32 -31 -30 -29 -29 -28 -26 -25 -25 -23 -22 -22 -22 -22 -24 -21 -20 -18 -18 -17 -17 -24 -26 -26 -28 -27 -27 -26 -25 -25 -24 -21 -17 -15 -14 -14 -13 -12 -13 -14 -15 -16 -17 -19 -19 -19 -20 -22 -23 -25 -28 -33 -37 -42 -46 -56 -46 -51 -47 -50 -47 -46 -42 -45 -52 -54 -49 -41 -40 -38 -35 -34 -31 -32 -32 -36 -33 -38 -41 -40 -39 -42 -43 -43 -42 -43 -41 -40 -38 -35 -36 -38 -40 -35 -36 -39 -39 -39 -37 -45 -44 -42 -35 -34 -33 -33 -33 -29 -20 -20 -29 -30 -31 -31 -32 -31 -30 -30 -29 -28 -27 -27 -26 -25 -24 -24 -23 -21 -20 -20 -21 -21 -19 -19 -20 -20 -20 -20 -18 -15 -10 0 3 5 4 3 2 2 2 4 4 1 1 2 2 4 3 3 2 -17 -29 -30 -30 -31 -31 -33 -31 -28 -27 -30 -24 -16 -25 2 3 3 2 6 5 18 -11 -32 -58 -79 -100 -105 -100 -102 -101 -83 -72 -67 -66 -64 -52 -50 -50 -47 -46 -41 -45 -45 -48 -47 -45 -45 -47 -48 -44 -37 -36 -40 -42 -46 -50 -53 -58 -61 -62 -58 -53 -50 -47 -46 -45 -43 -38 -28 -16 -7 -8 -11 -16 -21 -25 -29 -35 -35 -35 -35 -35 -36 -35 -37 -45 -54 -60 -58 -54 -50 -48 -47 -47 -48 -49 -48 -46 -45 -44 -44 -43 -42 -43 -45 -47 -51 -55 -56 -55 -54 -54 -52 -50 -49 -49 -50 -48 -47 -46 -47 -45 -42 -35 -28 
-5 -5 -5 -5 -5 -5 -5 -6 -6 -6 -7 -7 -7 -7 -8 -8 -8 -9 -9 -9 -9 -9 -8 -7 -6 -7 -6 -6 -6 -6 -5 -5 -6 -6 -6 -6 -6 -7 -7 -8 -9 -10 -10 -9 -9 -9 -8 -9 -9 -10 -10 -11 -13 -14 -14 -14 -14 -13 -14 -14 -15 -15 -15 -14 -14 -13 -14 -14 -15 -14 -15 -14 -12 -11 -11 -12 -12 -13 -14 -15 -17 -18 -19 -19 -19 -19 -19 -19 -20 -23 -23 -25 -26 -27 -28 -30 -32 -34 -35 -33 -32 -32 -32 -31 -30 -30 -29 -27 -25 -24 -23 -22 -22 -21 -22 -20 -20 -19 -18 -19 -21 -23 -24 -26 -27 -28 -27 -27 -26 -25 -24 -21 -17 -15 -14 -14 -12 -12 -12 -13 -15 -16 -16 -17 -18 -18 -18 -19 -21 -23 -27 -29 -32 -36 -39 -44 -47 -51 -47 -49 -48 -47 -40 -43 -49 -56 -56 -28 -21 -31 -34 -38 -33 -32 -32 -34 -36 -37 -38 -34 -32 -33 -38 -38 -42 -42 -41 -36 -38 -40 -40 -41 -41 -39 -39 -40 -38 -37 -37 -41 -39 -39 -40 -40 -38 -39 -42 -38 -36 -34 -34 -35 -35 -37 -36 -35 -34 -33 -32 -31 -31 -30 -29 -27 -28 -27 -25 -22 -23 -23 -23 -24 -24 -23 -22 -21 -21 -18 -16 -15 -11 4 4 4 4 3 1 2 2 2 3 3 4 1 1 -16 -6 -1 2 -20 -32 -32 -30 -30 -29 -35 -38 -31 -29 -40 -19 1 2 -17 5 13 8 9 -1 -27 -36 -64 -110 -130 -132 -102 -90 -83 -71 -61 -59 -58 -62 -56 -48 -48 -49 -47 -46 -53 -52 -51 -41 -38 -37 -36 -37 -38 -36 -19 -33 -40 -45 -50 -51 -53 -55 -58 -60 -56 -52 -48 -47 -46 -45 -42 -38 -26 -13 -2 -2 -4 -9 -14 -18 -23 -30 -27 -27 -28 -29 -30 -30 -33 -39 -48 -57 -52 -46 -42 -43 -43 -45 -47 -49 -48 -47 -45 -46 -50 -46 -45 -45 -44 -47 -54 -58 -58 -56 -55 -54 -52 -50 -47 -46 -47 -46 -45 -43 -44 -44 -37 -32 -25 
-5 -4 -4 -4 -4 -4 -5 -5 -6 -6 -6 -7 -7 -7 -8 -8 -8 -9 -9 -10 -10 -9 -9 -8 -7 -6 -6 -6 -6 -5 -5 -5 -6 -6 -6 -6 -6 -7 -8 -9 -10 -10 -10 -10 -9 -9 -8 -8 -9 -10 -9 -11 -12 -13 -13 -13 -12 -12 -11 -12 -11 -12 -12 -12 -12 -12 -13 -14 -14 -14 -14 -14 -13 -11 -11 -11 -12 -12 -13 -14 -15 -16 -16 -17 -17 -17 -17 -18 -19 -20 -21 -22 -24 -25 -28 -30 -33 -35 -35 -34 -33 -32 -33 -31 -32 -31 -31 -29 -27 -26 -24 -23 -23 -22 -21 -20 -20 -19 -19 -19 -19 -21 -23 -24 -26 -28 -27 -26 -24 -23 -21 -19 -18 -15 -14 -14 -12 -12 -12 -13 -14 -15 -15 -15 -16 -16 -17 -17 -18 -21 -23 -25 -27 -31 -33 -36 -40 -43 -48 -47 -49 -47 -49 -49 -49 -52 -36 -24 -23 -32 -34 -34 -34 -33 -33 -35 -37 -37 -36 -35 -35 -32 -32 -34 -34 -34 -31 -25 -27 -32 -42 -42 -42 -42 -41 -42 -42 -40 -40 -40 -34 -35 -34 -34 -34 -39 -41 -43 -48 -40 -39 -39 -39 -41 -41 -41 -40 -37 -36 -34 -35 -33 -31 -31 -30 -29 -27 -27 -27 -27 -27 -27 -27 -26 -23 -21 -18 -14 -14 -13 -10 -3 1 6 7 1 1 1 2 2 2 4 6 2 2 1 1 0 2 -11 -29 -32 -31 -28 -27 -29 -29 -27 -27 -40 -24 2 3 -4 1 6 4 -23 -24 -63 -67 -107 -152 -146 -139 -108 -84 -75 -63 -76 -74 -70 -66 -52 -50 -48 -46 -39 -42 -44 -42 -38 -34 -31 -27 -27 -29 -32 -33 -34 -37 -42 -46 -49 -51 -51 -52 -53 -55 -52 -49 -47 -45 -44 -43 -41 -36 -26 -13 -3 0 1 -4 -8 -11 -11 -11 -16 -19 -21 -24 -26 -25 -26 -30 -35 -38 -37 -35 -34 -36 -39 -42 -45 -47 -48 -45 -44 -45 -48 -47 -46 -44 -42 -44 -55 -63 -61 -55 -54 -54 -51 -48 -46 -44 -44 -44 -44 -39 -36 -34 -30 -26 -21 
-5 -4 -3 -3 -3 -4 -5 -5 -6 -6 -6 -6 -7 -7 -7 -8 -8 -9 -9 -10 -10 -10 -9 -8 -7 -6 -6 -6 -6 -5 -5 -5 -6 -6 -6 -6 -6 -7 -7 -9 -10 -10 -10 -10 -9 -9 -8 -8 -9 -9 -10 -10 -11 -12 -12 -11 -11 -9 -9 -9 -9 -9 -9 -10 -11 -11 -13 -13 -14 -15 -15 -14 -13 -11 -11 -11 -11 -11 -12 -13 -13 -13 -14 -14 -15 -15 -15 -15 -16 -17 -19 -21 -22 -24 -26 -30 -33 -35 -35 -35 -34 -33 -33 -32 -32 -32 -33 -31 -28 -26 -25 -24 -23 -22 -21 -20 -20 -19 -19 -18 -19 -20 -22 -24 -27 -27 -27 -24 -23 -21 -20 -18 -16 -14 -14 -12 -12 -12 -12 -13 -13 -14 -15 -15 -15 -14 -15 -16 -17 -19 -20 -21 -23 -25 -26 -29 -33 -38 -43 -50 -50 -52 -53 -51 -50 -51 -37 -32 -32 -35 -36 -37 -35 -35 -35 -36 -37 -36 -36 -35 -34 -32 -32 -33 -32 -31 -28 -22 -22 -27 -42 -38 -41 -42 -42 -42 -42 -41 -40 -39 -35 -36 -36 -35 -35 -39 -39 -40 -46 -43 -42 -43 -43 -44 -45 -44 -43 -42 -40 -38 -36 -36 -35 -34 -32 -31 -31 -31 -30 -31 -31 -30 -28 -27 -25 -23 -18 -16 -13 -12 -8 1 1 6 8 4 3 2 2 1 0 1 3 5 5 2 1 1 2 -9 -27 -41 -38 -28 -24 -25 -25 -25 -26 -40 -38 -6 -5 -7 -2 1 -1 -30 -55 -68 -72 -137 -155 -160 -140 -108 -88 -88 -81 -77 -72 -72 -63 -57 -54 -49 -49 -43 -41 -38 -35 -31 -25 -23 -20 -18 -22 -26 -31 -35 -38 -42 -47 -48 -47 -46 -45 -47 -47 -46 -44 -43 -42 -40 -41 -39 -35 -25 -13 -4 0 1 -2 -4 -5 -5 -6 -9 -13 -15 -19 -23 -21 -20 -21 -23 -22 -24 -23 -26 -30 -33 -38 -41 -45 -44 -41 -39 -42 -44 -45 -45 -45 -40 -37 -56 -71 -60 -51 -47 -47 -46 -46 -45 -39 -41 -44 -44 -31 -29 -25 -23 -20 -16 
-5 -4 -3 -3 -3 -3 -4 -5 -5 -5 -6 -6 -6 -7 -7 -7 -8 -8 -9 -9 -9 -9 -9 -8 -7 -6 -5 -5 -5 -5 -5 -6 -6 -6 -6 -6 -6 -6 -7 -8 -9 -10 -10 -10 -9 -8 -8 -8 -9 -10 -10 -10 -10 -10 -9 -9 -8 -8 -8 -8 -8 -7 -7 -8 -10 -11 -11 -13 -15 -15 -16 -14 -12 -12 -12 -10 -10 -10 -11 -11 -11 -11 -12 -13 -13 -13 -13 -14 -15 -15 -17 -18 -21 -22 -24 -28 -32 -35 -35 -35 -34 -33 -33 -33 -33 -33 -33 -31 -30 -27 -25 -25 -23 -22 -21 -20 -20 -19 -19 -18 -18 -19 -21 -23 -26 -26 -25 -23 -21 -19 -18 -16 -14 -14 -13 -12 -12 -12 -13 -13 -14 -14 -15 -15 -14 -14 -13 -15 -14 -15 -17 -19 -19 -19 -20 -23 -25 -30 -38 -50 -50 -50 -52 -51 -51 -51 -52 -51 -50 -43 -41 -40 -38 -38 -38 -38 -37 -37 -36 -36 -34 -33 -33 -33 -25 -31 -30 -28 -26 -23 -25 -25 -30 -32 -33 -36 -41 -38 -38 -36 -38 -41 -42 -42 -40 -38 -37 -38 -43 -44 -46 -47 -46 -46 -47 -48 -47 -44 -43 -40 -40 -39 -37 -36 -34 -33 -32 -33 -32 -33 -32 -31 -30 -29 -26 -23 -20 -17 -14 -11 -6 1 4 7 10 11 9 4 3 0 -5 -6 1 2 6 2 3 3 3 3 -46 -59 -48 -28 -20 -24 -26 -28 -31 -34 -32 -39 -36 -25 -23 -32 -47 -54 -75 -61 -101 -156 -165 -146 -138 -122 -97 -91 -73 -72 -66 -63 -58 -57 -57 -47 -43 -41 -38 -34 -29 -24 -19 -17 -15 -12 -16 -24 -29 -36 -40 -43 -45 -45 -41 -38 -37 -37 -39 -38 -35 -35 -34 -34 -35 -35 -34 -22 -11 -2 1 1 -1 -1 -2 -1 -3 -6 -11 -13 -15 -18 -17 -14 -21 -20 -18 -21 -20 -20 -25 -28 -32 -37 -40 -39 -38 -37 -39 -41 -43 -43 -41 -40 -49 -56 -57 -48 -42 -37 -40 -40 -40 -43 -29 -32 -35 -33 -28 -25 -22 -19 -16 -12 
-5 -5 -4 -3 -3 -3 -4 -5 -5 -6 -6 -6 -6 -7 -7 -7 -7 -7 -7 -8 -8 -8 -8 -8 -6 -6 -6 -6 -6 -6 -6 -6 -6 -6 -6 -6 -6 -6 -7 -8 -9 -9 -10 -9 -8 -8 -8 -8 -9 -10 -10 -10 -9 -9 -9 -8 -8 -7 -8 -8 -8 -8 -8 -9 -10 -10 -11 -13 -15 -15 -15 -13 -12 -12 -12 -10 -10 -9 -9 -10 -11 -11 -11 -12 -12 -12 -12 -13 -14 -14 -16 -17 -18 -21 -23 -26 -29 -33 -34 -34 -33 -33 -32 -32 -33 -33 -33 -31 -29 -28 -26 -25 -24 -23 -23 -22 -20 -20 -18 -18 -18 -18 -19 -22 -23 -24 -23 -21 -20 -18 -17 -14 -14 -13 -12 -12 -12 -12 -13 -13 -14 -15 -15 -15 -14 -13 -13 -13 -14 -14 -15 -15 -16 -16 -18 -18 -20 -26 -36 -50 -50 -51 -48 -51 -53 -50 -55 -52 -52 -52 -53 -45 -42 -38 -38 -38 -39 -40 -38 -36 -35 -35 -35 -34 -32 -34 -34 -32 -29 -26 -23 -23 -26 -27 -29 -23 -32 -28 -35 -42 -43 -38 -40 -43 -41 -40 -42 -42 -41 -41 -42 -46 -47 -47 -49 -50 -50 -46 -44 -42 -41 -39 -38 -37 -34 -35 -35 -35 -34 -34 -34 -32 -31 -29 -26 -23 -20 -18 -16 -13 -6 1 3 6 7 7 7 5 1 1 -15 -18 -8 -6 2 4 3 1 1 3 -43 -57 -10 -4 -13 -23 -25 -25 -26 -37 -37 -40 -42 -38 -40 -41 -46 -52 -69 -92 -188 -192 -134 -134 -114 -108 -113 -86 -69 -64 -60 -56 -57 -58 -57 -42 -39 -36 -32 -30 -25 -22 -17 -16 -16 -20 -25 -30 -32 -38 -42 -41 -38 -35 -30 -26 -24 -24 -24 -22 -21 -20 -21 -23 -25 -25 -23 -15 -6 2 1 1 0 -1 -1 -2 -2 -9 -10 -11 -12 -15 -16 -14 -17 -16 -16 -17 -17 -18 -20 -23 -27 -30 -32 -32 -33 -35 -38 -39 -40 -38 -37 -36 -59 -55 -47 -34 -33 -33 -34 -33 -30 -31 -26 -27 -28 -27 -25 -22 -21 -17 -15 -12 
-5 -5 -5 -4 -4 -4 -4 -4 -6 -5 -5 -5 -5 -5 -6 -6 -5 -5 -5 -6 -7 -7 -8 -7 -7 -7 -7 -8 -8 -8 -7 -7 -6 -6 -6 -5 -5 -6 -6 -7 -8 -9 -9 -9 -8 -7 -7 -8 -9 -10 -10 -9 -9 -9 -8 -8 -8 -8 -8 -9 -9 -10 -10 -10 -9 -10 -11 -12 -14 -13 -14 -13 -12 -11 -10 -10 -9 -9 -9 -10 -10 -11 -11 -12 -11 -11 -11 -12 -12 -13 -14 -16 -17 -18 -21 -24 -27 -30 -31 -33 -32 -32 -31 -32 -32 -33 -32 -31 -29 -27 -27 -26 -25 -24 -24 -23 -22 -20 -19 -19 -18 -17 -17 -19 -20 -21 -20 -19 -18 -17 -14 -14 -13 -12 -11 -11 -12 -12 -12 -13 -15 -16 -16 -15 -14 -13 -12 -12 -12 -14 -13 -13 -14 -15 -16 -15 -14 -21 -34 -42 -45 -51 -50 -52 -47 -52 -54 -54 -54 -53 -53 -52 -50 -46 -45 -38 -39 -40 -39 -37 -36 -35 -35 -34 -41 -38 -43 -40 -29 -28 -26 -26 -26 -28 -28 -24 -28 -24 -31 -39 -36 -23 -36 -36 -36 -38 -37 -41 -38 -36 -42 -44 -45 -44 -44 -47 -45 -48 -46 -45 -44 -41 -38 -33 -31 -33 -38 -38 -37 -35 -35 -33 -32 -30 -27 -25 -22 -21 -20 -18 -10 1 3 5 6 6 6 5 1 -1 -31 -36 -36 -31 -17 -2 1 1 1 2 -12 -12 2 1 -6 -20 -28 -28 -32 -38 -39 -42 -46 -45 -38 -33 -46 -52 -65 -93 -162 -169 -94 -111 -130 -86 -76 -56 -58 -61 -61 -57 -56 -41 -36 -35 -32 -30 -29 -26 -24 -21 -17 -20 -25 -31 -38 -40 -44 -43 -40 -35 -27 -21 -16 -13 -11 -11 -10 -7 -6 -7 -7 -12 -15 -15 -13 -8 -2 2 1 1 3 -1 2 3 3 1 -6 -8 -9 -12 -14 -13 -12 -12 -12 -13 -13 -11 -14 -18 -21 -24 -25 -24 -28 -32 -35 -36 -38 -36 -35 -36 -45 -46 -40 -32 -31 -31 -31 -30 -27 -25 -22 -23 -24 -23 -18 -17 -17 -15 -13 -11 
-5 -5 -4 -4 -4 -4 -5 -5 -5 -6 -6 -6 -6 -6 -6 -6 -5 -4 -4 -5 -6 -7 -6 -7 -7 -8 -8 -8 -9 -9 -8 -7 -6 -6 -6 -5 -6 -6 -6 -7 -7 -8 -8 -8 -7 -7 -7 -7 -8 -9 -9 -9 -9 -8 -8 -8 -8 -8 -8 -9 -10 -11 -11 -10 -10 -10 -11 -12 -12 -12 -13 -12 -11 -11 -10 -10 -9 -9 -8 -9 -10 -10 -10 -10 -10 -10 -10 -10 -11 -13 -12 -14 -16 -16 -18 -22 -25 -27 -29 -30 -30 -29 -29 -30 -30 -31 -31 -30 -30 -28 -27 -27 -27 -26 -27 -24 -22 -22 -20 -18 -18 -17 -17 -18 -18 -18 -18 -18 -17 -15 -14 -13 -12 -11 -11 -11 -12 -11 -12 -14 -16 -17 -17 -15 -13 -13 -12 -12 -12 -12 -11 -11 -12 -13 -17 -10 -8 -19 -36 -40 -41 -40 -43 -46 -46 -49 -52 -50 -54 -53 -53 -53 -51 -49 -48 -47 -46 -42 -40 -38 -36 -33 -32 -31 -33 -36 -37 -40 -35 -27 -25 -25 -25 -25 -23 -24 -24 -23 -27 -32 -31 -33 -34 -34 -34 -34 -24 -29 -34 -28 -42 -46 -38 -44 -45 -45 -46 -50 -50 -47 -46 -44 -42 -37 -30 -38 -40 -40 -41 -37 -37 -36 -34 -31 -27 -25 -24 -23 -22 -21 -15 -8 -3 0 1 2 2 2 -7 -19 -53 -42 -39 -34 -11 -1 1 1 1 -5 -13 -12 -10 -12 -17 -25 -31 -30 -31 -34 -37 -41 -50 -44 -42 -39 -43 -62 -66 -89 -90 -83 -91 -61 -71 -68 -52 -45 -50 -39 -39 -37 -34 -30 -29 -27 -27 -25 -25 -25 -25 -24 -23 -26 -31 -40 -46 -43 -41 -41 -37 -28 -15 -9 -4 1 1 -6 1 1 -1 -2 -2 -6 -7 -7 -5 -2 2 3 1 1 7 5 2 4 4 4 3 1 -5 -9 -10 -9 -8 -8 -9 -11 -8 -7 -10 -14 -17 -20 -22 -23 -29 -33 -35 -36 -35 -35 -33 -33 -34 -39 -35 -30 -29 -29 -30 -27 -25 -22 -19 -19 -21 -22 -18 -15 -14 -11 -11 -10 
-5 -4 -4 -4 -4 -5 -5 -6 -6 -7 -7 -7 -7 -6 -6 -6 -5 -4 -3 -4 -6 -8 -7 -8 -8 -8 -9 -9 -9 -9 -8 -7 -7 -6 -5 -6 -6 -6 -6 -7 -7 -7 -7 -7 -7 -6 -6 -7 -8 -9 -9 -9 -9 -8 -8 -8 -8 -8 -9 -10 -11 -12 -12 -11 -10 -10 -10 -11 -10 -10 -11 -12 -11 -10 -10 -10 -9 -9 -8 -8 -9 -10 -9 -10 -10 -10 -9 -10 -11 -11 -12 -13 -14 -15 -16 -20 -22 -24 -26 -27 -27 -28 -28 -28 -29 -30 -29 -30 -29 -29 -29 -28 -27 -26 -26 -24 -23 -22 -20 -20 -18 -18 -18 -17 -17 -17 -17 -17 -15 -14 -13 -12 -11 -11 -11 -11 -11 -11 -12 -14 -16 -17 -17 -15 -13 -12 -12 -13 -13 -11 -9 -10 -9 -3 3 0 -1 -12 -28 -36 -36 -34 -38 -43 -44 -47 -50 -49 -52 -53 -54 -53 -54 -50 -47 -47 -46 -44 -41 -38 -36 -33 -28 -24 -28 -31 -32 -31 -29 -27 -25 -24 -23 -22 -22 -22 -23 -23 -25 -27 -30 -31 -32 -32 -32 -32 -21 -22 -24 -23 -27 -29 -25 -40 -44 -45 -43 -53 -56 -50 -48 -50 -50 -37 -36 -39 -39 -40 -44 -46 -48 -47 -43 -32 -28 -26 -25 -25 -27 -26 -22 -14 -7 -4 6 1 2 2 -7 -16 -25 -27 -23 -17 -10 1 1 1 1 -9 -14 -13 -13 -16 -20 -32 -31 -30 -30 -31 -39 -44 -44 -36 -51 -43 -73 -76 -117 -92 -82 -73 -50 -54 -30 -69 -49 -43 -35 -29 -29 -27 -25 -21 -23 -23 -23 -23 -24 -25 -27 -30 -29 -30 -35 -42 -41 -36 -33 -36 -30 -17 -3 1 1 1 3 3 2 1 -1 -1 -2 -3 -3 -1 3 3 2 2 2 3 11 10 6 13 20 18 8 2 1 -6 -8 -6 -4 -4 -1 -1 -1 -1 -6 -10 -14 -15 -19 -25 -29 -34 -36 -35 -34 -33 -32 -32 -35 -39 -35 -29 -28 -28 -28 -26 -24 -22 -19 -19 -18 -18 -16 -14 -11 -9 -9 -8 
-4 -3 -4 -4 -4 -5 -6 -7 -8 -9 -9 -9 -9 -9 -8 -7 -6 -5 -4 -6 -7 -8 -8 -9 -9 -9 -9 -9 -8 -8 -8 -7 -7 -6 -6 -6 -6 -7 -7 -7 -7 -7 -7 -7 -6 -6 -6 -7 -8 -9 -9 -9 -9 -8 -8 -8 -7 -8 -8 -10 -11 -11 -11 -11 -10 -10 -10 -11 -10 -10 -11 -11 -10 -10 -9 -10 -9 -9 -9 -9 -9 -9 -9 -9 -8 -8 -8 -9 -10 -11 -12 -12 -13 -14 -15 -18 -20 -21 -23 -24 -25 -26 -26 -27 -27 -28 -29 -29 -29 -30 -30 -30 -28 -26 -26 -25 -23 -22 -22 -20 -19 -18 -18 -17 -17 -17 -17 -15 -14 -14 -13 -11 -11 -11 -11 -11 -11 -12 -12 -14 -15 -15 -16 -15 -14 -14 -16 -16 -14 -12 -9 -12 -10 1 1 1 -5 -15 -27 -37 -37 -37 -40 -41 -42 -44 -46 -47 -49 -51 -52 -54 -54 -50 -46 -46 -46 -42 -42 -40 -36 -32 -29 -24 -26 -26 -26 -27 -25 -24 -23 -22 -21 -21 -21 -22 -23 -24 -25 -28 -30 -30 -31 -32 -32 -32 -31 -27 -24 -22 -24 -24 -26 -30 -32 -27 -24 -42 -45 -46 -47 -51 -55 -58 -52 -45 -45 -44 -44 -48 -48 -42 -38 -34 -33 -26 -26 -28 -31 -33 -30 -23 -14 -6 3 2 4 2 -5 -12 -16 -17 -14 -11 -7 -5 -6 -6 -11 -15 -19 -18 -16 -18 -22 -27 -28 -28 -29 -34 -42 -52 -45 -66 -83 -89 -63 -80 -97 -69 -64 -74 -61 -60 -39 -33 -34 -31 -30 -28 -28 -25 -24 -24 -23 -21 -24 -26 -28 -30 -30 -32 -32 -33 -34 -36 -32 -29 -28 -27 -21 -10 -1 2 6 7 13 13 5 1 -7 -4 -2 -1 -1 1 3 4 6 6 7 11 12 10 9 17 20 23 16 10 4 2 -8 -5 -3 -2 -1 -1 -1 -1 -5 -9 -13 -15 -20 -26 -32 -37 -37 -35 -33 -31 -31 -31 -32 -34 -31 -27 -26 -24 -24 -23 -21 -20 -18 -16 -16 -15 -13 -11 -9 -8 -6 -6 
-3 -3 -3 -4 -5 -5 -6 -7 -8 -10 -11 -11 -11 -10 -9 -7 -7 -6 -7 -7 -7 -10 -10 -8 -9 -8 -9 -9 -8 -7 -8 -7 -7 -6 -6 -6 -7 -8 -8 -8 -7 -7 -6 -6 -6 -6 -6 -7 -8 -9 -9 -9 -8 -7 -8 -7 -8 -8 -9 -9 -10 -10 -10 -10 -10 -10 -10 -11 -10 -10 -11 -11 -10 -10 -9 -10 -10 -9 -9 -9 -9 -8 -8 -8 -8 -8 -8 -9 -9 -10 -11 -11 -13 -14 -15 -17 -18 -20 -21 -22 -23 -24 -24 -24 -26 -27 -27 -29 -30 -32 -32 -31 -29 -28 -26 -25 -24 -23 -22 -21 -20 -19 -18 -17 -17 -17 -16 -15 -14 -14 -12 -12 -11 -11 -11 -11 -12 -12 -13 -13 -13 -13 -14 -14 -14 -16 -19 -19 -18 -16 -15 -17 -20 -16 -13 -12 -13 -21 -27 -33 -38 -41 -41 -38 -37 -38 -41 -43 -46 -48 -51 -52 -53 -46 -48 -49 -49 -44 -44 -42 -39 -35 -32 -29 -26 -25 -24 -25 -24 -22 -21 -19 -19 -19 -20 -21 -23 -28 -28 -28 -29 -29 -30 -30 -31 -33 -34 -40 -40 -26 -25 -26 -24 -25 -27 -33 -34 -35 -37 -35 -37 -38 -41 -41 -41 -41 -47 -54 -50 -50 -50 -46 -35 -34 -32 -27 -23 -30 -36 -44 -63 -30 -19 -6 8 7 3 1 -2 -9 -13 -10 -7 -7 -9 -11 -13 -17 -22 -25 -26 -23 -18 -21 -21 -18 -24 -30 -46 -47 -50 -56 -70 -85 -105 -107 -97 -111 -93 -49 -62 -62 -45 -33 -22 -18 -19 -23 -26 -30 -31 -26 -24 -25 -26 -25 -27 -29 -33 -33 -34 -34 -33 -32 -30 -31 -27 -24 -22 -20 -14 -5 1 3 14 28 23 11 3 -4 -3 -4 -2 -1 0 0 1 3 1 2 4 16 16 10 9 15 20 24 25 23 17 13 8 2 -3 -2 -1 -1 -1 -1 -4 -10 -15 -15 -22 -27 -35 -43 -43 -34 -31 -29 -27 -27 -27 -27 -25 -24 -22 -21 -20 -19 -18 -17 -16 -14 -14 -11 -6 -6 -6 -6 -5 -4 
-3 -3 -4 -4 -5 -6 -7 -8 -9 -9 -10 -10 -10 -10 -8 -7 -6 -7 -7 -6 -7 -8 -9 -9 -9 -9 -9 -10 -9 -9 -9 -7 -7 -6 -6 -7 -8 -8 -8 -8 -8 -7 -6 -6 -6 -6 -6 -7 -8 -9 -8 -8 -7 -7 -7 -7 -8 -8 -9 -9 -9 -9 -9 -10 -10 -10 -10 -10 -11 -10 -11 -10 -10 -10 -9 -9 -10 -10 -10 -9 -9 -9 -8 -8 -8 -8 -8 -8 -9 -9 -10 -12 -12 -13 -14 -16 -17 -18 -20 -21 -22 -22 -23 -23 -24 -26 -27 -28 -29 -30 -30 -31 -29 -29 -27 -25 -23 -23 -21 -21 -20 -20 -18 -18 -18 -16 -16 -15 -15 -13 -12 -12 -12 -11 -11 -12 -12 -13 -12 -13 -13 -13 -12 -13 -13 -16 -18 -20 -20 -20 -19 -23 -26 -25 -23 -20 -20 -22 -25 -30 -35 -42 -35 -31 -28 -27 -30 -34 -42 -48 -51 -52 -54 -49 -50 -53 -59 -49 -44 -45 -46 -38 -36 -33 -30 -26 -21 -21 -21 -20 -18 -18 -17 -18 -19 -22 -23 -28 -28 -28 -28 -27 -29 -28 -30 -33 -36 -43 -38 -27 -25 -26 -24 -25 -28 -30 -27 -26 -26 -28 -32 -34 -35 -37 -30 -32 -42 -39 -49 -52 -57 -56 -53 -45 -34 -23 -28 -31 -38 -44 -63 -33 -23 -13 2 2 1 19 16 1 -8 -6 -7 -10 -14 -18 -22 -26 -30 -34 -37 -29 -15 -23 -19 -22 -33 -50 -62 -72 -71 -40 -89 -72 -98 -89 -94 -104 -89 -65 -60 -62 -36 -24 -8 -6 -10 -16 -22 -28 -32 -28 -27 -28 -29 -27 -29 -31 -32 -34 -34 -34 -31 -28 -27 -25 -23 -16 -18 -19 1 1 2 2 19 37 29 10 3 1 -5 -3 -2 -2 -1 0 1 2 2 4 18 16 12 11 11 23 38 41 40 34 27 30 23 8 3 -2 -2 -1 -1 -1 -6 -10 -15 -15 -21 -27 -33 -43 -43 -32 -29 -27 -25 -23 -24 -22 -22 -20 -19 -18 -16 -15 -15 -14 -13 -12 -12 -9 -6 -6 -6 -6 -4 -1 
-3 -4 -4 -6 -6 -8 -8 -8 -7 -8 -8 -8 -8 -8 -7 -6 -6 -6 -5 -5 -5 -6 -7 -9 -9 -10 -11 -10 -9 -9 -9 -8 -7 -7 -7 -8 -8 -8 -8 -8 -8 -7 -6 -6 -5 -5 -6 -7 -8 -7 -8 -7 -7 -7 -7 -7 -8 -8 -8 -8 -8 -8 -9 -9 -10 -10 -11 -10 -10 -11 -11 -10 -10 -9 -9 -10 -11 -11 -11 -10 -10 -9 -9 -8 -8 -8 -8 -8 -9 -9 -9 -11 -12 -13 -13 -15 -17 -17 -18 -19 -20 -21 -22 -22 -23 -24 -25 -26 -26 -27 -28 -28 -29 -29 -25 -23 -22 -21 -21 -20 -20 -21 -20 -19 -18 -16 -16 -15 -15 -14 -13 -13 -12 -12 -12 -12 -13 -12 -13 -13 -13 -13 -12 -13 -14 -17 -19 -20 -21 -23 -24 -28 -33 -30 -28 -25 -23 -22 -20 -21 -26 -27 -20 -20 -17 -15 -16 -25 -39 -50 -54 -53 -49 -46 -44 -50 -55 -52 -47 -44 -44 -46 -45 -39 -37 -35 -21 -20 -17 -16 -16 -14 -16 -17 -19 -21 -23 -25 -26 -26 -25 -24 -28 -28 -27 -30 -30 -33 -29 -26 -22 -20 -20 -22 -26 -36 -30 -26 -26 -28 -27 -28 -31 -38 -37 -32 -38 -33 -38 -40 -45 -62 -71 -53 -46 -33 -39 -39 -35 -35 -34 -31 -27 -22 -13 -3 3 1 3 5 1 -5 -9 -15 -21 -26 -30 -35 -38 -43 -32 -25 -26 -29 -24 -25 -34 -56 -57 -86 -95 -68 -71 -88 -123 -68 -77 -98 -92 -51 -39 -30 -23 -23 1 1 11 -10 -17 -23 -27 -28 -29 -31 -34 -35 -35 -32 -29 -28 -28 -29 -26 -22 -20 -20 -18 -14 -12 -8 1 1 2 3 17 27 20 10 12 7 2 -4 -4 -3 -2 -1 1 3 3 8 22 22 19 17 15 25 40 41 44 40 35 34 26 17 8 4 -2 -2 -2 -3 -8 -12 -15 -17 -19 -24 -28 -30 -30 -28 -25 -23 -22 -21 -20 -19 -17 -17 -15 -14 -13 -12 -12 -11 -11 -10 -8 -8 -6 -7 -6 -4 -4 -2 
-4 -4 -5 -6 -8 -9 -9 -8 -7 -6 -6 -5 -5 -6 -5 -4 -3 -3 -3 -2 -1 -4 -5 -7 -10 -11 -13 -12 -11 -9 -8 -7 -8 -7 -8 -8 -8 -9 -9 -8 -7 -7 -6 -6 -5 -5 -5 -6 -6 -7 -7 -7 -6 -6 -6 -7 -7 -8 -8 -8 -8 -7 -7 -9 -11 -11 -11 -10 -10 -10 -10 -10 -9 -9 -9 -10 -10 -12 -12 -11 -10 -9 -9 -8 -8 -8 -8 -8 -8 -9 -9 -11 -12 -12 -14 -15 -16 -16 -17 -18 -19 -20 -20 -22 -22 -23 -22 -23 -23 -23 -24 -25 -25 -24 -21 -21 -19 -20 -19 -20 -21 -21 -21 -21 -18 -17 -16 -16 -15 -14 -14 -13 -13 -13 -13 -12 -13 -13 -14 -14 -15 -14 -14 -14 -15 -17 -20 -21 -22 -24 -25 -28 -29 -31 -31 -24 -20 -15 -11 -10 -14 -18 -19 -16 1 6 2 -17 -38 -54 -59 -59 -56 -53 -50 -47 -51 -51 -50 -45 -45 -44 -43 -43 -45 -47 -47 -32 -26 -21 -14 -13 -16 -17 -20 -22 -22 -25 -25 -25 -25 -25 -27 -27 -27 -28 -28 -28 -26 -23 -21 -16 -16 -16 -21 -24 -24 -23 -25 -30 -29 -30 -32 -34 -32 -31 -31 -29 -25 -22 -26 -32 -37 -36 -45 -53 -53 -47 -29 -28 -28 -31 -32 -30 -25 -14 4 6 9 4 17 -2 -14 -22 -28 -32 -35 -42 -46 -46 -44 -32 -33 -38 -28 -25 -34 -40 -52 -43 -41 -84 -100 -115 -97 -85 -84 -80 -55 -31 -21 -13 -8 -19 1 2 1 -5 -10 -16 -21 -24 -27 -33 -41 -42 -38 -32 -26 -24 -22 -22 -21 -18 -15 -12 -12 -11 -8 -5 1 1 3 6 14 17 14 18 21 19 7 1 -4 -4 -3 -2 0 1 3 4 13 20 29 26 19 22 30 34 40 44 43 41 32 29 18 8 9 -2 -2 -5 -10 -13 -15 -18 -19 -20 -23 -24 -24 -22 -22 -20 -19 -18 -17 -15 -15 -13 -12 -11 -9 -10 -9 -9 -8 -8 -8 -7 -5 -5 -5 -5 -4 -3 
-4 -5 -6 -8 -10 -11 -10 -7 -5 -3 -1 -1 -1 -1 -1 -1 0 0 1 1 1 0 -2 -5 -9 -12 -15 -14 -12 -11 -9 -8 -7 -7 -8 -7 -8 -9 -9 -8 -7 -7 -7 -6 -5 -5 -5 -4 -5 -6 -6 -6 -6 -6 -6 -6 -6 -6 -8 -8 -7 -7 -7 -8 -10 -10 -10 -10 -10 -10 -10 -10 -9 -9 -9 -10 -11 -13 -13 -12 -11 -10 -9 -9 -8 -8 -8 -8 -9 -9 -9 -11 -11 -12 -12 -14 -15 -16 -16 -17 -18 -19 -20 -21 -22 -21 -21 -21 -22 -22 -21 -22 -22 -21 -19 -17 -17 -16 -17 -19 -20 -22 -24 -22 -20 -18 -17 -16 -16 -16 -15 -14 -14 -14 -13 -13 -13 -14 -14 -15 -16 -16 -15 -15 -15 -17 -19 -19 -20 -22 -23 -24 -25 -24 -23 -19 -14 -6 0 1 -5 -10 -11 3 11 27 14 -11 -36 -57 -62 -60 -57 -55 -53 -51 -50 -50 -48 -46 -46 -45 -43 -43 -45 -46 -46 -36 -32 -27 -22 -20 -19 -20 -19 -21 -23 -24 -26 -25 -25 -24 -25 -26 -26 -27 -26 -26 -24 -21 -19 -16 -16 -16 -16 -18 -20 -23 -25 -27 -28 -28 -29 -30 -30 -28 -27 -26 -25 -22 -20 -17 -17 -18 -25 -42 -38 -43 -33 -35 -32 -31 -33 -41 -43 -32 -14 5 5 4 -6 -10 -21 -31 -35 -39 -46 -42 -42 -42 -41 -31 -33 -32 -29 -23 -50 -43 -36 -29 -34 -46 -43 -45 -47 -60 -63 -53 -28 -6 -4 -2 1 -4 2 1 1 2 2 -4 -13 -20 -24 -29 -35 -35 -29 -23 -21 -20 -17 -17 -16 -13 -10 -8 -7 -7 -3 -1 1 2 4 7 14 17 22 31 27 27 15 4 -5 -6 -5 -3 0 1 2 3 3 6 26 31 25 29 31 42 43 40 34 36 35 28 18 8 6 -3 -2 -6 -12 -14 -15 -16 -15 -13 -16 -20 -17 -18 -18 -19 -17 -17 -15 -13 -11 -10 -10 -8 -7 -7 -7 -7 -7 -7 -6 -6 -5 -5 -5 -6 -5 -3 
-4 -4 -6 -8 -11 -13 -10 -7 -4 1 2 1 1 1 1 1 1 1 2 2 1 -1 0 -4 -9 -12 -16 -14 -12 -11 -9 -7 -6 -6 -7 -7 -8 -9 -8 -8 -8 -7 -6 -7 -7 -5 -3 -4 -4 -5 -5 -5 -5 -5 -5 -5 -5 -6 -6 -7 -6 -7 -7 -8 -9 -9 -9 -10 -10 -10 -9 -9 -9 -9 -9 -10 -11 -12 -13 -13 -11 -10 -9 -9 -8 -8 -8 -8 -9 -9 -10 -10 -11 -11 -12 -12 -13 -15 -15 -16 -17 -19 -19 -21 -21 -21 -20 -20 -16 -16 -18 -20 -20 -19 -17 -16 -14 -12 -15 -17 -20 -24 -25 -24 -21 -18 -17 -16 -16 -17 -16 -16 -16 -14 -13 -14 -14 -14 -15 -16 -18 -20 -18 -15 -14 -13 -15 -16 -17 -19 -21 -19 -20 -17 -15 -14 -11 -2 0 1 -2 -5 -8 17 58 101 48 7 -30 -59 -61 -58 -56 -55 -55 -53 -50 -44 -43 -46 -46 -45 -46 -45 -44 -44 -45 -39 -37 -31 -27 -24 -22 -21 -20 -21 -22 -24 -27 -26 -25 -23 -23 -23 -25 -24 -24 -23 -21 -20 -20 -17 -16 -16 -14 -14 -19 -23 -25 -25 -26 -27 -25 -27 -26 -25 -23 -21 -21 -15 -15 -16 -20 -27 -30 -31 -29 -27 -28 -49 -38 -27 -36 -56 -57 -57 -26 -14 -11 -9 -25 -26 -28 -37 -37 -41 -47 -44 -34 -27 -38 -33 -51 -50 -43 -33 -42 -52 -44 -27 -27 -32 -31 -34 -35 -37 -39 -44 -15 1 5 -1 3 2 8 2 -2 12 4 -1 -10 -18 -19 -21 -30 -26 -21 -16 -14 -16 -16 -15 -15 -11 -7 -4 -4 -3 2 3 2 2 9 6 18 26 32 33 29 26 14 4 1 2 1 1 -1 0 1 3 5 13 23 28 24 25 31 45 37 26 22 27 36 26 12 5 7 -3 -3 -6 -10 -12 -14 -15 -10 -5 -6 -7 -7 -13 -17 -19 -17 -17 -14 -10 -10 -9 -8 -6 -5 -5 -5 -5 -5 -5 -6 -5 -4 -6 -7 -7 -6 -3 
-3 -3 -5 -7 -8 -10 -8 3 1 1 2 3 4 5 5 5 4 4 5 4 3 2 1 1 4 -8 -11 -10 -10 -8 -6 -5 -5 -4 -5 -5 -6 -6 -7 -7 -8 -8 -7 -7 -7 -5 -4 -4 -4 -4 -5 -5 -5 -4 -4 -5 -5 -5 -6 -6 -7 -7 -8 -8 -9 -9 -9 -9 -9 -9 -9 -9 -9 -9 -9 -10 -11 -12 -12 -11 -11 -9 -9 -9 -8 -8 -8 -8 -9 -9 -9 -10 -10 -11 -11 -12 -12 -13 -14 -15 -16 -18 -19 -21 -21 -21 -19 -17 -15 -15 -17 -20 -20 -19 -18 -16 -14 -12 -13 -16 -20 -24 -25 -24 -22 -19 -17 -17 -17 -17 -17 -18 -17 -15 -14 -14 -13 -14 -15 -15 -16 -19 -19 -14 -11 -10 -13 -14 -14 -16 -16 -15 -14 -13 -12 -10 -8 -4 -2 -1 -3 -2 2 31 109 160 83 17 4 -37 -45 -48 -50 -51 -52 -51 -49 -47 -46 -46 -46 -46 -45 -44 -46 -44 -44 -41 -39 -33 -29 -28 -25 -22 -20 -20 -22 -24 -25 -26 -25 -23 -21 -23 -22 -22 -21 -19 -20 -20 -20 -20 -17 -15 -15 -15 -19 -23 -24 -25 -26 -26 -24 -25 -25 -24 -23 -21 -21 -16 -16 -19 -24 -30 -40 -39 -31 -27 -28 -52 -47 -30 -39 -54 -57 -57 -33 -23 -20 -19 -28 -28 -37 -37 -37 -41 -48 -45 -37 -32 -38 -45 -55 -49 -33 -44 -55 -39 -34 -25 -23 -24 -25 -28 -31 -37 -39 -44 -13 5 1 1 5 3 -2 1 1 6 3 1 -3 -9 -11 -12 -15 -14 -12 -8 -7 -9 -10 -9 -9 -6 -4 -2 0 -1 2 2 2 2 10 7 31 45 37 27 17 15 8 2 4 5 3 2 -1 0 -1 -1 2 6 14 14 11 19 25 28 26 22 17 15 18 13 10 7 7 -3 -3 -5 -8 -10 -11 -13 -9 -3 -2 1 -7 -17 -19 -21 -22 -18 -15 -11 -9 -8 -6 -4 -4 -4 -5 -5 -5 -6 -6 -5 -6 -5 -5 -7 -5 -4 
-1 -2 -2 -3 -5 2 1 1 3 5 5 5 5 5 6 6 7 7 8 8 7 7 6 5 3 2 2 4 1 -5 -3 -2 -1 -1 -1 -1 -3 -4 -5 -6 -7 -8 -8 -7 -7 -6 -5 -4 -4 -4 -5 -4 -4 -4 -4 -5 -4 -4 -6 -6 -7 -7 -8 -9 -9 -9 -9 -9 -9 -9 -9 -9 -9 -9 -9 -10 -10 -11 -12 -11 -10 -9 -8 -8 -8 -8 -8 -8 -9 -9 -9 -9 -9 -9 -11 -11 -11 -12 -13 -14 -16 -17 -19 -21 -21 -21 -19 -17 -15 -15 -18 -20 -22 -20 -19 -17 -15 -12 -12 -16 -20 -22 -25 -25 -22 -18 -17 -17 -17 -17 -18 -20 -19 -16 -14 -12 -13 -14 -14 -13 -13 -11 -10 -7 -5 -3 -8 -10 -11 -11 -12 -11 -10 -11 -10 -8 -8 -8 -6 -5 -7 -3 1 19 119 205 148 67 26 11 -27 -35 -40 -45 -49 -48 -46 -46 -46 -46 -46 -47 -49 -46 -42 -44 -42 -42 -39 -37 -31 -30 -28 -23 -19 -15 -22 -24 -25 -25 -24 -22 -22 -21 -21 -20 -18 -16 -18 -20 -20 -20 -19 -17 -16 -17 -20 -22 -24 -25 -26 -27 -26 -24 -24 -23 -22 -21 -21 -16 -20 -28 -28 -28 -59 -58 -35 -32 -35 -52 -61 -39 -37 -45 -51 -48 -32 -29 -28 -28 -32 -46 -48 -38 -37 -38 -50 -53 -42 -38 -37 -44 -52 -47 -32 -40 -50 -37 -32 -21 -19 -18 -20 -26 -28 -37 -39 -44 -11 2 1 4 3 2 4 6 3 3 2 1 -1 -2 -2 -5 -5 -5 -4 -2 1 -3 -5 -5 -3 -2 -1 0 1 1 1 0 2 2 2 3 22 38 40 35 21 9 3 2 4 4 3 2 0 -1 -2 -2 1 4 9 5 7 19 24 21 17 17 15 12 10 8 8 6 3 4 -3 -4 -6 -8 -10 -12 -12 -6 -3 -2 -7 -18 -23 -25 -26 -21 -16 -10 -8 -7 -5 -4 -3 -3 -4 -5 -6 -6 -5 -6 -5 -5 -5 -5 -5 -3 
0 1 2 0 1 3 5 5 6 6 5 6 6 6 8 8 9 8 9 9 10 11 10 10 10 9 7 4 2 3 4 2 2 1 3 2 1 0 -2 -4 -7 -7 -8 -7 -7 -5 -5 -5 -5 -5 -4 -5 -5 -5 -5 -4 -4 -5 -5 -7 -6 -8 -8 -8 -8 -9 -9 -9 -9 -9 -9 -9 -9 -9 -9 -10 -10 -10 -11 -10 -9 -8 -8 -7 -7 -7 -8 -8 -8 -9 -9 -9 -9 -9 -9 -10 -9 -11 -12 -13 -14 -16 -18 -18 -19 -19 -18 -17 -17 -17 -18 -21 -23 -23 -22 -19 -16 -15 -15 -17 -18 -21 -23 -23 -20 -18 -17 -16 -17 -18 -19 -20 -22 -17 -11 -12 -13 -13 -13 -10 -9 -5 -1 -2 -3 -4 -9 -9 -7 -8 -9 -9 -12 -15 -17 -17 -16 -15 -15 -16 -16 -9 1 19 106 214 200 132 71 20 -8 -19 -29 -36 -41 -43 -43 -42 -43 -44 -44 -48 -49 -49 -47 -42 -42 -40 -34 -33 -33 -34 -31 -27 -23 -15 -23 -25 -25 -25 -23 -21 -21 -21 -20 -19 -19 -18 -18 -21 -23 -22 -20 -20 -19 -19 -20 -21 -23 -24 -26 -28 -27 -26 -24 -23 -21 -20 -19 -19 -22 -28 -28 -28 -64 -64 -49 -34 -40 -55 -71 -49 -47 -40 -37 -39 -34 -31 -36 -36 -41 -61 -60 -43 -51 -34 -53 -58 -48 -38 -33 -38 -42 -46 -42 -38 -39 -35 -27 -19 -14 -10 -12 -19 -20 -27 -32 -27 1 1 2 6 4 2 5 10 7 2 -12 -4 1 3 4 1 1 1 1 1 1 1 -3 -2 0 0 1 0 9 -1 0 2 2 4 2 2 10 20 25 37 25 9 4 5 5 4 2 1 -1 -1 -2 -1 0 1 3 2 4 9 20 19 14 12 9 8 9 8 7 7 4 4 -4 -4 -5 -7 -9 -10 -10 -8 -6 -7 -14 -22 -28 -31 -29 -23 -16 -11 -8 -5 -4 -3 -2 -2 -3 -5 -6 -5 -6 -6 -6 -6 -6 -6 -5 -4 
2 4 5 2 3 6 7 5 4 6 8 9 10 9 9 9 8 7 8 9 9 11 11 12 13 13 10 7 5 5 5 5 4 3 4 3 1 2 0 -2 -5 -7 -8 -7 -6 -5 -5 -5 -4 -5 -6 -6 -6 -6 -5 -5 -5 -4 -6 -6 -7 -8 -9 -8 -8 -7 -7 -9 -9 -9 -10 -9 -9 -9 -9 -9 -9 -10 -10 -9 -8 -8 -7 -7 -7 -7 -7 -7 -8 -9 -9 -9 -9 -9 -9 -9 -9 -9 -11 -12 -14 -14 -16 -17 -18 -18 -17 -18 -17 -18 -21 -22 -24 -25 -24 -21 -19 -17 -17 -17 -18 -20 -21 -21 -20 -19 -18 -17 -17 -18 -18 -19 -20 -17 -14 -14 -13 -13 -12 -9 -4 1 1 2 3 2 -5 -5 -5 -5 -9 -12 -15 -21 -25 -23 -22 -21 -19 -22 -21 -16 1 10 63 143 189 173 137 41 4 -8 -20 -29 -35 -37 -38 -38 -39 -40 -42 -42 -44 -45 -48 -37 -36 -40 -25 -33 -33 -33 -37 -38 -35 -35 -27 -26 -24 -23 -22 -17 -22 -20 -20 -20 -20 -21 -22 -21 -24 -24 -23 -22 -21 -20 -20 -20 -21 -23 -24 -27 -28 -26 -24 -23 -21 -20 -20 -19 -21 -26 -31 -37 -42 -48 -49 -51 -58 -66 -78 -51 -68 -32 -34 -47 -40 -38 -39 -35 -29 -38 -46 -42 -36 -34 -50 -46 -38 -32 -30 -29 -40 -41 -37 -34 -33 -29 -23 -17 -10 -3 -4 -14 -10 -19 -24 -23 -13 -2 1 5 7 5 4 5 3 1 3 -2 1 6 5 1 1 1 1 0 1 3 2 2 4 1 0 -1 -2 -1 -1 1 2 9 5 5 10 20 24 39 27 14 9 12 9 4 3 -1 -1 -1 -2 -1 0 1 2 3 11 13 10 6 9 9 8 9 14 10 6 6 6 3 1 -3 -3 -5 -8 -9 -9 -10 -10 -11 -20 -28 -33 -36 -30 -22 -15 -10 -7 -5 -3 -3 -2 -2 -3 -6 -5 -6 -6 -6 -6 -7 -8 -8 -7 -5 
5 4 1 3 5 5 5 4 4 7 8 8 10 10 10 9 8 7 7 8 8 10 12 13 14 14 11 8 7 8 8 9 9 8 8 5 3 2 5 4 -3 -6 -8 -6 -4 -4 -5 -5 -5 -6 -7 -7 -8 -6 -6 -6 -5 -5 -5 -7 -8 -8 -9 -9 -7 -7 -7 -7 -9 -9 -10 -9 -9 -9 -9 -9 -9 -9 -9 -9 -8 -7 -7 -7 -7 -7 -7 -8 -8 -8 -9 -9 -9 -9 -8 -8 -8 -8 -9 -10 -11 -13 -14 -14 -16 -16 -17 -18 -19 -20 -21 -23 -24 -25 -26 -24 -21 -19 -17 -18 -18 -19 -20 -19 -19 -19 -18 -18 -18 -18 -17 -18 -18 -17 -16 -14 -14 -13 -12 -9 -2 2 2 3 5 4 -2 -2 -3 -4 -12 -17 -22 -24 -28 -25 -4 -22 -14 -16 -22 2 3 3 14 33 117 175 185 59 7 0 -12 -22 -30 -33 -33 -33 -35 -37 -38 -38 -40 -40 -41 -35 -34 -34 -32 -37 -33 -32 -35 -35 -35 -35 -31 -28 -25 -24 -23 -17 -23 -23 -22 -22 -22 -22 -22 -22 -23 -24 -24 -23 -23 -21 -20 -20 -21 -21 -24 -26 -28 -26 -24 -22 -20 -20 -19 -20 -21 -26 -32 -37 -38 -43 -47 -53 -58 -65 -66 -79 -86 -76 -41 -43 -47 -48 -56 -50 -45 -40 -44 -43 -40 -39 -52 -32 -37 -33 -30 -31 -33 -34 -32 -29 -28 -25 -21 -16 -8 -3 -2 -4 -6 -12 -18 -21 -14 -7 2 1 3 2 1 1 2 -5 -5 -8 -2 5 5 3 5 5 3 2 2 11 6 3 5 2 5 -2 -2 -2 -2 1 3 19 10 7 10 14 21 39 31 22 15 13 9 4 3 1 0 -1 -1 -2 7 3 3 3 8 11 6 5 8 13 16 13 19 15 7 7 7 6 1 -3 -2 -4 -8 -11 -13 -14 -15 -16 -27 -36 -38 -35 -28 -22 -14 -8 -5 -3 -2 -2 -2 -2 -4 -5 -6 -5 -5 -6 -7 -9 -11 -11 -7 -4 
2 1 2 5 6 4 4 5 5 7 7 7 9 11 10 9 8 7 7 8 8 9 11 11 13 14 13 10 9 10 11 12 12 11 12 10 8 6 5 3 2 3 2 -4 -2 -1 -2 -4 -7 -9 -10 -10 -9 -8 -7 -7 -7 -7 -6 -7 -7 -8 -8 -7 -7 -6 -6 -7 -8 -9 -9 -9 -9 -8 -8 -8 -9 -9 -9 -8 -7 -7 -7 -7 -7 -8 -8 -8 -9 -9 -9 -8 -9 -9 -8 -8 -8 -8 -9 -9 -10 -10 -10 -10 -12 -14 -15 -17 -22 -22 -22 -23 -23 -25 -25 -24 -22 -20 -18 -18 -19 -19 -19 -19 -19 -19 -18 -18 -18 -17 -17 -18 -17 -17 -15 -15 -15 -14 -12 -8 -3 0 -2 2 7 7 2 -2 -6 -10 -13 -14 -14 -16 -18 -4 3 4 1 -13 -16 13 23 12 6 9 16 28 106 47 13 4 -8 -18 -26 -29 -30 -30 -32 -34 -35 -36 -37 -38 -38 -37 -35 -33 -37 -36 -29 -33 -34 -34 -34 -36 -33 -32 -29 -28 -27 -26 -26 -26 -24 -23 -22 -23 -24 -23 -24 -24 -24 -24 -23 -21 -21 -20 -20 -22 -24 -25 -26 -25 -24 -21 -20 -20 -19 -20 -22 -29 -35 -40 -40 -40 -41 -46 -51 -57 -59 -54 -54 -92 -87 -67 -54 -57 -59 -59 -37 -28 -49 -49 -44 -37 -39 -37 -33 -33 -30 -28 -28 -28 -26 -23 -21 -21 -15 -10 -5 2 1 -2 10 -4 -10 -13 -9 -4 0 0 2 2 6 0 -9 -12 -10 -8 -2 2 3 12 12 15 15 11 7 14 14 9 8 7 3 1 1 4 -3 4 2 21 14 9 12 18 31 35 29 22 14 9 6 4 2 1 1 0 -1 -2 0 1 3 6 11 21 12 8 11 19 17 14 19 18 12 7 7 8 2 -2 -2 -5 -8 -13 -17 -18 -20 -26 -36 -46 -41 -34 -26 -19 -12 -7 -3 -2 -1 -1 -2 -3 -5 -6 -5 -4 -3 -4 -6 -10 -12 -11 -2 3 
1 3 4 6 7 5 4 6 7 7 7 8 11 11 9 8 8 7 8 9 9 9 10 10 12 13 11 10 9 10 11 12 11 11 12 11 10 11 10 9 8 6 4 2 1 3 4 -2 -8 -12 -12 -11 -10 -9 -9 -7 -6 -6 -7 -6 -7 -8 -8 -7 -6 -5 -6 -6 -8 -8 -8 -8 -8 -8 -8 -8 -8 -8 -8 -7 -7 -7 -7 -7 -8 -8 -9 -9 -10 -10 -10 -9 -8 -9 -7 -7 -7 -8 -8 -8 -9 -8 -9 -9 -11 -12 -14 -14 -18 -21 -21 -22 -23 -25 -24 -24 -22 -20 -20 -19 -19 -19 -18 -19 -20 -19 -19 -19 -18 -18 -17 -16 -16 -16 -16 -15 -14 -14 -12 -8 -3 1 1 2 9 12 5 -1 -8 -16 -14 -10 -4 -6 1 3 18 31 22 7 1 19 68 52 11 4 8 17 42 50 25 3 -8 -16 -22 -26 -28 -29 -31 -32 -33 -35 -35 -35 -36 -36 -36 -35 -36 -40 -36 -35 -36 -35 -34 -34 -35 -35 -33 -31 -29 -28 -27 -27 -26 -24 -23 -25 -25 -25 -25 -25 -25 -24 -23 -20 -21 -20 -22 -23 -24 -25 -24 -24 -23 -22 -20 -19 -19 -19 -24 -29 -37 -45 -41 -39 -38 -38 -40 -42 -49 -44 -45 -54 -81 -70 -49 -39 -50 -50 -47 -42 -36 -43 -45 -30 -37 -34 -35 -33 -25 -22 -22 -22 -21 -18 -15 -13 -10 -5 -2 -2 -1 -2 -2 1 4 2 -6 -3 1 4 2 2 4 1 1 -12 -9 -7 -2 0 0 7 7 21 27 21 15 14 17 13 13 11 5 7 5 2 1 1 1 5 3 10 12 15 24 24 28 22 13 8 7 7 6 3 3 3 1 0 0 2 4 11 15 23 17 13 17 21 15 15 18 18 16 10 7 7 2 -2 -2 -5 -7 -12 -17 -20 -23 -30 -41 -42 -38 -32 -24 -16 -10 -5 -2 -1 -1 -1 -2 -5 -7 -7 -7 -6 -3 -3 -1 2 2 3 4 6 
3 4 5 8 7 5 5 7 8 8 8 9 10 10 9 8 8 8 8 10 10 10 10 10 11 11 10 9 10 12 12 12 12 16 18 15 12 11 11 12 12 10 8 5 4 3 2 2 3 -13 -13 -11 -10 -10 -8 -7 -5 -5 -6 -7 -7 -8 -8 -7 -5 -4 -5 -6 -7 -8 -8 -8 -8 -7 -8 -8 -8 -7 -7 -7 -7 -7 -7 -7 -8 -9 -9 -10 -11 -11 -10 -10 -9 -8 -7 -7 -7 -7 -7 -8 -8 -8 -9 -9 -10 -11 -13 -14 -16 -19 -20 -21 -23 -23 -24 -23 -22 -21 -21 -20 -20 -20 -19 -19 -19 -20 -20 -20 -19 -18 -18 -16 -16 -15 -14 -14 -13 -13 -11 -8 -3 1 2 7 16 21 9 -1 -6 -9 -8 10 -4 5 2 6 27 72 85 33 7 21 87 89 38 8 3 5 14 16 9 -2 -9 -14 -20 -23 -26 -27 -29 -31 -32 -33 -34 -34 -34 -34 -35 -35 -36 -39 -39 -35 -34 -35 -35 -35 -36 -35 -34 -34 -32 -30 -29 -28 -28 -26 -25 -26 -29 -27 -26 -26 -26 -26 -24 -22 -22 -22 -21 -23 -22 -23 -24 -23 -23 -20 -19 -19 -18 -20 -23 -27 -33 -36 -35 -32 -31 -28 -26 -27 -43 -29 -33 -43 -81 -70 -49 -39 -48 -49 -49 -49 -45 -40 -50 -30 -28 -24 -15 -17 -16 -16 -17 -17 -16 -13 -11 -8 -5 -1 1 20 -3 -4 -2 1 10 5 -3 -2 1 4 2 1 1 2 1 1 -2 -2 1 1 0 3 13 20 27 33 44 34 24 19 16 13 7 4 4 5 4 4 4 12 5 8 9 9 18 28 36 29 18 11 11 12 12 10 7 8 6 1 9 1 6 12 19 25 22 18 20 17 16 17 18 19 22 14 6 4 1 -3 -2 -5 -7 -12 -16 -19 -24 -33 -41 -39 -35 -28 -20 -13 -8 -3 -1 -1 0 0 -1 -6 -10 -10 4 2 3 4 6 11 15 19 19 17 
5 5 7 8 7 6 7 8 9 9 9 9 10 9 8 9 9 9 10 13 15 12 10 10 11 11 10 9 11 12 13 12 13 19 23 21 16 12 12 12 12 11 9 8 7 7 6 6 4 2 1 -9 -8 -8 -8 -6 -3 -3 -4 -6 -7 -7 -8 -7 -6 -4 -5 -6 -7 -7 -8 -8 -8 -7 -7 -8 -7 -7 -7 -6 -7 -7 -6 -8 -8 -9 -9 -10 -11 -11 -11 -10 -9 -8 -8 -7 -7 -7 -7 -7 -8 -8 -8 -8 -9 -10 -10 -13 -15 -18 -19 -20 -21 -23 -24 -23 -23 -23 -21 -21 -20 -19 -19 -20 -20 -21 -22 -21 -20 -19 -17 -16 -15 -13 -13 -13 -12 -12 -12 -7 1 1 3 6 10 12 5 -4 -6 -4 0 9 5 1 7 13 48 102 111 45 10 20 84 114 72 17 -8 -5 -5 -6 -4 -8 -11 -15 -18 -21 -24 -26 -29 -29 -30 -32 -32 -32 -33 -33 -33 -34 -35 -37 -37 -35 -34 -32 -33 -37 -37 -35 -34 -34 -32 -31 -31 -30 -29 -27 -26 -28 -29 -27 -27 -26 -26 -27 -26 -25 -24 -23 -23 -23 -24 -24 -24 -23 -23 -22 -20 -19 -17 -18 -21 -24 -27 -29 -28 -25 -23 -21 -21 -23 -23 -22 -23 -29 -41 -47 -45 -47 -47 -48 -53 -49 -45 -29 -36 -32 -23 -18 -3 -8 -10 -12 -12 -14 -13 -11 -6 -4 -2 0 3 1 1 9 9 1 4 2 -3 -1 2 2 1 4 2 -8 -6 -3 0 -1 1 11 1 1 6 11 21 43 68 66 46 29 16 11 9 11 15 11 9 8 8 9 8 12 18 17 16 25 32 26 20 17 16 17 21 18 12 10 7 2 1 5 13 19 24 24 24 23 24 23 22 22 20 16 17 11 6 3 3 -4 -4 -6 -9 -12 -16 -20 -25 -34 -39 -38 -34 -25 -15 -9 -5 -2 -1 0 0 2 2 2 3 4 7 9 13 16 18 22 28 31 26 22 
5 6 7 7 7 8 7 8 8 9 9 10 10 9 8 9 10 11 13 17 21 17 12 12 12 13 11 11 11 10 12 12 13 16 22 24 19 15 13 12 11 10 10 9 9 9 10 11 9 6 3 3 2 -5 -5 -4 -3 -3 -4 -4 -6 -8 -9 -8 -6 -5 -6 -6 -7 -8 -8 -9 -9 -8 -8 -8 -8 -8 -6 -6 -6 -7 -7 -7 -8 -7 -9 -10 -10 -11 -11 -10 -9 -9 -8 -8 -7 -7 -7 -7 -7 -8 -8 -8 -8 -9 -10 -13 -15 -16 -18 -19 -19 -21 -24 -23 -23 -23 -22 -22 -21 -20 -21 -21 -22 -23 -24 -23 -22 -21 -19 -17 -15 -14 -12 -12 -11 -10 -9 -5 2 2 4 3 3 4 -5 -5 -5 1 1 1 2 4 26 53 140 168 124 68 29 19 55 70 33 11 -5 -8 -9 -11 -11 -11 -13 -16 -18 -21 -24 -27 -27 -28 -29 -30 -31 -31 -30 -31 -31 -31 -33 -34 -34 -33 -32 -30 -31 -34 -35 -35 -34 -35 -33 -31 -31 -30 -29 -28 -27 -27 -27 -27 -26 -26 -28 -29 -29 -27 -25 -25 -25 -25 -25 -26 -25 -25 -23 -23 -21 -19 -17 -18 -19 -21 -23 -23 -23 -20 -19 -18 -20 -30 -29 -30 -12 1 1 -26 -38 -47 -47 -48 -50 -43 -43 -35 -35 -33 -32 -16 -7 -5 -6 -8 -10 -12 -11 -10 -3 -2 -1 0 0 1 2 1 -1 -1 -2 -3 -2 -2 0 1 1 1 1 -8 -6 -3 -1 -1 1 1 9 -2 -1 3 8 28 60 61 55 33 15 16 17 16 19 17 17 12 8 6 7 16 39 41 20 16 21 21 22 25 26 26 30 23 14 9 6 4 8 16 25 27 24 24 32 31 27 27 26 26 21 14 9 6 5 4 5 -4 -4 -6 -10 -14 -16 -20 -26 -35 -40 -42 -38 -26 -14 -7 -3 -1 -1 -1 0 4 6 9 11 14 20 19 23 28 30 28 34 31 26 21 
5 6 6 6 7 7 6 5 6 8 8 9 9 8 8 9 11 15 18 23 25 22 17 13 12 12 11 10 10 10 11 11 11 13 19 23 19 19 19 14 11 10 11 10 11 12 13 13 12 11 9 6 3 7 4 -1 0 0 -1 -2 -5 -8 -10 -9 -7 -6 -6 -6 -7 -8 -8 -9 -9 -8 -8 -8 -7 -7 -7 -7 -7 -7 -7 -7 -7 -7 -7 -9 -9 -10 -10 -10 -10 -9 -9 -8 -8 -7 -7 -7 -7 -8 -8 -8 -8 -9 -10 -12 -14 -15 -17 -18 -19 -20 -21 -22 -24 -24 -23 -23 -21 -22 -22 -22 -23 -26 -25 -25 -24 -22 -20 -17 -15 -12 -11 -11 -10 -8 -7 -4 1 1 3 7 8 5 -8 -7 -3 2 3 3 6 10 51 155 262 262 184 120 66 27 33 33 12 2 -3 -9 -10 -11 -13 -13 -14 -16 -18 -21 -23 -25 -27 -27 -28 -29 -29 -29 -28 -28 -29 -30 -30 -32 -32 -31 -30 -31 -32 -33 -34 -34 -34 -36 -33 -32 -31 -30 -29 -29 -28 -27 -28 -26 -26 -27 -28 -29 -28 -28 -26 -27 -27 -27 -26 -27 -25 -26 -25 -24 -22 -19 -16 -17 -19 -21 -21 -21 -19 -17 -17 -16 -18 -17 -20 -12 1 3 2 -20 -35 -46 -46 -46 -44 -39 -44 -36 -33 -33 -23 -15 -6 -4 -3 -4 -5 -4 -6 -6 -3 -3 -1 0 0 1 1 0 0 0 4 -2 -2 -4 -6 -12 1 1 -8 -8 -6 -4 -1 1 2 5 2 1 -6 1 1 5 18 22 32 30 19 24 25 24 19 13 11 16 15 11 10 15 36 52 36 17 19 26 26 26 26 27 31 21 12 12 12 11 17 29 42 35 23 27 40 36 29 27 26 22 20 16 11 6 3 1 -3 -3 -4 -7 -11 -15 -17 -21 -29 -40 -44 -45 -44 -27 -13 -5 0 0 0 -1 -2 5 10 17 21 21 26 25 27 32 38 38 39 34 34 24 
6 7 6 6 5 4 4 4 4 5 7 9 7 7 8 10 17 20 18 22 26 28 22 16 12 11 11 10 11 11 10 11 10 11 16 23 17 18 19 14 11 11 11 11 12 12 12 12 12 11 11 10 9 7 3 2 4 6 2 0 -3 -6 -8 -7 -6 -5 -6 -6 -8 -9 -10 -10 -10 -9 -9 -8 -8 -8 -7 -7 -7 -7 -7 -7 -7 -7 -7 -8 -8 -9 -10 -10 -10 -10 -9 -9 -8 -8 -7 -7 -8 -8 -8 -8 -8 -8 -10 -11 -13 -14 -15 -17 -18 -19 -21 -22 -23 -23 -23 -23 -22 -22 -22 -23 -25 -26 -27 -27 -25 -23 -21 -18 -15 -12 -10 -9 -8 -7 -5 -3 -2 1 3 2 3 2 -21 -12 0 1 4 8 10 14 32 105 168 212 201 147 78 32 18 7 2 3 -5 -10 -12 -13 -13 -14 -15 -17 -18 -20 -22 -23 -24 -26 -26 -26 -27 -26 -26 -26 -26 -28 -28 -29 -29 -30 -30 -30 -30 -31 -31 -31 -30 -33 -32 -31 -31 -30 -30 -30 -29 -28 -28 -27 -26 -26 -27 -28 -29 -28 -28 -26 -26 -27 -27 -27 -28 -27 -27 -25 -29 -21 -19 -19 -20 -20 -20 -19 -18 -17 -16 -16 -21 -28 -29 -24 -12 1 -18 -2 -45 -45 -43 -40 -43 -47 -43 -44 -35 -27 -19 -11 -5 -2 1 4 1 -6 -7 -5 -4 -2 -1 0 0 0 0 0 0 1 0 1 2 1 -4 -6 -2 -8 -13 -9 -4 -3 -2 2 5 5 2 1 -2 1 1 5 9 12 17 24 20 17 19 28 23 20 15 27 42 31 27 21 20 33 50 29 20 27 25 22 25 24 29 21 14 17 20 19 32 44 48 38 28 32 41 36 30 28 26 21 24 19 12 6 2 4 -3 -2 -4 -6 -10 -17 -19 -22 -27 -37 -42 -43 -35 -22 -11 -3 0 0 0 -2 -5 5 14 27 33 28 29 35 35 34 36 36 39 40 36 26 
7 7 7 7 7 4 3 4 4 5 6 7 8 8 9 11 17 19 15 18 23 27 24 15 11 10 10 11 10 11 10 10 10 11 14 20 15 14 15 12 11 11 11 12 12 12 11 11 11 11 11 11 11 10 9 8 6 3 5 6 4 -3 -5 -5 -4 -4 -4 -6 -7 -10 -11 -12 -11 -11 -9 -9 -9 -8 -7 -7 -7 -7 -7 -7 -7 -6 -7 -7 -8 -8 -9 -9 -10 -9 -10 -9 -9 -8 -7 -7 -7 -8 -7 -7 -7 -8 -9 -11 -12 -13 -14 -15 -17 -17 -18 -20 -21 -23 -23 -22 -22 -22 -23 -25 -27 -28 -29 -30 -27 -24 -21 -18 -14 -11 -9 -8 -7 -5 -4 -4 -3 -2 -1 1 1 1 -14 -11 -4 1 4 8 13 14 17 40 81 147 185 145 70 24 9 2 1 -4 -9 -10 -13 -12 -13 -14 -15 -16 -18 -20 -21 -22 -24 -24 -24 -24 -25 -24 -23 -24 -24 -25 -26 -27 -28 -30 -29 -30 -30 -30 -31 -30 -29 -30 -31 -31 -30 -30 -31 -30 -29 -29 -29 -28 -27 -27 -28 -28 -28 -29 -27 -26 -25 -26 -27 -28 -28 -28 -28 -29 -29 -25 -22 -20 -20 -21 -20 -20 -19 -18 -18 -18 -24 -28 -34 -29 -21 -19 -25 -24 -52 -50 -43 -29 -34 -42 -41 -43 -32 -24 -15 -7 -3 -2 -2 5 12 4 3 -3 -3 -2 -1 0 0 0 0 1 1 1 1 1 1 -5 -14 -6 -3 -4 -8 -8 1 0 0 1 5 6 7 3 1 3 2 8 10 11 14 22 29 21 17 25 33 34 22 38 72 57 48 41 28 28 51 45 22 20 20 19 22 21 24 18 15 21 26 29 36 40 38 32 34 37 39 35 34 34 29 24 21 20 17 7 1 -3 -2 -1 -1 -3 -9 -14 -18 -20 -21 -33 -40 -44 -28 -18 -6 0 0 0 1 1 3 11 23 35 42 39 37 39 40 38 38 34 38 43 37 28 
8 8 8 8 7 4 4 5 5 7 8 8 9 9 10 11 13 13 12 14 17 23 21 13 10 10 11 12 10 10 11 11 11 11 11 14 12 11 11 11 11 11 11 11 11 11 11 12 13 14 15 13 11 11 13 13 10 8 6 4 3 3 2 2 1 -1 -2 -5 -8 -11 -14 -14 -13 -12 -11 -10 -10 -8 -8 -7 -7 -6 -7 -7 -6 -6 -6 -7 -8 -8 -9 -9 -9 -9 -9 -10 -9 -8 -7 -7 -7 -6 -6 -6 -7 -7 -7 -9 -11 -13 -14 -14 -15 -16 -17 -19 -20 -22 -21 -22 -22 -22 -23 -25 -26 -29 -29 -28 -27 -25 -22 -18 -14 -11 -9 -7 -6 -4 -2 -3 13 20 1 1 -1 -8 -14 -14 -7 5 6 12 24 26 24 49 91 165 187 127 67 21 6 2 -4 -8 -11 -12 -12 -12 -12 -13 -15 -16 -17 -19 -20 -20 -22 -22 -21 -22 -22 -22 -21 -20 -22 -24 -25 -26 -27 -28 -29 -30 -30 -28 -27 -26 -26 -27 -31 -30 -29 -31 -31 -31 -31 -30 -28 -27 -27 -27 -28 -28 -28 -27 -26 -26 -26 -27 -28 -28 -29 -29 -28 -29 -29 -27 -24 -22 -21 -21 -21 -21 -20 -20 -20 -21 -24 -29 -34 -32 -27 -27 -30 -37 -59 -59 -39 -37 -36 -36 -38 -35 -28 -20 -11 -3 -1 0 1 7 15 5 2 2 -4 -3 -2 1 1 0 1 1 1 1 2 2 2 -5 2 1 -6 -3 -3 -2 2 1 2 3 3 2 3 5 5 4 3 12 11 11 13 22 38 33 27 37 46 34 22 45 81 82 76 62 41 42 61 54 34 22 17 14 17 20 20 19 20 25 30 31 31 31 29 28 34 38 34 37 37 32 28 27 20 18 15 6 -3 -3 -1 0 0 -2 -8 -14 -19 -22 -24 -30 -33 -35 -24 -14 -4 0 0 -1 1 7 12 21 34 43 46 46 41 38 39 40 35 28 30 37 36 29 
9 8 8 8 5 4 4 4 5 7 9 8 8 10 11 10 11 11 11 11 13 19 16 11 9 9 10 11 10 11 11 11 11 10 10 10 10 9 8 10 11 11 11 11 11 11 12 14 18 18 18 18 17 17 18 18 13 10 9 8 8 7 6 4 2 1 2 -3 -8 -12 -16 -16 -15 -14 -12 -11 -10 -8 -8 -7 -7 -6 -6 -7 -6 -6 -6 -7 -8 -8 -9 -9 -9 -10 -10 -9 -8 -7 -6 -6 -6 -5 -5 -6 -6 -6 -7 -8 -9 -12 -12 -13 -14 -15 -16 -17 -18 -19 -20 -20 -20 -21 -22 -24 -26 -28 -28 -27 -26 -25 -21 -18 -14 -10 -8 -6 -5 -3 -3 -2 13 20 1 1 -5 -13 -19 -15 -8 5 11 20 37 41 41 103 183 266 256 176 111 39 10 3 -2 -8 -12 -14 -13 -12 -13 -13 -13 -15 -16 -17 -18 -19 -20 -19 -20 -20 -19 -20 -19 -19 -20 -22 -24 -25 -26 -27 -29 -29 -28 -28 -25 -21 -21 -21 -25 -28 -27 -28 -30 -33 -33 -31 -29 -28 -28 -28 -28 -28 -27 -26 -25 -25 -26 -27 -27 -28 -29 -29 -29 -29 -29 -27 -25 -24 -23 -22 -22 -22 -22 -22 -23 -24 -26 -30 -36 -35 -34 -36 -49 -54 -55 -53 -26 -38 -29 -26 -27 -26 -22 -16 -11 -10 -1 1 10 1 12 8 5 3 1 3 -2 1 0 1 1 1 1 1 2 1 3 2 5 1 -5 1 1 1 5 1 3 4 1 1 -3 2 -4 4 9 40 29 17 14 17 25 31 40 49 55 39 31 52 77 90 82 61 53 65 68 70 66 39 18 11 14 19 23 25 25 28 29 32 34 28 23 23 32 35 32 38 35 30 28 33 26 19 12 7 -2 -3 -2 -1 -1 -1 -8 -13 -21 -21 -21 -21 -21 -30 -23 -13 -4 1 1 6 7 15 25 32 40 46 48 50 47 44 41 36 28 21 20 28 33 30 
8 8 8 7 5 3 3 4 6 8 10 9 9 10 11 11 11 11 11 11 12 15 13 10 7 7 8 10 11 11 11 9 9 9 8 7 7 7 6 8 11 12 12 11 11 12 14 19 23 19 18 20 23 23 23 22 15 11 10 10 11 11 11 10 7 4 2 1 -7 -12 -19 -19 -16 -14 -13 -12 -11 -8 -8 -8 -7 -6 -6 -6 -5 -6 -6 -7 -8 -8 -9 -9 -9 -10 -10 -9 -8 -7 -6 -5 -5 -5 -4 -5 -5 -6 -6 -7 -9 -10 -11 -11 -13 -14 -13 -15 -16 -17 -17 -18 -19 -20 -20 -23 -25 -26 -26 -27 -26 -24 -22 -18 -14 -10 -7 -5 -3 -2 -1 0 2 1 2 2 -11 -20 -26 -19 1 7 16 29 45 37 47 138 246 298 275 207 130 57 19 6 2 -9 -14 -15 -13 -12 -11 -11 -12 -13 -14 -15 -16 -16 -16 -17 -17 -17 -16 -16 -17 -17 -18 -20 -21 -23 -25 -27 -28 -28 -28 -27 -25 -21 -21 -21 -24 -26 -27 -27 -28 -30 -33 -32 -31 -29 -29 -28 -28 -27 -26 -26 -24 -24 -25 -26 -27 -29 -29 -29 -30 -29 -29 -28 -27 -25 -24 -23 -22 -22 -23 -23 -25 -26 -29 -32 -35 -37 -38 -41 -47 -47 -43 -38 -33 -48 -32 -17 -20 -18 -16 -11 -6 -1 0 2 12 7 9 13 9 5 4 2 -2 -1 0 1 1 1 1 1 1 1 2 5 3 1 1 1 1 2 4 4 5 3 3 1 -5 -10 -12 4 19 54 64 44 29 21 19 27 47 67 64 57 57 74 83 84 77 64 67 83 79 88 76 38 16 10 15 20 26 23 21 23 24 35 35 28 20 17 30 34 32 36 34 29 27 37 40 27 14 6 -3 -3 -2 -1 -1 -1 -7 -13 -21 -21 -21 -21 -21 -33 -24 -14 -4 1 6 12 21 26 33 41 45 45 45 45 45 41 33 28 23 17 15 22 28 28 
9 9 9 7 5 4 4 6 8 12 13 11 9 10 11 11 11 11 11 11 11 12 12 11 8 6 7 9 12 11 10 7 7 8 8 6 5 5 5 6 10 12 11 10 11 15 17 22 28 25 21 20 24 26 25 26 20 13 10 11 13 13 12 12 11 10 7 2 1 1 -16 -17 -18 -16 -15 -14 -12 -11 -9 -8 -7 -6 -6 -6 -6 -6 -7 -7 -7 -8 -8 -9 -9 -9 -9 -9 -7 -6 -6 -5 -5 -4 -4 -4 -5 -5 -6 -7 -8 -9 -10 -10 -11 -11 -12 -13 -15 -15 -16 -17 -18 -18 -19 -21 -23 -24 -25 -26 -25 -24 -22 -19 -14 -9 -7 -5 -3 -1 1 2 4 5 4 -5 -17 -23 6 1 2 13 21 28 27 22 40 125 184 202 204 194 160 98 36 9 2 -8 -16 -16 -13 -10 -10 -10 -11 -11 -13 -13 -14 -14 -15 -14 -15 -14 -14 -13 -14 -15 -16 -18 -20 -22 -24 -26 -27 -27 -26 -25 -23 -21 -21 -21 -23 -25 -26 -26 -29 -29 -31 -32 -33 -31 -31 -30 -29 -28 -27 -25 -26 -25 -27 -26 -28 -28 -29 -29 -29 -29 -29 -28 -27 -26 -24 -23 -22 -22 -22 -23 -26 -29 -31 -34 -37 -39 -41 -42 -42 -40 -35 -36 -29 -28 -22 -19 -17 -14 -12 -8 -4 0 0 2 4 6 7 14 16 13 7 2 1 -1 1 1 0 1 1 1 1 8 0 1 14 2 1 -1 1 1 2 10 18 13 6 7 -6 -10 -11 -1 8 15 74 74 66 53 37 31 54 79 73 74 86 94 88 82 77 76 76 84 90 99 62 28 15 9 11 15 21 19 15 16 25 35 27 27 17 14 29 31 24 34 33 26 23 31 47 31 14 4 -3 -3 -2 -1 -1 -1 -6 -11 -21 -21 -21 -21 -22 -34 -26 -17 -7 1 9 20 31 25 33 42 47 43 41 37 39 33 25 22 18 13 13 18 22 25 
9 8 9 7 7 5 5 8 10 14 17 14 10 10 11 11 12 14 14 12 11 12 15 14 9 6 6 7 7 8 6 5 5 6 6 5 4 4 5 6 9 11 11 10 12 18 23 25 29 29 26 26 28 29 27 29 25 20 12 11 14 14 13 13 12 13 11 6 5 2 1 -15 -16 -17 -16 -15 -14 -12 -10 -9 -8 -7 -7 -7 -6 -6 -6 -6 -7 -8 -8 -8 -8 -9 -9 -8 -7 -6 -5 -5 -4 -4 -4 -4 -4 -5 -6 -7 -8 -8 -9 -10 -10 -10 -10 -12 -13 -14 -15 -16 -16 -17 -18 -20 -21 -23 -24 -25 -25 -25 -24 -20 -14 -10 -7 -5 -3 0 1 3 1 2 -5 -8 -17 -22 2 5 8 15 17 18 15 16 24 50 85 126 158 197 175 103 37 9 2 -10 -18 -17 -13 -9 -8 -8 -9 -10 -10 -12 -12 -12 -13 -12 -11 -11 -11 -11 -12 -13 -15 -17 -19 -21 -23 -24 -25 -26 -24 -23 -21 -21 -20 -20 -22 -24 -25 -27 -29 -30 -30 -31 -31 -33 -35 -33 -30 -29 -29 -27 -25 -27 -27 -28 -29 -28 -29 -29 -29 -29 -29 -28 -26 -25 -24 -24 -22 -21 -21 -23 -26 -29 -32 -34 -37 -40 -41 -45 -38 -31 -28 -33 -24 -24 -20 -21 -16 -12 -9 -6 -3 0 1 2 3 4 6 4 5 4 8 2 -3 1 2 0 -1 0 0 1 1 1 1 1 -1 -4 -5 -2 -1 3 3 4 24 18 5 1 5 -9 -10 1 2 7 23 48 74 87 67 47 46 62 61 80 98 105 102 95 91 94 93 85 96 105 57 26 15 9 7 11 14 17 15 18 24 22 19 24 16 19 29 26 21 33 32 28 24 25 35 22 11 9 -2 -3 -2 -1 -1 -1 -2 -6 -20 -23 -24 -29 -42 -44 -29 -21 -11 3 16 27 34 28 31 39 40 39 40 36 34 28 21 20 19 15 13 18 22 23 
8 7 5 5 6 5 6 10 11 12 14 15 12 16 18 18 15 18 16 13 13 14 15 12 7 6 6 6 7 6 6 5 5 5 6 6 3 5 7 9 10 10 11 11 14 20 26 27 28 29 30 30 31 30 31 31 27 23 15 10 12 12 12 13 13 12 11 9 8 6 3 1 -14 -16 -16 -16 -15 -14 -12 -11 -9 -8 -8 -7 -7 -7 -7 -6 -6 -7 -7 -8 -8 -8 -8 -7 -6 -5 -5 -4 -4 -4 -4 -4 -4 -5 -5 -6 -7 -8 -8 -8 -9 -8 -9 -10 -12 -13 -14 -13 -14 -16 -17 -18 -20 -21 -23 -24 -25 -25 -24 -20 -16 -12 -9 -7 -3 -1 1 4 1 1 -4 -10 -16 -17 2 6 14 18 21 15 14 21 31 64 87 101 145 168 126 65 26 11 4 -9 -15 -14 -10 -7 -7 -6 -7 -8 -8 -9 -10 -11 -11 -10 -10 -9 -8 -8 -10 -11 -13 -15 -17 -20 -22 -23 -23 -23 -23 -21 -21 -20 -20 -19 -21 -23 -25 -26 -27 -28 -29 -31 -30 -30 -33 -34 -33 -35 -33 -30 -26 -28 -28 -29 -29 -29 -29 -29 -29 -29 -29 -22 -22 -23 -23 -24 -23 -22 -21 -24 -27 -30 -33 -35 -37 -37 -38 -41 -39 -35 -27 -47 -29 -21 -21 -21 -15 -11 -8 -5 -3 -1 0 1 2 3 3 1 1 1 2 1 -2 1 2 -2 -2 -1 0 0 1 1 2 1 1 1 4 -4 -1 3 3 2 16 14 7 5 1 -5 -5 1 1 1 5 14 33 63 77 70 63 55 55 82 98 96 97 93 90 105 103 92 91 85 59 29 11 5 3 4 8 14 13 19 21 15 13 14 11 20 30 27 17 29 33 31 22 22 22 14 7 5 -2 -3 -1 -1 -1 -1 0 -4 -14 -21 -26 -35 -43 -44 -32 -25 -14 1 5 17 24 30 37 41 37 32 33 28 24 22 18 17 13 9 14 17 21 23 
5 4 4 6 6 7 10 12 12 11 12 12 12 17 20 20 16 18 18 17 16 16 13 8 6 6 6 6 7 6 7 6 5 5 5 6 4 6 7 9 9 10 11 11 13 20 26 26 26 27 29 30 31 30 31 31 28 25 16 11 11 11 12 13 13 12 11 11 10 9 7 3 1 -15 -16 -17 -16 -15 -14 -12 -11 -10 -9 -8 -8 -7 -7 -7 -6 -6 -7 -7 -7 -7 -7 -6 -6 -5 -5 -4 -4 -4 -4 -4 -4 -5 -5 -5 -6 -7 -7 -7 -7 -7 -8 -9 -11 -12 -12 -12 -13 -14 -15 -16 -18 -20 -21 -23 -25 -26 -25 -22 -18 -14 -10 -7 -5 -2 1 2 2 -2 -5 -11 -13 -11 2 7 5 13 17 16 19 24 34 61 60 72 101 118 102 60 25 12 10 -8 -13 -10 -8 -6 -5 -4 -5 -5 -7 -7 -9 -9 -9 -9 -8 -7 -6 -6 -8 -9 -11 -13 -16 -18 -20 -21 -21 -21 -20 -19 -19 -18 -18 -20 -21 -23 -24 -25 -27 -27 -27 -29 -30 -30 -29 -32 -33 -36 -32 -31 -29 -29 -29 -29 -29 -30 -29 -29 -29 -28 -27 -22 -22 -23 -24 -24 -24 -23 -24 -26 -28 -31 -34 -37 -40 -35 -38 -37 -32 -38 -36 -43 -27 -22 -19 -16 -13 -10 -6 -4 -2 -1 0 0 1 2 1 1 1 1 1 -1 -3 2 2 1 -3 -1 -1 7 1 1 1 2 2 3 1 -5 -2 1 1 3 9 16 17 8 4 1 -2 2 1 1 3 6 15 30 48 70 77 69 62 86 106 97 86 83 77 91 94 95 88 58 32 18 10 5 6 5 4 10 14 16 18 14 7 10 14 25 29 25 16 23 30 34 26 26 16 9 4 2 -2 -3 -1 2 2 3 3 -2 -8 -15 -22 -32 -33 -36 -33 -30 -20 -9 1 9 18 26 34 36 31 27 26 21 15 15 15 15 13 9 12 14 20 24 
4 4 5 8 9 9 11 12 12 12 11 11 11 14 17 17 18 16 14 16 18 16 10 7 6 7 6 5 6 7 6 5 4 3 3 4 4 6 6 6 6 9 11 12 13 18 23 24 24 26 27 28 30 31 31 31 28 25 21 16 14 11 12 13 13 13 12 13 12 11 10 8 5 3 -15 -16 -16 -17 -16 -15 -12 -11 -9 -9 -9 -8 -8 -7 -6 -6 -6 -7 -7 -7 -6 -6 -5 -5 -4 -4 -4 -4 -4 -4 -3 -5 -4 -5 -5 -6 -6 -6 -6 -6 -7 -8 -9 -10 -11 -11 -12 -12 -13 -15 -16 -17 -19 -22 -24 -25 -27 -24 -21 -16 -13 -10 -7 -2 0 0 -1 -2 -8 -12 -14 -10 1 3 1 11 20 23 23 27 33 53 42 36 51 97 106 86 37 21 19 8 -11 -8 -5 -3 -3 -4 -5 -5 -5 -7 -7 -8 -7 -7 -6 -5 -4 -5 -6 -7 -9 -12 -14 -17 -19 -20 -20 -19 -19 -18 -18 -16 -16 -18 -21 -23 -24 -25 -26 -26 -26 -27 -29 -31 -31 -29 -32 -33 -32 -31 -31 -30 -29 -28 -30 -31 -30 -29 -29 -28 -25 -25 -24 -24 -25 -25 -25 -25 -26 -29 -29 -30 -31 -35 -45 -45 -42 -39 -30 -32 -30 -27 -23 -19 -16 -13 -9 -6 -5 -4 -3 -1 -1 0 0 1 0 0 0 1 1 1 1 6 6 2 -1 1 3 2 1 2 2 1 1 1 4 -6 -3 -2 0 2 4 17 18 9 6 3 1 2 3 3 3 4 8 16 26 45 65 69 60 69 92 98 90 72 64 69 72 66 54 31 18 16 13 9 8 5 3 5 6 7 7 6 7 16 21 26 26 20 15 19 28 40 30 26 20 10 3 1 -4 -3 0 3 8 9 3 2 2 2 -12 -31 -33 -34 -33 -31 -25 -10 1 8 17 20 27 30 27 23 23 20 12 10 12 13 14 10 7 11 19 21 
5 6 7 9 10 11 10 10 11 11 10 10 11 12 15 16 16 13 12 14 17 15 12 8 7 7 7 6 5 5 4 4 4 5 5 5 5 5 5 5 6 8 10 12 14 18 21 21 22 24 25 26 27 29 30 30 27 26 26 23 21 14 11 12 12 13 13 13 11 11 11 11 8 4 1 -13 -16 -17 -19 -17 -15 -12 -11 -10 -9 -9 -8 -7 -7 -6 -6 -7 -7 -6 -6 -6 -5 -5 -5 -5 -4 -4 -3 -3 -3 -3 -4 -4 -5 -5 -5 -5 -5 -5 -6 -6 -7 -9 -10 -10 -10 -11 -12 -13 -13 -15 -18 -21 -22 -25 -27 -26 -24 -22 -18 -14 -10 -5 -2 -2 -3 -5 -9 -14 -10 -6 3 3 3 10 19 19 18 21 30 49 40 26 34 79 78 56 30 32 30 11 2 -3 -4 -3 -3 -4 -4 -4 -5 -5 -6 -6 -7 -6 -5 -4 -3 -4 -5 -6 -8 -10 -12 -15 -17 -17 -17 -17 -17 -16 -16 -16 -17 -18 -21 -22 -24 -25 -25 -24 -25 -26 -26 -28 -28 -29 -31 -33 -32 -31 -32 -30 -32 -31 -31 -33 -31 -31 -29 -29 -26 -24 -24 -25 -25 -26 -27 -28 -28 -29 -29 -31 -32 -36 -38 -36 -24 -27 -24 -24 -24 -22 -19 -15 -12 -9 -7 -5 -4 -4 -3 -2 -1 -1 -1 0 0 0 0 1 1 2 1 2 4 2 1 2 6 6 6 8 8 3 2 5 -6 -6 -5 -3 7 1 2 5 8 8 8 6 5 5 6 4 3 4 6 13 19 27 42 52 57 61 65 75 84 66 57 49 42 37 26 17 16 20 19 12 6 4 4 5 6 4 2 2 7 12 13 20 24 18 10 18 28 37 32 27 24 15 5 2 -7 -6 -1 4 9 14 6 3 3 2 1 -18 -30 -29 -29 -27 -19 1 1 6 14 14 17 23 25 22 19 17 13 11 12 12 12 10 5 9 16 17 
7 9 10 10 10 10 10 10 11 11 10 10 10 11 14 14 11 10 12 14 15 14 11 8 7 7 7 7 6 3 5 6 7 7 7 7 7 6 6 5 5 7 7 10 14 16 16 16 19 22 23 25 25 26 29 30 27 26 25 23 22 17 12 10 11 12 12 12 11 10 11 12 11 8 3 1 -16 -19 -21 -19 -15 -13 -12 -11 -10 -9 -8 -8 -7 -7 -6 -6 -7 -6 -6 -6 -6 -6 -5 -5 -3 -3 -3 -3 -3 -3 -3 -4 -4 -4 -4 -4 -4 -3 -3 -5 -6 -7 -8 -8 -9 -10 -11 -11 -12 -13 -16 -18 -21 -25 -27 -28 -28 -28 -24 -18 -12 -7 -3 -4 -5 -7 -6 -5 -3 -2 1 4 3 9 11 12 15 15 19 36 31 24 33 47 35 23 18 21 19 10 3 -2 -2 -3 -3 -4 -4 -4 -4 -4 -5 -6 -6 -5 -4 -4 -4 -4 -5 -5 -7 -9 -12 -13 -14 -15 -15 -15 -15 -15 -16 -16 -16 -18 -20 -22 -23 -23 -24 -23 -22 -23 -24 -25 -27 -28 -29 -30 -31 -32 -32 -32 -34 -33 -33 -33 -32 -31 -29 -29 -26 -25 -25 -25 -25 -27 -28 -28 -29 -30 -30 -33 -31 -32 -33 -27 -23 -21 -22 -22 -18 -16 -13 -11 -8 -7 -5 -4 -4 -4 -3 -3 -3 -3 -1 -1 -1 0 0 0 1 2 1 6 1 -1 1 8 14 13 10 10 13 10 3 1 -4 -5 -5 -4 -3 -4 -3 1 1 2 10 9 9 9 10 7 4 5 9 13 17 24 29 36 58 75 67 55 64 64 55 44 30 27 29 27 18 19 19 11 9 9 10 9 6 3 2 2 8 5 4 8 14 10 5 13 23 29 27 24 22 16 7 4 -11 -8 -2 4 8 16 7 4 6 4 3 -16 -23 -23 -24 -23 -15 3 5 4 7 8 10 14 18 20 22 24 18 14 13 13 12 9 4 5 11 13 
8 10 11 12 13 11 10 11 11 11 10 11 11 12 13 11 9 8 11 13 14 12 9 7 7 7 7 7 6 2 6 8 7 7 6 7 7 7 7 5 5 5 5 6 8 10 9 11 16 20 21 22 24 26 27 28 26 24 24 23 23 23 16 11 11 11 12 11 11 12 13 11 10 10 6 2 1 -17 -20 -19 -16 -14 -13 -12 -11 -10 -9 -7 -7 -7 -7 -7 -7 -6 -6 -6 -6 -6 -6 -4 -4 -3 -3 -3 -3 -3 -3 -3 -3 -3 -3 -4 -3 -3 -3 -4 -5 -6 -6 -7 -8 -9 -9 -9 -10 -12 -14 -17 -20 -24 -26 -29 -31 -32 -28 -21 -15 -10 -6 -6 -7 -8 -6 -3 2 1 1 4 17 16 14 17 17 18 21 24 25 22 22 24 17 13 14 15 19 15 7 3 3 -2 -4 -4 -5 -4 -4 -4 -5 -5 -5 -5 -4 -3 -4 -4 -4 -5 -6 -9 -10 -11 -12 -13 -13 -13 -14 -15 -15 -15 -17 -18 -20 -21 -22 -22 -22 -21 -21 -21 -22 -23 -24 -26 -27 -29 -30 -33 -33 -33 -33 -34 -34 -32 -29 -32 -29 -28 -26 -26 -26 -26 -27 -28 -29 -30 -30 -31 -30 -31 -29 -29 -29 -22 -18 -16 -15 -14 -13 -12 -10 -7 -6 -5 -4 -4 -3 -2 -2 -2 -3 -2 -2 -1 -1 -1 0 1 1 1 -6 4 2 1 7 16 24 20 19 15 17 21 11 5 2 1 -4 -2 -3 1 1 1 3 6 14 14 14 14 13 9 6 6 14 18 19 23 26 29 52 78 77 58 46 46 60 56 33 34 60 43 20 16 16 11 11 17 15 8 3 2 2 2 3 2 2 3 4 4 5 19 29 27 22 20 33 23 11 4 -14 -11 -3 4 5 21 16 12 7 -5 -11 -16 -22 -23 -25 -24 -16 1 3 6 5 6 10 16 19 22 28 30 21 17 16 14 11 8 5 4 8 13 
14 14 13 12 13 12 11 10 11 12 11 12 13 12 13 12 9 8 9 12 12 10 8 7 7 7 7 7 6 2 5 7 6 5 5 5 5 5 5 5 5 6 6 6 6 7 8 10 13 18 20 21 24 25 26 26 25 24 23 24 25 25 20 13 11 10 11 11 11 17 22 15 10 10 10 6 2 -12 -17 -17 -17 -15 -15 -13 -12 -11 -9 -8 -7 -7 -7 -7 -7 -7 -6 -6 -6 -6 -5 -4 -4 -3 -3 -3 -3 -3 -3 -3 -3 -3 -2 -2 -2 -2 -2 -3 -4 -4 -5 -6 -7 -7 -8 -9 -10 -10 -13 -16 -19 -21 -25 -28 -32 -34 -30 -24 -18 -12 -9 -9 -10 -11 -9 -6 -2 1 5 14 29 30 28 30 35 45 50 34 26 18 14 14 12 9 9 10 11 10 8 6 5 3 -3 -4 -4 -4 -4 -5 -5 -5 -5 -4 -4 -4 -3 -4 -4 -5 -7 -8 -9 -10 -10 -11 -12 -13 -13 -14 -14 -16 -17 -18 -20 -21 -22 -21 -22 -21 -20 -21 -21 -21 -23 -24 -27 -28 -29 -33 -33 -33 -29 -31 -33 -32 -30 -30 -30 -27 -28 -27 -27 -27 -30 -29 -29 -29 -31 -29 -29 -29 -27 -27 -23 -18 -13 -12 -11 -8 -9 -8 -7 -6 -4 -3 -4 -4 -2 -2 -2 -2 -2 -2 -2 -2 -1 -2 -1 2 3 2 10 1 2 1 3 12 21 20 19 18 18 21 15 11 8 3 -2 2 2 4 2 1 2 4 14 15 17 17 13 8 6 10 28 32 22 20 21 18 29 44 55 57 47 36 48 60 40 38 66 60 32 22 21 15 12 17 17 8 3 2 2 2 3 4 4 3 2 2 2 14 29 29 25 31 33 24 20 9 1 -14 -4 4 5 24 36 24 10 25 -17 -21 -24 -28 -28 -27 -18 -1 9 3 2 4 7 14 18 23 28 25 18 15 13 12 10 10 10 7 5 8 
15 14 13 12 12 11 9 11 13 13 12 13 14 13 14 13 9 7 9 11 11 8 7 8 8 7 6 6 5 2 4 5 4 4 4 4 5 6 5 4 5 5 6 8 10 10 12 13 12 18 20 21 23 25 25 25 25 25 24 23 25 25 19 15 13 12 12 14 16 24 27 16 10 10 10 9 5 2 -11 -14 -15 -17 -16 -15 -13 -12 -11 -9 -8 -6 -7 -7 -7 -7 -6 -6 -6 -5 -4 -4 -3 -3 -3 -3 -3 -3 -3 -3 -3 -2 -2 -2 -3 -3 -3 -3 -3 -3 -4 -5 -5 -6 -7 -8 -8 -10 -12 -15 -17 -20 -23 -26 -29 -31 -29 -24 -19 -15 -13 -11 -12 -13 -12 -10 -7 -1 7 18 29 30 34 33 45 61 71 65 45 28 17 15 11 9 10 9 8 8 8 7 4 2 1 2 1 3 -5 -6 -6 -5 -5 -4 -4 -3 -3 -3 -4 -6 -6 -7 -8 -9 -10 -11 -12 -12 -13 -13 -15 -15 -16 -18 -19 -21 -21 -21 -21 -21 -20 -20 -20 -21 -22 -24 -26 -27 -29 -30 -32 -32 -30 -30 -32 -32 -31 -33 -30 -29 -27 -29 -30 -31 -33 -35 -30 -24 -34 -33 -26 -27 -27 -27 -20 -16 -11 -10 -9 -7 -8 -7 -6 -6 -3 -3 -4 -4 -3 -1 0 3 2 1 -3 -2 -2 -3 -2 1 3 7 3 1 5 5 3 12 17 20 20 25 25 19 16 13 10 3 -2 2 3 5 2 1 3 8 12 12 14 18 17 11 10 13 20 23 18 13 13 11 13 18 27 39 52 35 28 44 44 37 51 71 66 41 38 34 24 21 27 15 4 2 3 4 6 8 8 5 3 2 1 7 39 46 40 44 30 17 20 11 2 -15 -2 5 4 16 30 27 16 6 1 -23 -25 -34 -33 -28 -20 -1 8 5 1 3 7 10 14 21 25 27 21 18 11 9 10 11 11 11 6 5 
13 12 11 11 11 11 5 11 14 13 12 10 11 10 12 12 8 8 8 10 9 7 7 7 7 5 3 4 3 4 5 6 6 6 6 6 7 7 7 6 6 5 6 9 12 13 15 17 18 20 22 22 23 24 24 24 25 25 25 24 25 25 24 20 18 18 19 25 26 29 28 17 10 10 10 10 8 4 2 -9 -13 -17 -18 -15 -14 -13 -12 -10 -8 -8 -7 -6 -7 -7 -6 -6 -5 -4 -4 -4 -3 -3 -3 -3 -3 -3 -3 -3 -2 -2 -2 -3 -3 -3 -4 -3 -3 -3 -4 -5 -5 -6 -7 -7 -9 -10 -12 -13 -15 -18 -20 -23 -26 -28 -27 -24 -20 -17 -15 -14 -14 -15 -14 -13 -8 -3 5 19 29 29 30 29 30 38 49 90 75 49 30 19 12 10 13 13 13 14 10 9 8 6 4 6 7 6 6 -6 -6 -6 -5 -4 -4 -3 -2 -2 -3 -5 -6 -7 -8 -9 -10 -11 -12 -12 -12 -14 -14 -15 -16 -17 -19 -21 -20 -20 -20 -21 -20 -20 -20 -20 -22 -24 -26 -27 -29 -30 -30 -30 -30 -31 -31 -31 -28 -29 -29 -30 -29 -28 -33 -36 -36 -33 -29 -28 -38 -30 -27 -24 -23 -20 -17 -13 -11 -9 -10 -9 -8 -8 -6 -5 -4 -4 -5 -6 -4 -1 6 11 8 3 9 10 5 2 -4 1 2 4 4 1 1 1 1 9 16 21 22 24 27 20 13 9 4 1 -6 -3 1 4 2 -6 1 3 8 10 11 16 21 16 14 13 13 14 13 11 8 8 9 12 19 28 42 38 24 25 36 43 50 72 86 58 57 73 65 38 36 19 6 3 5 9 8 7 6 4 2 2 2 4 48 52 29 46 46 24 17 7 -26 -18 -6 1 3 10 20 21 15 10 2 -21 -28 -42 -34 -28 -21 -8 1 3 1 2 4 6 10 17 27 28 22 16 10 10 11 9 9 11 6 5 
12 11 11 11 10 11 5 8 11 12 11 8 8 8 9 9 8 9 9 9 9 8 8 7 7 6 3 2 1 5 8 8 8 8 9 11 10 8 6 6 5 4 5 7 11 13 15 19 22 23 24 24 24 26 24 23 24 25 25 25 25 27 27 26 25 25 26 27 28 30 29 22 14 10 9 11 10 7 4 4 -10 -15 -16 -16 -14 -14 -13 -12 -10 -8 -7 -7 -6 -6 -6 -4 -4 -4 -4 -3 -3 -3 -3 -3 -3 -3 -3 -2 -2 -2 -2 -3 -3 -3 -3 -3 -3 -3 -4 -3 -4 -5 -6 -7 -8 -10 -12 -12 -14 -17 -18 -21 -24 -25 -25 -23 -20 -18 -16 -16 -15 -15 -13 -11 -5 -1 3 13 16 15 15 19 24 23 25 53 57 45 34 22 15 15 18 16 20 24 16 13 15 14 10 9 9 6 5 -6 -6 -6 -5 -5 -3 -2 -1 -2 -4 -5 -6 -6 -7 -8 -10 -11 -11 -12 -13 -14 -14 -16 -16 -18 -19 -20 -21 -20 -22 -21 -21 -20 -20 -20 -22 -23 -25 -27 -28 -29 -30 -30 -30 -30 -30 -30 -28 -27 -28 -30 -31 -33 -34 -35 -36 -29 -28 -29 -29 -27 -25 -21 -19 -18 -16 -13 -11 -11 -10 -10 -9 -7 -6 -4 -3 -3 -5 -6 -4 -1 7 20 15 5 12 16 7 3 1 -1 1 1 1 0 -2 -2 -1 8 14 16 17 16 17 18 13 10 4 1 1 1 -2 4 1 -5 -3 7 6 11 12 17 22 18 14 10 9 9 12 12 7 6 7 9 14 19 23 27 26 18 21 42 65 74 70 72 96 123 125 74 34 16 12 6 5 12 14 12 9 5 4 4 1 2 37 31 16 41 56 36 22 7 -22 -18 -9 3 8 13 15 19 20 13 3 -13 -18 -29 -27 -26 -22 -12 1 2 1 1 4 4 7 13 25 25 21 15 13 14 13 8 5 5 4 3 
11 12 13 13 5 7 6 5 6 7 7 8 10 11 10 9 11 12 10 9 9 9 7 8 8 4 4 2 2 6 9 10 9 9 9 11 10 7 6 8 7 6 6 6 7 11 17 20 23 25 26 26 25 27 26 23 23 24 25 25 25 25 26 27 27 27 27 27 27 28 28 26 21 12 10 12 12 11 9 4 2 -12 -14 -15 -15 -15 -15 -13 -11 -9 -8 -7 -6 -6 -4 -4 -3 -3 -3 -3 -3 -3 -3 -3 -3 -3 -2 -2 -2 -2 -2 -3 -3 -2 -3 -3 -3 -3 -2 -3 -4 -5 -5 -6 -8 -9 -10 -11 -13 -14 -17 -19 -22 -23 -22 -21 -19 -18 -17 -16 -16 -15 -13 -8 -4 -2 1 3 4 8 15 20 19 18 20 28 25 26 25 18 19 19 17 15 20 26 21 21 24 21 19 16 15 5 2 -6 -6 -5 -5 -4 -3 -1 1 -2 -4 -5 -5 -6 -6 -8 -9 -11 -11 -12 -13 -13 -15 -15 -16 -18 -18 -20 -21 -22 -21 -22 -21 -21 -20 -20 -21 -23 -25 -27 -28 -29 -28 -29 -29 -30 -29 -29 -30 -29 -30 -30 -30 -33 -36 -36 -36 -36 -29 -26 -26 -25 -22 -19 -18 -17 -16 -13 -11 -12 -11 -11 -9 -8 -6 -4 -2 -1 -6 -10 -7 -3 4 19 20 9 5 13 8 4 1 1 1 -1 0 1 1 0 1 8 10 10 11 6 5 10 7 7 7 11 9 5 2 1 -5 -2 -1 1 5 10 14 18 20 19 16 12 9 7 9 10 8 6 5 6 9 12 14 16 22 19 18 30 58 67 46 63 104 131 124 74 34 14 7 3 4 9 10 9 7 8 14 10 3 2 24 15 13 36 39 47 30 7 -21 -16 -11 10 11 7 13 18 18 7 3 -13 -14 -33 -28 -28 -26 -19 2 6 2 -2 3 2 2 12 22 20 18 16 20 21 15 12 5 3 3 3 
7 9 6 8 6 3 2 1 2 2 2 5 6 8 9 9 12 12 10 9 8 7 5 5 5 4 4 2 3 8 10 9 9 9 10 10 8 7 8 10 10 10 9 9 7 8 11 15 22 24 25 25 25 26 25 23 23 24 25 25 24 25 24 25 26 27 27 28 28 27 27 24 20 14 12 11 11 11 11 8 4 2 -12 -12 -13 -15 -16 -15 -12 -11 -8 -7 -7 -5 -4 -3 -3 -3 -3 -3 -3 -4 -4 -4 -3 -2 -2 -2 -2 -2 -2 -2 -2 -2 -3 -2 -2 -3 -2 -3 -3 -3 -4 -6 -7 -8 -9 -10 -11 -13 -15 -18 -20 -21 -21 -20 -19 -18 -17 -16 -15 -15 -12 -10 -7 -7 -5 1 4 7 10 13 14 16 19 16 14 16 16 14 16 14 14 14 15 21 21 21 21 27 28 24 20 8 5 -4 -4 -4 -5 -4 -3 -1 -2 -3 -5 -5 -5 -5 -5 -7 -8 -10 -11 -12 -13 -13 -14 -15 -16 -17 -18 -20 -22 -22 -21 -21 -22 -21 -21 -20 -21 -23 -25 -26 -28 -28 -28 -28 -29 -29 -30 -30 -31 -31 -31 -31 -32 -34 -36 -44 -40 -29 -28 -25 -25 -22 -19 -18 -17 -16 -14 -13 -12 -11 -11 -12 -11 -9 -6 -4 -1 1 2 1 1 1 3 16 20 12 8 10 12 4 1 4 2 -3 0 2 3 2 2 8 8 5 3 1 1 3 2 3 3 10 13 4 3 2 6 -3 1 3 2 9 14 15 16 15 15 16 12 7 6 6 6 5 5 5 8 11 14 19 19 22 19 19 29 38 29 49 75 93 68 37 28 16 9 6 6 9 9 7 7 11 18 12 3 1 9 9 7 8 23 31 12 2 -19 -14 2 3 4 8 21 24 13 5 3 -10 -18 -32 -32 -30 -29 -21 -4 2 -5 -4 1 2 7 16 19 16 17 18 24 24 18 14 8 7 6 5 
8 7 4 2 2 1 1 3 2 3 1 4 2 2 3 7 10 12 10 8 7 5 2 2 2 2 2 2 5 9 10 10 9 9 9 11 9 9 10 12 15 14 12 12 11 9 10 15 21 23 24 25 25 26 25 23 22 22 25 25 25 24 23 24 25 26 27 27 28 28 26 23 21 14 11 12 12 11 11 9 6 3 1 -8 -12 -15 -18 -16 -15 -12 -10 -8 -7 -5 -3 -3 -3 -3 -3 -3 -4 -4 -4 -4 -4 -2 -2 -2 -2 -2 -2 -1 -2 -2 -2 -2 -2 -2 -2 -3 -3 -3 -4 -5 -6 -7 -8 -9 -10 -11 -13 -15 -17 -19 -19 -19 -17 -16 -16 -15 -14 -13 -12 -11 -10 -10 -9 -5 1 3 4 7 13 15 16 12 12 12 12 11 10 11 11 15 16 15 14 19 19 27 30 23 18 10 3 1 -1 -2 -4 -3 -3 -3 -3 -3 -4 -4 -5 -6 -4 -5 -5 -8 -10 -12 -13 -13 -14 -15 -16 -16 -18 -20 -22 -22 -21 -21 -20 -20 -19 -20 -21 -23 -24 -26 -26 -27 -28 -28 -29 -29 -31 -31 -31 -31 -31 -31 -33 -34 -37 -41 -26 -24 -25 -24 -22 -21 -19 -18 -18 -17 -16 -14 -12 -13 -13 -13 -13 -10 -7 -3 -1 1 4 5 6 5 5 11 15 14 15 14 14 6 1 1 -6 -4 -2 3 4 2 1 6 8 3 1 2 6 7 9 8 7 8 9 5 4 12 6 1 1 3 3 7 9 9 11 12 13 18 13 9 8 8 7 6 7 7 7 8 13 28 27 27 31 25 19 23 28 50 75 86 51 24 20 13 9 8 6 7 6 6 6 8 12 9 3 -3 2 5 2 1 5 7 6 2 -12 7 3 1 3 12 25 27 13 5 1 -6 -17 -32 -32 -33 -33 -23 -8 1 3 4 2 5 10 15 13 9 13 20 25 24 19 16 8 6 5 5 
4 4 4 1 1 0 1 4 2 0 1 -2 -3 2 4 7 5 9 8 6 5 2 3 5 5 5 4 5 6 8 9 10 10 10 10 12 12 11 11 14 20 19 18 17 18 18 18 20 23 24 24 25 26 26 25 23 22 21 23 24 24 23 23 23 23 24 25 26 26 26 25 24 22 16 15 18 17 14 13 10 9 6 3 6 -8 -14 -18 -18 -15 -13 -11 -9 -7 -5 -3 -2 -2 -2 -3 -3 -3 -4 -5 -4 -3 -2 -2 -2 -2 -2 -2 -1 -1 -1 -1 -2 -2 -2 -2 -2 -2 -2 -3 -4 -4 -5 -7 -7 -9 -10 -11 -13 -16 -18 -18 -17 -16 -15 -14 -14 -14 -13 -12 -11 -11 -11 -11 -8 -5 -3 2 8 17 17 13 13 12 10 10 12 12 11 10 16 18 15 12 15 15 18 23 21 18 12 5 2 1 -1 -2 -3 -4 -3 -3 -3 -3 -2 -6 -9 -7 -5 -3 -6 -9 -12 -13 -13 -15 -15 -15 -16 -17 -18 -20 -20 -20 -19 -20 -19 -19 -20 -21 -22 -24 -25 -26 -27 -28 -28 -29 -30 -31 -32 -32 -31 -31 -31 -31 -32 -33 -34 -30 -26 -23 -21 -20 -19 -19 -20 -21 -22 -16 -14 -12 -13 -14 -16 -18 -12 -8 -4 0 2 6 11 19 22 16 13 16 17 20 19 14 10 6 1 -8 -6 -4 -2 0 0 -1 2 5 4 1 4 11 15 16 13 11 11 9 15 17 18 12 3 -1 0 1 3 3 5 8 10 12 15 13 13 13 11 8 7 8 8 7 7 12 29 33 31 38 41 27 15 27 51 71 82 66 37 26 15 11 11 9 6 6 5 3 3 5 5 1 -7 1 2 1 -7 -6 -4 4 2 -2 -6 2 1 2 8 13 20 8 1 2 -5 -16 -26 -32 -36 -38 -25 -12 1 2 4 5 7 10 11 10 6 7 16 23 21 17 17 13 9 9 10 
1 -4 -2 -3 3 4 1 1 2 2 2 2 -2 -8 2 4 6 7 3 1 1 1 5 7 7 7 7 7 6 7 7 8 8 10 11 15 16 13 13 17 23 23 22 22 23 23 22 22 24 25 26 26 27 27 25 24 23 22 23 23 22 21 22 22 22 22 22 25 25 25 24 24 24 20 16 17 15 13 13 11 10 9 7 5 1 -10 -15 -16 -16 -14 -12 -9 -7 -5 -2 -2 -2 -2 -2 -2 -3 -3 -4 -4 -2 -2 -2 -2 -2 -2 -1 -2 -1 -1 -1 -1 -1 -1 -2 -2 -2 -2 -3 -4 -4 -5 -5 -6 -8 -9 -10 -12 -14 -15 -16 -16 -15 -15 -14 -14 -14 -13 -12 -11 -12 -12 -11 -9 -8 -6 2 9 16 14 11 17 17 13 13 15 14 11 11 17 19 20 17 13 12 15 19 22 19 18 11 6 4 0 -2 -4 -4 -4 -4 -3 -2 -1 -4 -8 -8 -6 -5 -7 -10 -12 -13 -14 -15 -15 -15 -16 -16 -17 -19 -19 -19 -19 -18 -19 -19 -20 -21 -21 -23 -24 -26 -27 -28 -28 -30 -30 -31 -31 -31 -32 -30 -31 -29 -30 -30 -31 -27 -23 -21 -19 -17 -17 -18 -19 -20 -22 -16 -14 -13 -14 -15 -16 -18 -11 -8 -4 0 4 6 9 23 29 24 20 21 21 19 15 14 13 6 -6 -8 -7 -5 -3 -2 -2 -2 -1 1 3 3 4 10 16 19 15 11 9 8 12 19 20 14 4 0 0 -1 0 5 3 6 8 12 16 17 15 12 10 6 5 7 7 5 6 9 20 25 27 31 44 38 19 20 38 59 69 74 66 62 41 31 28 19 9 6 4 1 1 2 2 2 1 -7 -4 -3 19 -5 -3 1 2 3 1 -10 1 13 5 14 10 4 2 0 -3 -17 -26 -31 -35 -35 -25 -13 3 3 4 2 4 7 8 8 6 4 9 15 13 10 15 17 17 18 20 
-18 18 10 1 1 2 4 5 7 7 3 2 -7 -13 -9 -3 0 3 2 1 1 2 6 8 8 8 8 8 7 6 7 6 8 11 14 18 18 16 14 16 21 24 24 24 24 23 23 23 25 26 27 27 29 29 27 25 23 23 24 23 22 20 21 21 20 20 21 24 24 24 23 22 22 20 18 20 19 15 13 13 11 10 10 7 2 3 -10 -13 -14 -15 -12 -10 -7 -5 -3 -1 -1 -1 -1 -2 -2 -3 -3 -2 -2 -1 -1 -2 -2 -3 -2 -2 -2 -1 -1 -1 -1 -1 -1 -1 -1 -2 -3 -2 -3 -4 -4 -6 -7 -7 -9 -11 -12 -14 -15 -15 -15 -13 -13 -14 -14 -13 -12 -11 -12 -13 -9 -9 -11 -10 3 9 15 6 2 12 18 16 15 15 11 9 11 13 17 23 23 16 11 13 16 20 18 15 9 5 4 0 -2 -4 -4 -6 -5 -4 -3 -2 -5 -7 -9 -6 -5 -6 -9 -11 -13 -14 -14 -15 -15 -15 -16 -16 -18 -17 -19 -18 -18 -19 -19 -20 -20 -21 -23 -24 -25 -27 -27 -28 -30 -30 -31 -31 -32 -32 -31 -30 -29 -30 -30 -27 -24 -21 -19 -17 -15 -15 -17 -17 -18 -17 -16 -15 -13 -13 -14 -15 -18 -10 -7 -3 0 3 3 4 12 12 16 21 25 27 20 13 17 12 3 -5 3 -6 -4 -3 -3 -3 1 1 1 1 4 8 11 13 15 11 8 6 9 8 16 21 12 3 1 1 1 -3 -2 1 4 7 13 17 18 15 11 11 10 8 7 5 4 5 6 14 17 16 21 35 41 23 11 17 40 49 56 71 90 94 80 63 41 17 8 4 1 -5 2 6 7 2 1 1 15 21 -3 -2 -1 2 7 3 -9 -2 1 3 5 6 9 8 2 -6 -23 -27 -28 -31 -29 -20 -8 5 4 2 1 3 4 6 4 3 3 3 5 6 8 16 16 19 19 23 
16 2 3 3 4 5 7 9 12 12 3 2 1 -12 -10 -7 -4 -2 1 1 2 1 4 6 9 10 9 9 8 7 7 6 8 11 15 15 14 13 13 15 20 24 23 24 24 24 24 25 24 26 26 27 30 31 29 26 25 24 24 24 22 21 21 21 20 21 22 21 21 22 21 21 22 21 21 23 24 21 16 18 18 12 10 10 6 2 1 -9 -12 -13 -12 -9 -7 -5 -3 -3 -1 -1 -1 -1 -2 -2 -1 -1 -1 -1 -1 -2 -2 -2 -2 -2 -2 -1 -1 0 0 -1 -1 -2 -1 -2 -2 -2 -3 -3 -4 -5 -6 -7 -9 -9 -11 -13 -14 -13 -14 -14 -14 -14 -14 -13 -12 -10 -9 -10 -8 -9 -12 -14 -13 2 3 2 1 5 10 13 14 11 9 8 10 11 18 27 24 17 12 9 11 16 16 16 9 5 4 3 -3 -4 -5 -6 -6 -4 -3 -2 -4 -5 -6 -5 -4 -5 -8 -11 -14 -14 -14 -14 -15 -15 -15 -17 -16 -16 -16 -17 -18 -19 -18 -19 -20 -21 -23 -24 -25 -26 -27 -28 -29 -30 -31 -32 -31 -30 -30 -29 -29 -27 -26 -24 -21 -19 -17 -15 -15 -15 -15 -16 -16 -15 -15 -13 -12 -12 -13 -13 -18 -9 -6 -2 1 4 5 6 5 2 7 12 17 22 30 19 12 6 1 6 -5 -4 -3 -2 -1 2 8 7 4 1 2 6 4 10 16 11 6 5 6 7 11 20 8 1 8 10 4 1 2 2 1 5 9 11 12 10 10 11 10 8 7 5 4 3 1 5 9 11 16 30 32 23 11 9 18 31 39 53 74 92 79 63 59 41 21 8 2 -5 1 2 4 2 1 3 1 -1 -2 -2 -1 -5 1 1 11 5 11 5 5 10 9 8 2 -1 -15 -20 -23 -25 -23 -15 -6 1 1 1 1 2 4 4 3 3 3 1 2 5 10 16 13 17 15 20 
5 7 7 6 6 6 6 8 12 12 7 4 1 4 4 1 1 2 -1 0 2 3 3 6 7 8 9 8 9 8 7 6 7 9 12 11 10 11 14 17 19 24 24 24 25 26 27 26 25 26 27 28 30 31 28 25 24 24 23 23 22 21 21 23 22 21 21 20 20 21 22 22 23 24 24 25 25 24 21 20 22 15 11 10 11 7 2 1 -9 -11 -10 -9 -7 -5 -4 -2 -1 -1 -1 -1 -1 -1 -1 0 0 0 -1 -1 -2 -2 -2 -2 -2 -1 0 0 0 0 -1 -1 -1 -2 -3 -2 -3 -3 -4 -5 -7 -7 -8 -9 -10 -11 -12 -13 -14 -13 -14 -15 -14 -14 -11 -8 -7 -7 -7 -7 -11 -14 -13 -5 3 4 4 1 7 11 11 8 7 6 7 8 12 21 20 19 17 13 9 9 12 13 11 8 5 4 -2 -4 -5 -6 -7 -6 -5 -4 -2 -3 -3 -4 -4 -6 -8 -11 -13 -14 -14 -14 -14 -15 -15 -16 -16 -16 -16 -17 -17 -18 -18 -19 -20 -21 -23 -24 -25 -26 -27 -28 -29 -29 -31 -31 -31 -30 -29 -29 -27 -26 -23 -20 -18 -16 -14 -12 -13 -12 -13 -14 -14 -14 -14 -13 -11 -12 -11 -11 -10 -7 -4 -1 3 5 7 6 4 2 1 3 11 17 21 15 9 3 6 -2 -2 -1 -1 -1 1 3 10 15 14 8 4 3 2 13 21 14 10 10 10 7 8 18 12 4 6 7 4 3 1 -5 1 3 5 7 8 7 8 8 7 6 5 5 2 2 1 1 5 11 14 26 37 33 15 6 9 21 32 46 59 62 58 51 56 45 35 13 5 -6 5 4 1 6 5 4 -1 0 0 -1 20 -6 1 -5 2 29 12 6 11 13 9 4 1 -2 -11 -16 -19 -20 -19 -14 -6 1 1 0 1 1 2 3 3 2 2 2 2 3 5 9 9 10 7 12 
6 7 7 7 6 6 6 6 8 8 3 4 2 2 5 6 4 3 2 1 0 1 1 5 7 8 8 8 8 9 7 6 6 7 9 8 9 13 15 18 21 24 25 25 25 27 26 25 24 26 27 28 29 31 28 24 24 25 23 22 22 21 21 24 24 22 23 22 22 23 24 24 25 26 26 26 26 26 23 22 24 20 15 13 15 12 7 2 1 -8 -7 -7 -6 -5 -4 -3 -1 0 -1 -1 -1 -1 -1 0 0 0 0 -1 -3 -4 -3 -2 -2 -1 -1 0 0 0 0 0 -1 -2 -3 -2 -3 -3 -4 -5 -5 -7 -7 -8 -9 -9 -11 -13 -13 -14 -15 -15 -15 -15 -11 -7 -6 -7 -7 -7 -11 -14 -13 -10 -3 1 3 3 6 6 6 4 2 2 2 4 6 9 13 18 19 17 11 6 8 12 16 14 9 5 1 -3 -6 -7 -8 -7 -5 -4 -3 -3 -3 -4 -3 -6 -8 -11 -12 -12 -13 -14 -14 -14 -14 -16 -15 -15 -15 -16 -16 -17 -17 -18 -19 -20 -23 -24 -25 -26 -27 -28 -29 -29 -30 -31 -31 -30 -29 -28 -26 -23 -20 -17 -15 -13 -12 -11 -10 -11 -11 -13 -14 -13 -13 -11 -10 -11 -10 -9 -8 -5 -3 0 3 5 7 7 2 2 1 3 3 12 17 15 11 5 1 -2 1 0 0 -1 9 1 10 17 20 15 8 5 5 13 18 16 16 16 13 9 5 9 10 8 6 6 3 6 3 1 -8 -9 1 1 2 2 5 6 4 3 2 1 2 1 1 1 4 7 13 22 32 37 20 6 4 9 16 29 37 38 32 30 42 37 32 18 7 2 1 1 -4 2 2 -1 0 1 1 1 -3 -7 -10 1 3 15 5 6 11 14 8 4 -1 -3 -9 -15 -19 -20 -18 -14 -8 -2 0 0 0 1 1 1 1 1 2 2 3 3 3 5 6 6 5 10 
7 8 7 8 7 6 5 5 6 6 1 2 3 5 8 9 7 6 6 3 1 -6 -7 1 6 8 8 8 8 8 6 6 6 7 7 8 11 14 16 19 23 26 26 26 25 25 25 25 25 25 26 27 29 30 27 23 23 25 22 19 22 22 22 24 25 25 25 25 24 25 25 25 26 27 27 26 27 27 25 25 25 24 21 18 19 16 11 7 4 2 -3 -4 -5 -6 -5 -5 -2 -1 -1 -1 -1 -1 -1 0 0 0 0 -1 -2 -2 -2 -2 -2 -1 -1 0 0 0 1 0 -1 -2 -2 -2 -3 -2 -3 -4 -5 -6 -8 -8 -8 -9 -11 -12 -14 -15 -16 -16 -15 -14 -11 -6 -6 -8 -8 -9 -9 -11 -11 -15 -8 -2 0 1 2 2 0 -2 2 5 1 0 2 2 5 12 17 17 13 8 7 11 23 24 17 11 4 -3 -8 -8 -8 -7 -6 -4 -4 -5 -4 -3 -3 -5 -7 -10 -11 -11 -12 -13 -14 -14 -14 -14 -14 -15 -15 -16 -16 -17 -17 -18 -19 -20 -22 -24 -24 -26 -27 -27 -28 -28 -30 -29 -30 -30 -29 -27 -26 -22 -18 -15 -13 -11 -10 -9 -8 -9 -11 -13 -13 -13 -11 -11 -10 -9 -9 -8 -6 -5 -2 1 4 3 3 3 1 1 2 1 2 10 13 16 13 5 1 1 3 1 -1 -2 1 2 8 13 20 20 13 12 12 10 11 14 21 22 17 16 11 6 5 7 10 10 9 10 6 3 2 -8 -5 1 -1 1 1 2 3 3 1 -15 0 0 0 -8 3 3 8 17 23 34 26 11 3 3 6 19 20 24 20 15 18 17 21 27 17 5 1 -1 1 2 1 1 1 2 1 3 2 -5 -8 -4 2 17 5 5 9 8 4 0 -4 -5 -11 -16 -21 -24 -23 -17 -11 -4 -2 -2 -2 -1 2 1 2 1 1 1 2 3 3 3 3 3 3 6 
